%
O01004
(Using high feed G1 F500. instead of G0.)
(T1 D=4. CR=0. - ZMIN=-6. - flat end mill)
(T2 D=2. CR=1. - ZMIN=-7.35 - ball end mill)
N10 G90 G94 G17
N15 G21
N20 G53 G0 Z0.

(Adaptive1)
N25 T1 M6
N30 S6000 M3
N35 G54
N40 M11
N45 G0 A0.
N50 M10
N55 M8
N60 G1 X-17.105 Y5.9 F500.
N65 G0 G43 Z16. H1
N70 T2
N75 G0 Z6.
N80 Z3.5
N85 G3 X-16.946 Y5.854 Z3.089 I-0.449 J-1.846 F75.
N90 X-16.792 Y5.794 Z2.678 I-0.609 J-1.8
N95 X-16.643 Y5.721 Z2.267 I-0.763 J-1.74
N100 X-16.501 Y5.635 Z1.856 I-0.912 J-1.667
N105 X-16.367 Y5.537 Z1.445 I-1.054 J-1.581
N110 X-16.242 Y5.428 Z1.033 I-1.188 J-1.483
N115 X-16.128 Y5.308 Z0.622 I-1.312 J-1.374
N120 X-16.024 Y5.179 Z0.211 I-1.427 J-1.254
N125 X-15.932 Y5.041 Z-0.2 I-1.531 J-1.125
N130 X-15.852 Y4.896 Z-0.611 I-1.623 J-0.988
N135 X-15.785 Y4.744 Z-1.022 I-1.703 J-0.842
N140 X-15.731 Y4.588 Z-1.433 I-1.77 J-0.691
N145 X-15.692 Y4.427 Z-1.844 I-1.823 J-0.534
N150 X-15.666 Y4.263 Z-2.255 I-1.863 J-0.373
N155 X-15.655 Y4.097 Z-2.666 I-1.888 J-0.209
N160 X-15.659 Y3.932 Z-3.078 I-1.899 J-0.044
N165 X-15.677 Y3.767 Z-3.489 I-1.896 J0.122
N170 X-15.709 Y3.604 Z-3.9 I-1.878 J0.287
N175 X-15.755 Y3.445 Z-4.311 I-1.846 J0.449
N180 X-15.815 Y3.291 Z-4.722 I-1.8 J0.609
N185 X-15.888 Y3.142 Z-5.133 I-1.74 J0.763
N190 X-15.974 Y3. Z-5.544 I-1.667 J0.912
N195 X-16.072 Y2.866 Z-5.955 I-1.581 J1.054
N200 X-15.655 Y4.054 Z-6. I-1.483 J1.188
N205 X-19.455 I-1.9 J0.
N210 X-15.655 I1.9 J0.
N215 G1 X-15.65 Y4.256 F300.
N220 X-15.488 Y4.927
N225 X-15.464 Y5.075
N230 X-15.462 Y5.225
N235 X-15.477 Y5.374
N240 X-15.51 Y5.52
N245 X-15.557 Y5.663
N250 X-15.617 Y5.8
N255 X-15.688 Y5.932
N260 X-15.772 Y6.059
N265 X-15.87 Y6.185
N270 X-15.982 Y6.307
N275 X-16.109 Y6.424
N280 X-16.249 Y6.534
N285 X-16.402 Y6.636
N290 X-16.568 Y6.728
N295 X-16.745 Y6.809
N300 X-16.933 Y6.876
N305 X-17.129 Y6.93
N310 X-17.334 Y6.968
N315 X-17.544 Y6.99
N320 X-17.76 Y6.995
N325 X-17.978 Y6.983
N330 X-18.197 Y6.953
N335 X-18.416 Y6.905
N340 X-18.632 Y6.838
N345 X-18.845 Y6.754
N350 X-19.051 Y6.653
N355 X-19.251 Y6.534
N360 X-19.441 Y6.398
N365 X-19.621 Y6.247
N370 X-19.789 Y6.081
N375 X-19.943 Y5.902
N380 X-20.084 Y5.71
N385 X-20.208 Y5.506
N390 X-20.317 Y5.293
N395 X-20.408 Y5.071
N400 X-20.482 Y4.842
N405 X-20.536 Y4.607
N410 X-20.572 Y4.368
N415 X-20.589 Y4.127
N420 X-20.586 Y3.885
N425 X-20.564 Y3.644
N430 X-20.522 Y3.404
N435 X-20.461 Y3.169
N440 X-20.382 Y2.94
N445 X-20.284 Y2.717
N450 X-20.169 Y2.502
N455 X-20.036 Y2.298
N460 X-19.888 Y2.105
N465 X-19.725 Y1.924
N470 X-19.547 Y1.757
N475 X-19.357 Y1.604
N480 X-19.155 Y1.467
N485 X-18.942 Y1.347
N490 X-18.721 Y1.245
N495 X-18.492 Y1.16
N500 X-18.257 Y1.094
N505 X-18.017 Y1.047
N510 X-17.775 Y1.02
N515 X-17.531 Y1.012
N520 X-17.287 Y1.023
N525 X-17.045 Y1.055
N530 X-16.806 Y1.105
N535 X-16.571 Y1.175
N540 X-16.344 Y1.263
N545 X-16.124 Y1.369
N550 X-15.913 Y1.493
N555 X-15.712 Y1.633
N560 X-15.524 Y1.788
N565 X-15.349 Y1.958
N570 X-15.188 Y2.142
N575 X-15.042 Y2.338
N580 X-14.872 Y2.611
N585 X-14.619 Y3.097
N590 X-14.454 Y3.49
N595 X-14.344 Y3.824
N600 X-14.27 Y4.129
N605 X-14.224 Y4.418
N610 X-14.203 Y4.697
N615 X-14.204 Y4.968
N620 X-14.226 Y5.233
N625 X-14.269 Y5.493
N630 X-14.333 Y5.747
N635 X-14.417 Y5.996
N640 X-14.521 Y6.238
N645 X-14.644 Y6.473
N650 X-14.788 Y6.699
N655 X-14.951 Y6.915
N660 X-15.132 Y7.119
N665 X-15.332 Y7.31
N670 X-15.549 Y7.487
N675 X-15.783 Y7.648
N680 X-16.033 Y7.792
N685 X-16.297 Y7.917
N690 X-16.574 Y8.022
N695 X-16.862 Y8.106
N700 X-17.16 Y8.166
N705 X-17.465 Y8.204
N710 X-17.775 Y8.216
N715 X-17.937 Y8.21
N720 X-18.039 Y8.2
N725 X-18.139 Y8.179
N730 X-18.237 Y8.148
N735 X-19.368 Y7.709
N740 X-19.732 Y7.548
N745 X-19.976 Y7.415
N750 X-20.216 Y7.259
N755 X-20.449 Y7.078
N760 X-20.671 Y6.876
N765 X-20.88 Y6.652
N770 X-21.073 Y6.409
N775 X-21.248 Y6.147
N780 X-21.404 Y5.869
N785 X-21.539 Y5.576
N790 X-21.651 Y5.269
N795 X-21.738 Y4.951
N800 X-21.801 Y4.625
N805 X-21.829 Y4.363
N810 X-21.834 Y4.235
N815 X-21.822 Y4.107
N820 X-21.792 Y3.982
N825 G3 X-21.083 Y3.891 I0.377 J0.133
N830 G1 X-18.906 Y7.107
N835 G3 X-19.368 Y7.709 I-0.331 J0.224
N840 G1 X-19.457 Y7.675
N845 X-19.64 Y7.606
N850 X-20.191 Y7.471
N855 X-20.558 Y7.401
N860 X-20.873 Y7.342
N865 X-21.033 Y7.304
N870 X-21.176 Y7.257
N875 X-21.323 Y7.196
N880 X-21.48 Y7.114
N885 X-21.64 Y7.014
N890 X-21.811 Y6.887
N895 X-21.976 Y6.743
N900 X-22.149 Y6.566
N905 X-22.316 Y6.363
N910 X-22.362 Y6.297
N915 X-22.48 Y6.065
N920 X-22.53 Y5.81
N925 X-22.507 Y5.551
N930 X-22.413 Y5.308
N935 G3 X-21.77 Y5.251 I0.343 J0.206
N940 G1 X-21.748 Y5.276
N945 X-20.513 Y6.683
N950 G3 X-20.873 Y7.342 I-0.301 J0.264
N955 G1 X-22.027 Y7.127
N960 X-22.21 Y7.099
N965 X-22.358 Y7.077
N970 X-22.557 Y6.972
N975 X-22.718 Y6.816
N980 X-22.827 Y6.619
N985 X-22.875 Y6.4
N990 X-22.859 Y6.176
N995 X-22.779 Y5.966
N1000 G3 X-22.035 Y5.635 I0.609 J0.367
N1005 X-21.436 Y6.36 I-0.141 J0.726
N1010 G1 Y6.361
N1015 G3 X-22.21 Y7.099 I-0.739 J0.
N1020 G1 X-22.577 Y7.069
N1025 X-22.724 Y7.065
N1030 X-22.761 Y7.064
N1035 X-22.807 Y7.054
N1040 X-22.853 Y7.037
N1045 X-22.898 Y7.014
N1050 X-22.944 Y6.983
N1055 X-22.954 Y6.975
N1060 X-23.001 Y6.929
N1065 X-23.039 Y6.883
N1070 X-23.067 Y6.837
N1075 X-23.087 Y6.792
N1080 X-23.101 Y6.746
N1085 X-23.11 Y6.7
N1090 X-23.113 Y6.654
N1095 X-23.11 Y6.608
N1100 X-23.102 Y6.562
N1105 X-23.089 Y6.516
N1110 X-23.069 Y6.47
N1115 X-22.944 Y6.263
N1120 X-22.115 Y4.772
N1125 X-22.02 Y4.589
N1130 X-21.932 Y4.405
N1135 X-21.843 Y4.145
N1140 X-21.463 Y2.937
N1145 X-21.295 Y2.386
N1150 X-21.194 Y2.105
N1155 X-21.081 Y1.856
N1160 X-20.944 Y1.61
N1165 X-20.784 Y1.37
N1170 X-20.602 Y1.139
N1175 X-20.397 Y0.918
N1180 X-20.17 Y0.709
N1185 X-19.921 Y0.516
N1190 X-19.654 Y0.34
N1195 X-19.369 Y0.184
N1200 X-19.07 Y0.05
N1205 X-18.758 Y-0.061
N1210 X-18.436 Y-0.147
N1215 X-18.106 Y-0.207
N1220 X-17.77 Y-0.24
N1225 X-17.431 Y-0.247
N1230 X-17.092 Y-0.226
N1235 X-16.754 Y-0.178
N1240 X-16.42 Y-0.103
N1245 X-16.093 Y-0.001
N1250 X-15.774 Y0.127
N1255 X-15.466 Y0.281
N1260 X-15.171 Y0.459
N1265 X-14.882 Y0.666
N1270 X-14.604 Y0.902
N1275 X-14.307 Y1.199
N1280 X-14.018 Y1.537
N1285 X-13.972 Y1.6
N1290 X-13.888 Y1.742
N1295 X-13.829 Y1.897
N1300 X-13.799 Y2.06
N1305 X-13.768 Y2.386
N1310 X-13.647 Y2.937
N1315 X-13.544 Y3.304
N1320 X-13.23 Y4.405
N1325 X-13.172 Y4.66
N1330 X-13.134 Y4.916
N1335 X-13.116 Y5.19
N1340 X-13.119 Y5.473
N1345 X-13.147 Y5.762
N1350 X-13.199 Y6.059
N1355 X-13.278 Y6.362
N1360 X-13.385 Y6.668
N1365 X-13.519 Y6.972
N1370 X-13.682 Y7.273
N1375 X-13.872 Y7.565
N1380 X-14.088 Y7.846
N1385 X-14.33 Y8.113
N1390 X-14.598 Y8.364
N1395 X-14.888 Y8.596
N1400 X-15.203 Y8.807
N1405 X-15.538 Y8.996
N1410 X-15.662 Y9.053
N1415 X-15.881 Y9.123
N1420 X-16.11 Y9.137
N1425 X-16.335 Y9.095
N1430 X-16.544 Y8.999
N1435 X-17.254 Y8.562
N1440 X-17.805 Y8.317
N1445 X-17.988 Y8.244
N1450 X-18.237 Y8.148
N1455 G3 X-18.315 Y7.456 I0.157 J-0.368
N1460 G1 X-13.871 Y4.223
N1465 X-13.846 Y4.205
N1470 G3 X-13.23 Y4.405 I0.235 J0.323
N1475 G1 X-13.126 Y4.772
N1480 X-13.066 Y4.956
N1485 X-13.032 Y5.055
N1490 X-12.912 Y5.323
N1495 X-12.665 Y5.818
N1500 X-12.605 Y5.956
N1505 X-12.562 Y6.1
N1510 X-12.529 Y6.257
N1515 X-12.506 Y6.437
N1520 X-12.497 Y6.631
N1525 X-12.504 Y6.845
N1530 X-12.53 Y7.08
N1535 X-12.578 Y7.322
N1540 X-12.653 Y7.59
N1545 X-12.754 Y7.863
N1550 X-12.884 Y8.144
N1555 X-13.05 Y8.439
N1560 X-13.253 Y8.738
N1565 X-13.485 Y9.027
N1570 X-13.746 Y9.304
N1575 X-13.993 Y9.528
N1580 X-14.231 Y9.71
N1585 X-14.31 Y9.761
N1590 X-14.504 Y9.857
N1595 X-14.715 Y9.906
N1600 X-14.932 Y9.904
N1605 X-15.143 Y9.852
N1610 X-15.336 Y9.754
N1615 X-15.419 Y9.698
N1620 X-15.663 Y9.545
N1625 X-16.544 Y8.999
N1630 G3 X-16.572 Y8.355 I0.222 J-0.333
N1635 G1 X-16.545 Y8.333
N1640 X-13.334 Y5.751
N1645 X-13.268 Y5.697
N1650 G3 X-12.665 Y5.818 I0.251 J0.312
N1655 G1 X-12.089 Y6.975
N1660 X-12.027 Y7.113
N1665 X-11.977 Y7.255
N1670 X-11.94 Y7.4
N1675 X-11.912 Y7.566
N1680 X-11.897 Y7.738
N1685 X-11.896 Y7.941
N1690 X-11.912 Y8.149
N1695 X-11.949 Y8.387
N1700 X-12.007 Y8.631
N1705 X-12.093 Y8.894
N1710 X-12.209 Y9.172
N1715 X-12.352 Y9.448
N1720 X-12.513 Y9.707
N1725 X-12.682 Y9.935
N1730 X-12.854 Y10.132
N1735 X-13.023 Y10.297
N1740 X-13.204 Y10.447
N1745 X-13.373 Y10.566
N1750 X-13.399 Y10.581
N1755 X-13.616 Y10.674
N1760 X-13.85 Y10.71
N1765 X-14.086 Y10.685
N1770 X-14.308 Y10.603
N1775 X-14.501 Y10.467
N1780 X-14.908 Y10.095
N1785 X-15.051 Y9.971
N1790 X-15.121 Y9.912
N1795 X-15.235 Y9.821
N1800 X-15.336 Y9.754
N1805 G3 X-15.361 Y9.124 I0.234 J-0.325
N1810 G1 X-15.315 Y9.085
N1815 X-12.757 Y6.914
N1820 X-12.698 Y6.864
N1825 G3 X-12.089 Y6.975 I0.259 J0.305
N1830 G1 X-11.996 Y7.159
N1835 X-11.892 Y7.342
N1840 X-11.769 Y7.526
N1845 X-11.635 Y7.709
N1850 X-11.564 Y7.804
N1855 X-11.48 Y7.928
N1860 X-11.406 Y8.058
N1865 X-11.346 Y8.196
N1870 X-11.3 Y8.339
N1875 X-11.264 Y8.495
N1880 X-11.239 Y8.663
N1885 X-11.226 Y8.855
N1890 X-11.228 Y9.053
N1895 X-11.249 Y9.272
N1900 X-11.289 Y9.502
N1905 X-11.35 Y9.735
N1910 X-11.432 Y9.972
N1915 X-11.538 Y10.213
N1920 X-11.666 Y10.45
N1925 X-11.795 Y10.649
N1930 X-11.945 Y10.844
N1935 X-12.092 Y11.006
N1940 X-12.242 Y11.148
N1945 X-12.41 Y11.282
N1950 X-12.49 Y11.335
N1955 X-12.713 Y11.446
N1960 X-12.958 Y11.494
N1965 X-13.206 Y11.475
N1970 X-13.44 Y11.391
N1975 X-13.644 Y11.248
N1980 X-14.501 Y10.467
N1985 G3 X-14.49 Y9.884 I0.28 J-0.286
N1990 G1 X-14.392 Y9.795
N1995 X-12.243 Y7.85
N2000 X-12.143 Y7.759
N2005 G3 X-11.564 Y7.804 I0.268 J0.297
N2010 G1 X-10.83 Y8.776
N2015 X-10.745 Y8.9
N2020 X-10.676 Y9.033
N2025 X-10.619 Y9.172
N2030 X-10.575 Y9.317
N2035 X-10.542 Y9.473
N2040 X-10.519 Y9.646
N2045 X-10.509 Y9.835
N2050 X-10.514 Y10.03
N2055 X-10.537 Y10.24
N2060 X-10.579 Y10.46
N2065 X-10.64 Y10.682
N2070 X-10.721 Y10.905
N2075 X-10.822 Y11.125
N2080 X-10.931 Y11.32
N2085 X-11.063 Y11.518
N2090 X-11.195 Y11.683
N2095 X-11.329 Y11.827
N2100 X-11.485 Y11.97
N2105 X-11.633 Y12.084
N2110 X-11.785 Y12.184
N2115 X-11.816 Y12.201
N2120 X-12.064 Y12.293
N2125 X-12.328 Y12.312
N2130 X-12.587 Y12.256
N2135 X-12.819 Y12.13
N2140 X-13.007 Y11.943
N2145 X-13.032 Y11.91
N2150 X-13.16 Y11.747
N2155 X-13.314 Y11.564
N2160 X-13.399 Y11.478
N2165 X-13.617 Y11.274
N2170 X-13.644 Y11.248
N2175 G3 X-13.626 Y10.662 I0.281 J-0.284
N2180 G1 X-13.53 Y10.578
N2185 X-11.511 Y8.82
N2190 X-11.403 Y8.726
N2195 G3 X-10.83 Y8.776 I0.263 J0.302
N2200 G1 X-10.665 Y8.994
N2205 X-10.279 Y9.471
N2210 X-10.204 Y9.545
N2215 X-10.1 Y9.653
N2220 X-10.016 Y9.777
N2225 X-9.946 Y9.91
N2230 X-9.889 Y10.049
N2235 X-9.845 Y10.193
N2240 X-9.811 Y10.345
N2245 X-9.788 Y10.515
N2250 X-9.778 Y10.699
N2255 X-9.783 Y10.889
N2260 X-9.804 Y11.091
N2265 X-9.844 Y11.301
N2270 X-9.902 Y11.515
N2275 X-9.979 Y11.729
N2280 X-10.075 Y11.942
N2285 X-10.189 Y12.147
N2290 X-10.305 Y12.32
N2295 X-10.446 Y12.499
N2300 X-10.586 Y12.65
N2305 X-10.722 Y12.775
N2310 X-10.883 Y12.901
N2315 X-11.042 Y13.005
N2320 X-11.191 Y13.087
N2325 X-11.225 Y13.102
N2330 X-11.465 Y13.173
N2335 X-11.715 Y13.177
N2340 X-11.958 Y13.115
N2345 X-12.175 Y12.99
N2350 X-12.351 Y12.812
N2355 X-13.007 Y11.943
N2360 G3 X-12.938 Y11.408 I0.327 J-0.23
N2365 G1 X-12.791 Y11.284
N2370 X-10.891 Y9.678
N2375 X-10.727 Y9.539
N2380 G3 X-10.204 Y9.545 I0.258 J0.305
N2385 G1 X-10.095 Y9.648
N2390 X-9.467 Y10.221
N2395 X-9.361 Y10.327
N2400 X-9.272 Y10.448
N2405 X-9.197 Y10.578
N2410 X-9.135 Y10.715
N2415 X-9.085 Y10.856
N2420 X-9.044 Y11.014
N2425 X-9.014 Y11.181
N2430 X-8.996 Y11.363
N2435 X-8.993 Y11.559
N2440 X-9.006 Y11.763
N2445 X-9.037 Y11.973
N2450 X-9.087 Y12.19
N2455 X-9.156 Y12.41
N2460 X-9.246 Y12.632
N2465 X-9.356 Y12.85
N2470 X-9.484 Y13.06
N2475 X-9.62 Y13.249
N2480 X-9.764 Y13.416
N2485 X-9.926 Y13.578
N2490 X-10.076 Y13.705
N2495 X-10.241 Y13.823
N2500 X-10.413 Y13.927
N2505 X-10.485 Y13.963
N2510 X-10.708 Y14.042
N2515 X-10.944 Y14.066
N2520 X-11.179 Y14.034
N2525 X-11.399 Y13.946
N2530 X-11.592 Y13.809
N2535 X-11.747 Y13.63
N2540 X-11.779 Y13.583
N2545 X-11.908 Y13.399
N2550 X-12.351 Y12.812
N2555 G3 X-12.29 Y12.285 I0.327 J-0.23
N2560 G1 X-12.138 Y12.148
N2565 X-10.15 Y10.369
N2570 X-9.993 Y10.228
N2575 G3 X-9.726 Y10.126 I0.267 J0.298
N2580 X-9.467 Y10.221 I0. J0.4
N2585 G1 X-8.704 Y10.916
N2590 X-8.599 Y11.022
N2595 X-8.505 Y11.139
N2600 X-8.425 Y11.266
N2605 X-8.359 Y11.401
N2610 X-8.304 Y11.54
N2615 X-8.258 Y11.696
N2620 X-8.222 Y11.864
N2625 X-8.199 Y12.044
N2630 X-8.189 Y12.243
N2635 X-8.195 Y12.451
N2640 X-8.219 Y12.666
N2645 X-8.263 Y12.891
N2650 X-8.328 Y13.124
N2655 X-8.414 Y13.356
N2660 X-8.52 Y13.586
N2665 X-8.646 Y13.81
N2670 X-8.789 Y14.022
N2675 X-8.937 Y14.207
N2680 X-9.105 Y14.386
N2685 X-9.261 Y14.527
N2690 X-9.438 Y14.663
N2695 X-9.609 Y14.774
N2700 X-9.778 Y14.865
N2705 X-9.966 Y14.948
N2710 X-10.136 Y15.007
N2715 X-10.21 Y15.026
N2720 X-10.462 Y15.056
N2725 X-10.712 Y15.017
N2730 X-10.943 Y14.912
N2735 X-11.137 Y14.748
N2740 X-11.28 Y14.539
N2745 X-11.39 Y14.317
N2750 X-11.483 Y14.134
N2755 X-11.747 Y13.63
N2760 G3 X-11.658 Y13.162 I0.361 J-0.173
N2765 G1 X-11.455 Y12.975
N2770 X-9.386 Y11.066
N2775 X-9.234 Y10.927
N2780 G3 X-8.704 Y10.916 I0.271 J0.294
N2785 G1 X-8.597 Y11.013
N2790 X-8.443 Y11.134
N2795 X-8.362 Y11.197
N2800 X-8.26 Y11.27
N2805 X-8.021 Y11.418
N2810 X-7.898 Y11.504
N2815 X-7.789 Y11.607
N2820 X-7.693 Y11.722
N2825 X-7.609 Y11.847
N2830 X-7.538 Y11.979
N2835 X-7.476 Y12.121
N2840 X-7.421 Y12.28
N2845 X-7.378 Y12.45
N2850 X-7.345 Y12.642
N2855 X-7.327 Y12.846
N2860 X-7.325 Y13.061
N2865 X-7.342 Y13.293
N2870 X-7.379 Y13.534
N2875 X-7.436 Y13.779
N2880 X-7.517 Y14.027
N2885 X-7.619 Y14.273
N2890 X-7.744 Y14.519
N2895 X-7.891 Y14.756
N2900 X-8.057 Y14.982
N2905 X-8.243 Y15.197
N2910 X-8.445 Y15.395
N2915 X-8.641 Y15.558
N2920 X-8.853 Y15.708
N2925 X-9.054 Y15.828
N2930 X-9.242 Y15.919
N2935 X-9.453 Y16.002
N2940 X-9.643 Y16.06
N2945 X-9.727 Y16.078
N2950 X-9.972 Y16.098
N2955 X-10.214 Y16.053
N2960 X-10.436 Y15.947
N2965 X-10.623 Y15.786
N2970 X-10.76 Y15.582
N2975 X-11.28 Y14.539
N2980 G3 X-11.194 Y14.085 I0.364 J-0.166
N2985 G1 X-10.983 Y13.881
N2990 X-8.692 Y11.665
N2995 X-8.498 Y11.478
N3000 G3 X-8.021 Y11.418 I0.278 J0.287
N3005 G1 X-7.194 Y11.931
N3010 X-7.07 Y12.016
N3015 X-6.957 Y12.114
N3020 X-6.855 Y12.225
N3025 X-6.765 Y12.345
N3030 X-6.686 Y12.472
N3035 X-6.613 Y12.616
N3040 X-6.55 Y12.771
N3045 X-6.493 Y12.95
N3050 X-6.448 Y13.141
N3055 X-6.417 Y13.348
N3060 X-6.402 Y13.577
N3065 X-6.405 Y13.816
N3070 X-6.428 Y14.066
N3075 X-6.474 Y14.332
N3080 X-6.482 Y14.362
N3085 X-6.546 Y14.535
N3090 X-6.643 Y14.693
N3095 X-6.769 Y14.828
N3100 G3 X-7.417 Y14.584 I-0.254 J-0.309
N3105 G1 X-7.787 Y12.343
N3110 G3 X-7.194 Y11.931 I0.395 J-0.065
N3115 G1 X-6.601 Y12.298
N3120 X-6.424 Y12.406
N3125 X-6.346 Y12.448
N3130 X-6.217 Y12.525
N3135 X-6.097 Y12.615
N3140 X-5.989 Y12.718
N3145 X-5.891 Y12.832
N3150 X-5.821 Y12.931
N3155 X-5.708 Y13.145
N3160 X-5.656 Y13.381
N3165 X-5.668 Y13.623
N3170 X-5.743 Y13.853
N3175 X-5.876 Y14.055
N3180 X-6.057 Y14.214
N3185 G3 X-6.687 Y13.974 I-0.238 J-0.322
N3190 G1 X-6.913 Y12.889
N3195 G3 X-6.346 Y12.448 I0.392 J-0.082
N3200 G1 X-6.282 Y12.482
N3205 X-6.057 Y12.585
N3210 X-5.871 Y12.665
N3215 X-5.635 Y12.757
N3220 X-5.498 Y12.818
N3225 X-5.344 Y12.97
N3230 X-5.249 Y13.165
N3235 X-5.224 Y13.379
N3240 X-5.27 Y13.59
N3245 X-5.384 Y13.775
N3250 X-5.551 Y13.911
N3255 G3 X-6.072 Y13.939 I-0.291 J-0.557
N3260 X-5.635 Y12.757 I0.23 J-0.587
N3265 G1 X-5.323 Y12.878
N3270 X-5.177 Y12.936
N3275 X-5.14 Y12.951
N3280 X-5.085 Y12.984
N3285 X-5.057 Y13.006
N3290 X-5.03 Y13.032
N3295 X-5.006 Y13.06
N3300 X-4.986 Y13.087
N3305 X-4.956 Y13.142
N3310 X-4.93 Y13.216
N3315 X-4.921 Y13.262
N3320 X-4.917 Y13.308
N3325 X-4.918 Y13.354
N3330 X-4.925 Y13.399
N3335 X-4.937 Y13.445
N3340 X-4.956 Y13.491
N3345 X-4.982 Y13.537
N3350 X-5.017 Y13.583
N3355 X-5.047 Y13.614
N3360 X-5.078 Y13.639
N3365 X-5.14 Y13.678
N3370 X-5.874 Y14.094
N3375 X-5.937 Y14.134
N3380 X-6.057 Y14.214
N3385 X-6.187 Y14.317
N3390 X-6.241 Y14.364
N3395 X-7.159 Y15.172
N3400 X-7.526 Y15.497
N3405 X-7.633 Y15.602
N3410 X-7.783 Y15.786
N3415 X-7.893 Y15.954
N3420 X-7.902 Y15.969
N3425 X-7.981 Y16.097
N3430 X-8.095 Y16.25
N3435 X-8.225 Y16.396
N3440 X-8.358 Y16.525
N3445 X-8.513 Y16.652
N3450 X-8.669 Y16.76
N3455 X-8.817 Y16.846
N3460 X-8.987 Y16.927
N3465 X-9.153 Y16.99
N3470 X-9.308 Y17.036
N3475 X-9.368 Y17.048
N3480 X-9.598 Y17.067
N3485 X-9.825 Y17.028
N3490 X-10.036 Y16.935
N3495 X-10.218 Y16.794
N3500 X-10.359 Y16.612
N3505 X-10.452 Y16.401
N3510 G3 X-10.172 Y15.915 I0.387 J-0.101
N3515 G1 X-10.015 Y15.871
N3520 X-8.372 Y15.416
N3525 G3 X-7.902 Y15.969 I0.107 J0.385
N3530 G1 X-7.995 Y16.153
N3535 X-8.07 Y16.336
N3540 X-8.122 Y16.52
N3545 X-8.152 Y16.703
N3550 X-8.156 Y16.734
N3555 X-8.18 Y16.882
N3560 X-8.23 Y17.024
N3565 X-8.297 Y17.158
N3570 X-8.378 Y17.284
N3575 X-8.474 Y17.399
N3580 X-8.58 Y17.505
N3585 X-8.696 Y17.6
N3590 X-8.822 Y17.682
N3595 X-8.871 Y17.708
N3600 X-9.073 Y17.787
N3605 X-9.289 Y17.817
N3610 X-9.505 Y17.796
N3615 G3 X-9.662 Y17.1 I0.098 J-0.388
N3620 G1 X-8.809 Y16.396
N3625 G3 X-8.156 Y16.734 I0.255 J0.308
N3630 G1 X-8.193 Y17.071
N3635 X-8.211 Y17.254
N3640 X-8.221 Y17.346
N3645 X-8.232 Y17.392
N3650 X-8.249 Y17.438
N3655 X-8.297 Y17.542
N3660 X-8.318 Y17.582
N3665 X-8.346 Y17.621
N3670 X-8.443 Y17.725
N3675 X-8.495 Y17.771
N3680 X-8.547 Y17.805
N3685 X-8.627 Y17.845
N3690 X-8.719 Y17.883
N3695 X-8.765 Y17.895
N3700 X-8.811 Y17.901
N3705 X-8.902 Y17.911
N3710 X-8.948 Y17.912
N3715 X-8.994 Y17.909
N3720 X-9.361 Y17.827
N3725 X-9.82 Y17.728
N3730 X-9.866 Y17.717
N3735 X-9.912 Y17.701
N3740 X-9.972 Y17.669
N3745 X-10.033 Y17.621
N3750 X-10.068 Y17.587
N3755 X-10.095 Y17.554
N3760 X-10.131 Y17.496
N3765 X-10.155 Y17.438
N3770 X-10.364 Y16.703
N3775 X-10.417 Y16.52
N3780 X-10.526 Y16.153
N3785 X-10.584 Y15.969
N3790 X-10.666 Y15.786
N3795 X-10.75 Y15.602
N3800 X-10.76 Y15.582
N3805 G0 Z6.
N3810 G1 X-21.208 Y3.56 F500.
N3815 G0 Z-5.2
N3820 G1 Z-5.6 F300.
N3825 X-21.21 Y3.553 Z-5.678
N3830 X-21.216 Y3.531 Z-5.753
N3835 X-21.224 Y3.495 Z-5.822
N3840 X-21.236 Y3.446 Z-5.883
N3845 X-21.251 Y3.387 Z-5.933
N3850 X-21.267 Y3.32 Z-5.97
N3855 X-21.285 Y3.247 Z-5.992
N3860 X-21.304 Y3.172 Z-6.
N3865 G3 X-21.295 Y2.386 I1.537 J-0.376
N3870 G1 X-21.292 Y2.377
N3875 X-21.264 Y2.203
N3880 X-21.213 Y1.836
N3885 X-21.192 Y1.652
N3890 X-21.126 Y1.
N3895 X-21.103 Y0.852
N3900 X-21.068 Y0.706
N3905 X-21.016 Y0.549
N3910 X-20.948 Y0.388
N3915 X-20.858 Y0.216
N3920 X-20.745 Y0.036
N3925 X-20.611 Y-0.143
N3930 X-20.445 Y-0.332
N3935 X-20.258 Y-0.513
N3940 X-20.042 Y-0.691
N3945 X-19.791 Y-0.865
N3950 X-19.514 Y-1.027
N3955 X-19.217 Y-1.169
N3960 X-18.891 Y-1.294
N3965 X-18.539 Y-1.398
N3970 X-18.164 Y-1.477
N3975 X-17.772 Y-1.526
N3980 X-17.369 Y-1.545
N3985 X-16.959 Y-1.53
N3990 X-16.544 Y-1.482
N3995 X-16.128 Y-1.4
N4000 X-15.714 Y-1.283
N4005 X-15.304 Y-1.13
N4010 X-14.9 Y-0.942
N4015 X-14.495 Y-0.712
N4020 X-14.38 Y-0.633
N4025 X-14.221 Y-0.497
N4030 X-14.096 Y-0.328
N4035 X-14.012 Y-0.135
N4040 X-13.974 Y0.071
N4045 X-13.939 Y0.551
N4050 X-13.803 Y2.019
N4055 X-13.799 Y2.06
N4060 G3 X-14.263 Y2.478 I-0.399 J0.023
N4065 G1 X-14.331 Y2.467
N4070 X-20.599 Y1.453
N4075 X-20.791 Y1.422
N4080 G3 X-21.126 Y1. I0.064 J-0.395
N4085 G1 X-21.081 Y0.551
N4090 X-21.036 Y0.
N4095 X-21.044 Y-0.101
N4100 X-21.049 Y-0.251
N4105 X-21.039 Y-0.401
N4110 X-21.012 Y-0.548
N4115 X-20.972 Y-0.693
N4120 X-20.915 Y-0.847
N4125 X-20.844 Y-1.001
N4130 X-20.747 Y-1.172
N4135 X-20.633 Y-1.34
N4140 X-20.49 Y-1.519
N4145 X-20.321 Y-1.698
N4150 X-20.125 Y-1.875
N4155 X-19.889 Y-2.055
N4160 X-19.633 Y-2.221
N4165 X-19.339 Y-2.379
N4170 X-19.005 Y-2.525
N4175 X-18.642 Y-2.651
N4180 X-18.258 Y-2.749
N4185 X-17.842 Y-2.822
N4190 X-17.397 Y-2.863
N4195 X-16.929 Y-2.868
N4200 X-16.445 Y-2.834
N4205 X-15.951 Y-2.76
N4210 X-15.453 Y-2.643
N4215 X-15.012 Y-2.502
N4220 X-14.649 Y-2.352
N4225 X-14.374 Y-2.213
N4230 X-14.311 Y-2.174
N4235 X-14.112 Y-2.009
N4240 X-13.965 Y-1.796
N4245 X-13.883 Y-1.551
N4250 X-13.871 Y-1.293
N4255 X-13.939 Y-0.551
N4260 X-13.979 Y0.
N4265 X-13.974 Y0.071
N4270 G3 X-14.388 Y0.486 I-0.4 J0.015
N4275 G1 X-14.516 Y0.481
N4280 X-20.443 Y0.261
N4285 X-20.662 Y0.252
N4290 G3 X-21.044 Y-0.101 I0.015 J-0.4
N4295 G1 X-21.081 Y-0.551
N4300 X-21.155 Y-1.285
N4305 X-21.163 Y-1.435
N4310 X-21.15 Y-1.584
N4315 X-21.122 Y-1.732
N4320 X-21.082 Y-1.878
N4325 X-21.023 Y-2.039
N4330 X-20.947 Y-2.206
N4335 X-20.848 Y-2.383
N4340 X-20.724 Y-2.568
N4345 X-20.577 Y-2.754
N4350 X-20.393 Y-2.951
N4355 X-20.188 Y-3.137
N4360 X-19.943 Y-3.327
N4365 X-19.659 Y-3.513
N4370 X-19.352 Y-3.68
N4375 X-18.998 Y-3.837
N4380 X-18.597 Y-3.978
N4385 X-18.169 Y-4.091
N4390 X-17.713 Y-4.172
N4395 X-17.215 Y-4.221
N4400 X-16.685 Y-4.229
N4405 X-16.144 Y-4.195
N4410 X-15.617 Y-4.118
N4415 X-15.139 Y-4.009
N4420 X-14.779 Y-3.895
N4425 X-14.473 Y-3.771
N4430 X-14.23 Y-3.649
N4435 X-14.148 Y-3.599
N4440 X-13.967 Y-3.456
N4445 X-13.826 Y-3.272
N4450 X-13.736 Y-3.06
N4455 X-13.699 Y-2.832
N4460 X-13.721 Y-2.602
N4465 X-13.768 Y-2.386
N4470 X-13.786 Y-2.203
N4475 X-13.871 Y-1.293
N4480 G3 X-14.267 Y-0.943 I-0.397 J-0.051
N4485 G1 X-14.476
N4490 X-20.547 Y-0.939
N4495 X-20.759
N4500 G3 X-21.155 Y-1.285 I0. J-0.4
N4505 G1 X-21.192 Y-1.652
N4510 X-21.213 Y-1.836
N4515 X-21.264 Y-2.203
N4520 X-21.292 Y-2.377
N4525 X-21.316 Y-2.525
N4530 X-21.313 Y-2.675
N4535 X-21.295 Y-2.823
N4540 X-21.262 Y-2.978
N4545 X-21.215 Y-3.134
N4550 X-21.146 Y-3.311
N4555 X-21.061 Y-3.488
N4560 X-20.948 Y-3.68
N4565 X-20.811 Y-3.875
N4570 X-20.645 Y-4.076
N4575 X-20.44 Y-4.286
N4580 X-20.212 Y-4.485
N4585 X-19.935 Y-4.69
N4590 X-19.62 Y-4.886
N4595 X-19.275 Y-5.064
N4600 X-18.874 Y-5.232
N4605 X-18.421 Y-5.381
N4610 X-17.945 Y-5.495
N4615 X-17.428 Y-5.576
N4620 X-16.873 Y-5.618
N4625 X-16.303 Y-5.615
N4630 X-15.757 Y-5.569
N4635 X-15.251 Y-5.484
N4640 X-14.847 Y-5.383
N4645 X-14.496 Y-5.264
N4650 X-14.232 Y-5.15
N4655 X-13.978 Y-5.015
N4660 X-13.776 Y-4.887
N4665 X-13.724 Y-4.847
N4670 X-13.563 Y-4.692
N4675 X-13.444 Y-4.503
N4680 X-13.373 Y-4.291
N4685 X-13.354 Y-4.068
N4690 X-13.389 Y-3.847
N4695 X-13.596 Y-3.12
N4700 X-13.647 Y-2.937
N4705 X-13.721 Y-2.602
N4710 G3 X-14.097 Y-2.301 I-0.388 J-0.099
N4715 G1 X-14.365 Y-2.294
N4720 X-20.625 Y-2.115
N4725 X-20.903 Y-2.107
N4730 G3 X-21.292 Y-2.377 I-0.011 J-0.4
N4735 G1 X-21.476 Y-2.977
N4740 X-21.553 Y-3.221
N4745 X-21.591 Y-3.367
N4750 X-21.612 Y-3.515
N4755 X-21.618 Y-3.665
N4760 X-21.61 Y-3.815
N4765 X-21.588 Y-3.97
N4770 X-21.551 Y-4.138
N4775 X-21.495 Y-4.319
N4780 X-21.419 Y-4.508
N4785 X-21.317 Y-4.715
N4790 X-21.194 Y-4.92
N4795 X-21.034 Y-5.143
N4800 X-20.85 Y-5.361
N4805 X-20.625 Y-5.587
N4810 X-20.354 Y-5.819
N4815 X-20.057 Y-6.035
N4820 X-19.704 Y-6.25
N4825 X-19.296 Y-6.456
N4830 X-18.862 Y-6.633
N4835 X-18.375 Y-6.787
N4840 X-17.833 Y-6.912
N4845 X-17.256 Y-6.997
N4850 X-16.662 Y-7.036
N4855 X-16.084 Y-7.027
N4860 X-15.533 Y-6.975
N4865 X-15.027 Y-6.885
N4870 X-14.573 Y-6.766
N4875 X-14.214 Y-6.641
N4880 X-13.897 Y-6.501
N4885 X-13.654 Y-6.369
N4890 X-13.421 Y-6.218
N4895 X-13.301 Y-6.125
N4900 X-13.134 Y-5.956
N4905 X-13.018 Y-5.75
N4910 X-12.96 Y-5.519
N4915 X-12.965 Y-5.282
N4920 X-13.032 Y-5.055
N4925 X-13.066 Y-4.956
N4930 X-13.126 Y-4.772
N4935 X-13.389 Y-3.847
N4940 G3 X-13.737 Y-3.572 I-0.381 J-0.123
N4945 G1 X-14.051 Y-3.545
N4950 X-20.884 Y-2.977
N4955 X-21.142 Y-2.956
N4960 G3 X-21.553 Y-3.221 I-0.033 J-0.399
N4965 G1 X-21.843 Y-4.145
N4970 X-21.904 Y-4.323
N4975 X-21.945 Y-4.467
N4980 X-21.968 Y-4.615
N4985 X-21.975 Y-4.765
N4990 X-21.969 Y-4.915
N4995 X-21.948 Y-5.085
N5000 X-21.913 Y-5.259
N5005 X-21.856 Y-5.456
N5010 X-21.78 Y-5.658
N5015 X-21.678 Y-5.875
N5020 X-21.546 Y-6.103
N5025 X-21.387 Y-6.335
N5030 X-21.183 Y-6.586
N5035 X-20.954 Y-6.826
N5040 X-20.675 Y-7.074
N5045 X-20.342 Y-7.326
N5050 X-20.196 Y-7.419
N5055 X-20.108 Y-7.468
N5060 X-20.015 Y-7.508
N5065 X-19.918 Y-7.538
N5070 G3 X-19.498 Y-6.933 I0.082 J0.391
N5075 G1 X-21.192 Y-4.252
N5080 G3 X-21.904 Y-4.323 I-0.338 J-0.214
N5085 G1 X-21.932 Y-4.405
N5090 X-22.027 Y-4.602
N5095 X-22.115 Y-4.772
N5100 X-22.274 Y-5.057
N5105 X-22.34 Y-5.192
N5110 X-22.393 Y-5.332
N5115 X-22.429 Y-5.477
N5120 X-22.451 Y-5.626
N5125 X-22.46 Y-5.775
N5130 X-22.457 Y-5.947
N5135 X-22.439 Y-6.125
N5140 X-22.402 Y-6.325
N5145 X-22.347 Y-6.533
N5150 X-22.323 Y-6.599
N5155 X-22.213 Y-6.815
N5160 X-22.05 Y-6.996
N5165 X-21.846 Y-7.128
N5170 X-21.615 Y-7.203
N5175 G3 X-21.167 Y-6.713 I0.06 J0.396
N5180 G1 Y-6.712
N5185 X-21.542 Y-5.169
N5190 G3 X-22.274 Y-5.057 I-0.389 J-0.094
N5195 G1 X-22.83 Y-6.057
N5200 X-22.896 Y-6.192
N5205 X-22.928 Y-6.396
N5210 X-22.898 Y-6.601
N5215 X-22.81 Y-6.788
N5220 X-22.67 Y-6.94
N5225 X-22.492 Y-7.045
N5230 X-22.29 Y-7.093
N5235 G3 X-21.932 Y-7.014 I0.033 J0.703
N5240 X-22.83 Y-6.057 I-0.315 J0.604
N5245 G1 X-22.944 Y-6.263
N5250 X-23.069 Y-6.47
N5255 X-23.089 Y-6.516
N5260 X-23.102 Y-6.562
N5265 X-23.11 Y-6.608
N5270 X-23.113 Y-6.654
N5275 X-23.11 Y-6.7
N5280 X-23.101 Y-6.746
N5285 X-23.087 Y-6.792
N5290 X-23.067 Y-6.837
N5295 X-23.039 Y-6.883
N5300 X-23.001 Y-6.929
N5305 X-22.954 Y-6.975
N5310 X-22.944 Y-6.983
N5315 X-22.898 Y-7.014
N5320 X-22.853 Y-7.037
N5325 X-22.807 Y-7.054
N5330 X-22.761 Y-7.064
N5335 X-22.577 Y-7.069
N5340 X-22.21 Y-7.099
N5345 X-22.027 Y-7.127
N5350 X-20.375 Y-7.435
N5355 X-20.191 Y-7.471
N5360 X-19.64 Y-7.606
N5365 X-19.457 Y-7.675
N5370 X-18.723 Y-7.959
N5375 X-18.065 Y-8.177
N5380 X-17.579 Y-8.295
N5385 X-17.046 Y-8.381
N5390 X-16.487 Y-8.425
N5395 X-15.921 Y-8.424
N5400 X-15.373 Y-8.379
N5405 X-14.853 Y-8.294
N5410 X-14.374 Y-8.175
N5415 X-13.942 Y-8.03
N5420 X-13.598 Y-7.883
N5425 X-13.313 Y-7.734
N5430 X-13.081 Y-7.587
N5435 X-12.868 Y-7.427
N5440 X-12.701 Y-7.279
N5445 X-12.654 Y-7.23
N5450 X-12.517 Y-7.047
N5455 X-12.429 Y-6.836
N5460 X-12.394 Y-6.61
N5465 X-12.415 Y-6.383
N5470 X-12.492 Y-6.167
N5475 X-12.912 Y-5.323
N5480 X-13.032 Y-5.055
N5485 G3 X-13.558 Y-4.867 I-0.359 J-0.176
N5490 G1 X-13.711 Y-4.937
N5495 X-18.731 Y-7.228
N5500 G3 X-18.723 Y-7.959 I0.166 J-0.364
N5505 G1 X-17.947 Y-8.26
N5510 X-17.805 Y-8.317
N5515 X-17.254 Y-8.562
N5520 X-16.552 Y-8.994
N5525 X-16.317 Y-9.124
N5530 X-16.129 Y-9.209
N5535 X-15.927 Y-9.281
N5540 X-15.679 Y-9.348
N5545 X-15.419 Y-9.396
N5550 X-15.111 Y-9.428
N5555 X-14.787 Y-9.435
N5560 X-14.45 Y-9.415
N5565 X-14.098 Y-9.366
N5570 X-13.747 Y-9.289
N5575 X-13.402 Y-9.182
N5580 X-13.078 Y-9.053
N5585 X-12.81 Y-8.92
N5590 X-12.564 Y-8.773
N5595 X-12.367 Y-8.632
N5600 X-12.176 Y-8.471
N5605 X-12.091 Y-8.387
N5610 X-11.942 Y-8.195
N5615 X-11.848 Y-7.971
N5620 X-11.815 Y-7.731
N5625 X-11.845 Y-7.49
N5630 X-11.936 Y-7.264
N5635 X-11.996 Y-7.159
N5640 X-12.115 Y-6.924
N5645 X-12.492 Y-6.167
N5650 G3 X-13.064 Y-6.024 I-0.352 J-0.191
N5655 G1 X-13.166 Y-6.092
N5660 X-16.55 Y-8.328
N5665 G3 X-16.552 Y-8.994 I0.221 J-0.334
N5670 G1 X-15.602 Y-9.582
N5675 X-15.419 Y-9.698
N5680 X-15.235 Y-9.821
N5685 X-15.173 Y-9.871
N5690 X-15.051 Y-9.959
N5695 X-14.922 Y-10.035
N5700 X-14.78 Y-10.103
N5705 X-14.616 Y-10.166
N5710 X-14.433 Y-10.22
N5715 X-14.225 Y-10.264
N5720 X-14.003 Y-10.292
N5725 X-13.756 Y-10.304
N5730 X-13.496 Y-10.295
N5735 X-13.23 Y-10.264
N5740 X-12.956 Y-10.21
N5745 X-12.677 Y-10.132
N5750 X-12.426 Y-10.038
N5755 X-12.181 Y-9.924
N5760 X-11.975 Y-9.807
N5765 X-11.792 Y-9.683
N5770 X-11.615 Y-9.541
N5775 X-11.472 Y-9.406
N5780 X-11.334 Y-9.253
N5785 X-11.33 Y-9.248
N5790 X-11.209 Y-9.038
N5795 X-11.146 Y-8.804
N5800 Y-8.562
N5805 X-11.207 Y-8.328
N5810 X-11.327 Y-8.118
N5815 X-11.635 Y-7.709
N5820 X-11.769 Y-7.526
N5825 X-11.892 Y-7.342
N5830 X-11.936 Y-7.264
N5835 G3 X-12.526 Y-7.16 I-0.341 J-0.209
N5840 G1 X-12.611 Y-7.228
N5845 X-15.096 Y-9.204
N5850 X-15.16 Y-9.255
N5855 G3 X-15.173 Y-9.871 I0.249 J-0.313
N5860 G1 X-15.121 Y-9.912
N5865 X-15.051 Y-9.971
N5870 X-14.908 Y-10.095
N5875 X-14.253 Y-10.693
N5880 X-14.137 Y-10.789
N5885 X-14.012 Y-10.871
N5890 X-13.88 Y-10.942
N5895 X-13.731 Y-11.006
N5900 X-13.57 Y-11.061
N5905 X-13.391 Y-11.106
N5910 X-13.191 Y-11.14
N5915 X-12.984 Y-11.157
N5920 X-12.761 Y-11.159
N5925 X-12.527 Y-11.141
N5930 X-12.285 Y-11.103
N5935 X-12.041 Y-11.045
N5940 X-11.799 Y-10.966
N5945 X-11.572 Y-10.871
N5950 X-11.372 Y-10.768
N5955 X-11.173 Y-10.644
N5960 X-11.012 Y-10.525
N5965 X-10.855 Y-10.387
N5970 X-10.714 Y-10.244
N5975 X-10.666 Y-10.185
N5980 X-10.532 Y-9.97
N5985 X-10.461 Y-9.726
N5990 X-10.458 Y-9.472
N5995 X-10.524 Y-9.227
N6000 X-10.654 Y-9.008
N6005 X-11.327 Y-8.118
N6010 G3 X-11.9 Y-8.069 I-0.311 J-0.252
N6015 G1 X-12.008 Y-8.162
N6020 X-14.141 Y-10.023
N6025 X-14.236 Y-10.106
N6030 G3 X-14.253 Y-10.693 I0.263 J-0.301
N6035 G1 X-13.7 Y-11.197
N6040 X-13.583 Y-11.305
N6045 X-13.399 Y-11.478
N6050 X-13.374 Y-11.504
N6055 X-13.263 Y-11.605
N6060 X-13.14 Y-11.692
N6065 X-13.01 Y-11.765
N6070 X-12.873 Y-11.827
N6075 X-12.726 Y-11.879
N6080 X-12.557 Y-11.925
N6085 X-12.38 Y-11.957
N6090 X-12.188 Y-11.977
N6095 X-11.98 Y-11.981
N6100 X-11.765 Y-11.968
N6105 X-11.546 Y-11.937
N6110 X-11.321 Y-11.887
N6115 X-11.092 Y-11.816
N6120 X-10.887 Y-11.734
N6125 X-10.683 Y-11.633
N6130 X-10.498 Y-11.521
N6135 X-10.343 Y-11.41
N6140 X-10.184 Y-11.276
N6145 X-10.048 Y-11.14
N6150 X-9.934 Y-11.008
N6155 X-9.895 Y-10.953
N6160 X-9.785 Y-10.755
N6165 X-9.726 Y-10.537
N6170 X-9.722 Y-10.31
N6175 X-9.772 Y-10.09
N6180 X-9.873 Y-9.887
N6185 X-10.021 Y-9.716
N6190 X-10.095 Y-9.648
N6195 X-10.204 Y-9.545
N6200 X-10.279 Y-9.471
N6205 X-10.654 Y-9.008
N6210 G3 X-11.229 Y-8.975 I-0.304 J-0.26
N6215 G1 X-11.333 Y-9.07
N6220 X-13.236 Y-10.832
N6225 X-13.352 Y-10.938
N6230 G3 X-13.374 Y-11.504 I0.272 J-0.294
N6235 G1 X-13.314 Y-11.564
N6240 X-13.16 Y-11.747
N6245 X-13.017 Y-11.931
N6250 X-12.789 Y-12.233
N6255 X-12.692 Y-12.348
N6260 X-12.58 Y-12.448
N6265 X-12.458 Y-12.535
N6270 X-12.328 Y-12.609
N6275 X-12.191 Y-12.672
N6280 X-12.042 Y-12.727
N6285 X-11.874 Y-12.774
N6290 X-11.695 Y-12.809
N6295 X-11.504 Y-12.83
N6300 X-11.298 Y-12.836
N6305 X-11.084 Y-12.826
N6310 X-10.865 Y-12.797
N6315 X-10.642 Y-12.749
N6320 X-10.417 Y-12.682
N6325 X-10.195 Y-12.596
N6330 X-9.998 Y-12.5
N6335 X-9.799 Y-12.383
N6340 X-9.631 Y-12.265
N6345 X-9.477 Y-12.138
N6350 X-9.331 Y-11.996
N6355 X-9.213 Y-11.86
N6360 X-9.098 Y-11.705
N6365 X-9.053 Y-11.632
N6370 X-8.948 Y-11.396
N6375 X-8.912 Y-11.14
N6380 X-8.947 Y-10.884
N6385 X-9.051 Y-10.648
N6390 X-9.216 Y-10.449
N6395 X-10.021 Y-9.716
N6400 G3 X-10.549 Y-9.724 I-0.259 J-0.305
N6405 G1 X-10.703 Y-9.864
N6410 X-12.577 Y-11.568
N6415 X-12.73 Y-11.707
N6420 G3 X-12.789 Y-12.233 I0.269 J-0.296
N6425 G1 X-12.185 Y-13.032
N6430 X-12.089 Y-13.147
N6435 X-11.983 Y-13.254
N6440 X-11.866 Y-13.348
N6445 X-11.741 Y-13.43
N6450 X-11.608 Y-13.5
N6455 X-11.461 Y-13.562
N6460 X-11.303 Y-13.615
N6465 X-11.129 Y-13.657
N6470 X-10.937 Y-13.688
N6475 X-10.737 Y-13.704
N6480 X-10.526
N6485 X-10.305 Y-13.686
N6490 X-10.077 Y-13.649
N6495 X-9.846 Y-13.592
N6500 X-9.615 Y-13.515
N6505 X-9.388 Y-13.418
N6510 X-9.171 Y-13.304
N6515 X-8.981 Y-13.184
N6520 X-8.788 Y-13.039
N6525 X-8.63 Y-12.899
N6530 X-8.493 Y-12.758
N6535 X-8.358 Y-12.592
N6540 X-8.25 Y-12.438
N6545 X-8.198 Y-12.347
N6550 X-8.11 Y-12.142
N6555 X-8.073 Y-11.922
N6560 X-8.09 Y-11.7
N6565 X-8.158 Y-11.487
N6570 X-8.276 Y-11.297
N6575 X-8.434 Y-11.141
N6580 X-8.597 Y-11.013
N6585 X-9.216 Y-10.449
N6590 G3 X-9.736 Y-10.451 I-0.259 J-0.305
N6595 G1 X-9.903 Y-10.594
N6600 X-11.969 Y-12.371
N6605 X-12.118 Y-12.499
N6610 G3 X-12.185 Y-13.032 I0.261 J-0.303
N6615 G1 X-11.908 Y-13.399
N6620 X-11.779 Y-13.583
N6625 X-11.747 Y-13.63
N6630 X-11.676 Y-13.767
N6635 X-11.6 Y-13.896
N6640 X-11.51 Y-14.016
N6645 X-11.405 Y-14.124
N6650 X-11.29 Y-14.219
N6655 X-11.165 Y-14.303
N6660 X-11.034 Y-14.375
N6665 X-10.887 Y-14.442
N6670 X-10.722 Y-14.5
N6675 X-10.547 Y-14.547
N6680 X-10.351 Y-14.583
N6685 X-10.14 Y-14.605
N6690 X-9.921 Y-14.61
N6695 X-9.691 Y-14.596
N6700 X-9.448 Y-14.562
N6705 X-9.202 Y-14.507
N6710 X-8.956 Y-14.431
N6715 X-8.712 Y-14.333
N6720 X-8.472 Y-14.214
N6725 X-8.246 Y-14.078
N6730 X-8.046 Y-13.935
N6735 X-7.854 Y-13.773
N6740 X-7.703 Y-13.623
N6745 X-7.556 Y-13.451
N6750 X-7.437 Y-13.288
N6755 X-7.335 Y-13.12
N6760 X-7.245 Y-12.941
N6765 X-7.176 Y-12.771
N6770 X-7.133 Y-12.528
N6775 X-7.155 Y-12.283
N6780 X-7.241 Y-12.052
N6785 X-7.384 Y-11.851
N6790 X-7.574 Y-11.695
N6795 X-8.26 Y-11.27
N6800 X-8.362 Y-11.197
N6805 X-8.434 Y-11.141
N6810 G3 X-8.919 Y-11.154 I-0.234 J-0.325
N6815 G1 X-9.125 Y-11.32
N6820 X-11.372 Y-13.126
N6825 X-11.566 Y-13.282
N6830 G3 X-11.676 Y-13.767 I0.251 J-0.312
N6835 G1 X-11.483 Y-14.134
N6840 X-11.38 Y-14.337
N6845 X-11.207 Y-14.684
N6850 X-11.134 Y-14.815
N6855 X-11.041 Y-14.933
N6860 X-10.936 Y-15.04
N6865 X-10.82 Y-15.136
N6870 X-10.697 Y-15.221
N6875 X-10.559 Y-15.301
N6880 X-10.4 Y-15.376
N6885 X-10.23 Y-15.441
N6890 X-10.037 Y-15.497
N6895 X-9.827 Y-15.54
N6900 X-9.607 Y-15.566
N6905 X-9.367 Y-15.576
N6910 X-9.111 Y-15.566
N6915 X-8.85 Y-15.535
N6920 X-8.584 Y-15.481
N6925 X-8.313 Y-15.403
N6930 X-8.044 Y-15.302
N6935 X-7.779 Y-15.177
N6940 X-7.524 Y-15.03
N6945 X-7.282 Y-14.864
N6950 X-7.053 Y-14.678
N6955 X-6.845 Y-14.48
N6960 X-6.683 Y-14.297
N6965 X-6.528 Y-14.093
N6970 X-6.411 Y-13.909
N6975 X-6.309 Y-13.717
N6980 X-6.224 Y-13.52
N6985 X-6.164 Y-13.342
N6990 X-6.162 Y-13.334
N6995 X-6.134 Y-13.1
N7000 X-6.165 Y-12.866
N7005 X-6.255 Y-12.648
N7010 X-6.396 Y-12.458
N7015 X-6.58 Y-12.311
N7020 X-7.574 Y-11.695
N7025 G3 X-8.024 Y-11.731 I-0.199 J-0.347
N7030 G1 X-8.262 Y-11.923
N7035 X-10.894 Y-14.046
N7040 X-11.094 Y-14.207
N7045 G3 X-11.207 Y-14.684 I0.251 J-0.311
N7050 G1 X-10.75 Y-15.602
N7055 X-10.681 Y-15.735
N7060 X-10.592 Y-15.856
N7065 X-10.491 Y-15.967
N7070 X-10.379 Y-16.067
N7075 X-10.259 Y-16.158
N7080 X-10.117 Y-16.248
N7085 X-9.963 Y-16.329
N7090 X-9.784 Y-16.406
N7095 X-9.59 Y-16.471
N7100 X-9.378 Y-16.524
N7105 X-9.141 Y-16.563
N7110 X-8.892 Y-16.584
N7115 X-8.79
N7120 X-8.535 Y-16.549
N7125 X-8.299 Y-16.446
N7130 X-8.1 Y-16.283
N7135 X-7.954 Y-16.071
N7140 G3 X-8.231 Y-15.513 I-0.363 J0.168
N7145 G1 X-8.3 Y-15.498
N7150 X-10.295 Y-15.057
N7155 G3 X-10.75 Y-15.602 I-0.086 J-0.391
N7160 G1 X-10.646 Y-15.83
N7165 X-10.584 Y-15.969
N7170 X-10.526 Y-16.153
N7175 X-10.463 Y-16.366
N7180 X-10.413 Y-16.507
N7185 X-10.348 Y-16.642
N7190 X-10.267 Y-16.769
N7195 X-10.174 Y-16.886
N7200 X-10.069 Y-16.994
N7205 X-9.956 Y-17.093
N7210 X-9.836 Y-17.182
N7215 X-9.698 Y-17.266
N7220 X-9.564 Y-17.334
N7225 X-9.425 Y-17.391
N7230 X-9.274 Y-17.437
N7235 X-9.023 Y-17.459
N7240 X-8.774 Y-17.412
N7245 X-8.548 Y-17.301
N7250 X-8.359 Y-17.133
N7255 X-8.223 Y-16.92
N7260 X-8.148 Y-16.679
N7265 G3 X-8.453 Y-16.238 I-0.397 J0.051
N7270 G1 X-8.646 Y-16.192
N7275 X-9.983 Y-15.876
N7280 G3 X-10.463 Y-16.366 I-0.092 J-0.389
N7285 G1 X-10.417 Y-16.52
N7290 X-10.259 Y-17.071
N7295 X-10.178 Y-17.355
N7300 X-10.155 Y-17.438
N7305 X-10.131 Y-17.496
N7310 X-10.095 Y-17.554
N7315 X-10.068 Y-17.587
N7320 X-10.033 Y-17.621
N7325 X-9.972 Y-17.669
N7330 X-9.912 Y-17.701
N7335 X-9.866 Y-17.717
N7340 X-9.82 Y-17.728
N7345 X-9.361 Y-17.827
N7350 X-8.994 Y-17.909
N7355 X-8.948 Y-17.912
N7360 X-8.902 Y-17.911
N7365 X-8.811 Y-17.901
N7370 X-8.765 Y-17.895
N7375 X-8.719 Y-17.883
N7380 X-8.627 Y-17.845
N7385 X-8.547 Y-17.805
N7390 X-8.495 Y-17.771
N7395 X-8.443 Y-17.725
N7400 X-8.346 Y-17.621
N7405 X-8.318 Y-17.582
N7410 X-8.297 Y-17.542
N7415 X-8.249 Y-17.438
N7420 X-8.232 Y-17.392
N7425 X-8.221 Y-17.346
N7430 X-8.211 Y-17.254
N7435 X-8.193 Y-17.071
N7440 X-8.162 Y-16.786
N7445 X-8.152 Y-16.703
N7450 X-8.122 Y-16.52
N7455 X-8.07 Y-16.336
N7460 X-7.995 Y-16.153
N7465 X-7.902 Y-15.969
N7470 X-7.893 Y-15.954
N7475 X-7.783 Y-15.786
N7480 X-7.633 Y-15.602
N7485 X-7.526 Y-15.497
N7490 X-6.975 Y-15.01
N7495 X-6.241 Y-14.364
N7500 X-6.187 Y-14.317
N7505 X-6.057 Y-14.214
N7510 X-5.937 Y-14.134
N7515 X-5.814 Y-14.047
N7520 X-5.662 Y-13.849
N7525 X-5.57 Y-13.617
N7530 X-5.545 Y-13.369
N7535 X-5.588 Y-13.123
N7540 X-5.697 Y-12.898
N7545 X-5.863 Y-12.712
N7550 X-6.073 Y-12.578
N7555 G3 X-6.625 Y-12.989 I-0.154 J-0.369
N7560 G1 X-6.536 Y-13.83
N7565 G3 X-5.937 Y-14.134 I0.398 J0.042
N7570 G1 X-5.874 Y-14.094
N7575 X-5.451 Y-13.854
N7580 X-5.324 Y-13.774
N7585 X-5.208 Y-13.617
N7590 X-5.149 Y-13.43
N7595 X-5.155 Y-13.235
N7600 X-5.224 Y-13.052
N7605 X-5.35 Y-12.902
N7610 X-5.518 Y-12.802
N7615 X-5.595 Y-12.781
N7620 X-5.674 Y-12.77
N7625 X-5.754
N7630 G3 X-5.451 Y-13.854 I0.037 J-0.574
N7635 G1 X-5.14 Y-13.678
N7640 X-5.078 Y-13.639
N7645 X-5.047 Y-13.614
N7650 X-5.017 Y-13.583
N7655 X-4.982 Y-13.537
N7660 X-4.956 Y-13.491
N7665 X-4.937 Y-13.445
N7670 X-4.925 Y-13.399
N7675 X-4.918 Y-13.354
N7680 X-4.917 Y-13.308
N7685 X-4.921 Y-13.262
N7690 X-4.93 Y-13.216
N7695 X-4.956 Y-13.142
N7700 X-4.986 Y-13.087
N7705 X-5.006 Y-13.06
N7710 X-5.03 Y-13.032
N7715 X-5.057 Y-13.006
N7720 X-5.085 Y-12.984
N7725 X-5.14 Y-12.951
N7730 X-5.323 Y-12.878
N7735 X-5.874 Y-12.664
N7740 X-6.057 Y-12.585
N7745 X-6.282 Y-12.482
N7750 X-6.424 Y-12.406
N7755 X-6.58 Y-12.311
N7760 G3 X-6.951 Y-12.299 I-0.197 J-0.348
N7765 G1 X-6.998 Y-12.337 Z-5.995
N7770 X-7.044 Y-12.373 Z-5.981
N7775 X-7.089 Y-12.409 Z-5.958
N7780 X-7.112 Y-12.457 Z-5.926
N7785 X-7.133 Y-12.5 Z-5.885
N7790 X-7.151 Y-12.537 Z-5.837
N7795 X-7.166 Y-12.567 Z-5.783
N7800 X-7.17 Y-12.591 Z-5.725
N7805 X-7.173 Y-12.606 Z-5.663
N7810 X-7.174 Y-12.611 Z-5.6
N7815 G0 Z6.
N7820 G1 X18.004 Y-2.207 F500.
N7825 G0 Z3.5
N7830 G3 X18.164 Y-2.253 Z3.089 I-0.449 J-1.846 F75.
N7835 X18.318 Y-2.313 Z2.678 I-0.609 J-1.8
N7840 X18.467 Y-2.386 Z2.267 I-0.763 J-1.74
N7845 X18.609 Y-2.472 Z1.856 I-0.912 J-1.667
N7850 X18.743 Y-2.57 Z1.445 I-1.054 J-1.581
N7855 X18.867 Y-2.679 Z1.033 I-1.188 J-1.483
N7860 X18.982 Y-2.799 Z0.622 I-1.312 J-1.374
N7865 X19.086 Y-2.928 Z0.211 I-1.427 J-1.254
N7870 X19.178 Y-3.066 Z-0.2 I-1.531 J-1.125
N7875 X19.258 Y-3.211 Z-0.611 I-1.623 J-0.988
N7880 X19.325 Y-3.362 Z-1.022 I-1.703 J-0.842
N7885 X19.379 Y-3.519 Z-1.433 I-1.77 J-0.691
N7890 X19.418 Y-3.68 Z-1.844 I-1.823 J-0.534
N7895 X19.444 Y-3.844 Z-2.255 I-1.863 J-0.373
N7900 X19.455 Y-4.01 Z-2.666 I-1.888 J-0.209
N7905 X19.451 Y-4.175 Z-3.078 I-1.899 J-0.044
N7910 X19.433 Y-4.34 Z-3.489 I-1.896 J0.122
N7915 X19.401 Y-4.503 Z-3.9 I-1.878 J0.287
N7920 X19.355 Y-4.662 Z-4.311 I-1.846 J0.449
N7925 X19.295 Y-4.816 Z-4.722 I-1.8 J0.609
N7930 X19.222 Y-4.965 Z-5.133 I-1.74 J0.763
N7935 X19.136 Y-5.107 Z-5.544 I-1.667 J0.912
N7940 X19.038 Y-5.241 Z-5.955 I-1.581 J1.054
N7945 X19.455 Y-4.053 Z-6. I-1.483 J1.188
N7950 X15.655 I-1.9 J0.
N7955 X19.455 I1.9 J0.
N7960 G1 X19.459 Y-3.851 F300.
N7965 X19.622 Y-3.18
N7970 X19.646 Y-3.032
N7975 X19.648 Y-2.882
N7980 X19.632 Y-2.733
N7985 X19.6 Y-2.587
N7990 X19.553 Y-2.444
N7995 X19.493 Y-2.307
N8000 X19.421 Y-2.175
N8005 X19.338 Y-2.048
N8010 X19.24 Y-1.922
N8015 X19.127 Y-1.8
N8020 X19.001 Y-1.683
N8025 X18.861 Y-1.573
N8030 X18.708 Y-1.471
N8035 X18.542 Y-1.379
N8040 X18.365 Y-1.298
N8045 X18.177 Y-1.231
N8050 X17.981 Y-1.177
N8055 X17.776 Y-1.139
N8060 X17.565 Y-1.117
N8065 X17.35 Y-1.112
N8070 X17.132 Y-1.124
N8075 X16.913 Y-1.154
N8080 X16.694 Y-1.202
N8085 X16.477 Y-1.268
N8090 X16.265 Y-1.353
N8095 X16.058 Y-1.454
N8100 X15.859 Y-1.573
N8105 X15.669 Y-1.709
N8110 X15.489 Y-1.86
N8115 X15.321 Y-2.025
N8120 X15.167 Y-2.205
N8125 X15.026 Y-2.397
N8130 X14.901 Y-2.6
N8135 X14.793 Y-2.814
N8140 X14.702 Y-3.036
N8145 X14.628 Y-3.265
N8150 X14.573 Y-3.5
N8155 X14.538 Y-3.739
N8160 X14.521 Y-3.98
N8165 X14.524 Y-4.222
N8170 X14.546 Y-4.463
N8175 X14.588 Y-4.703
N8180 X14.649 Y-4.938
N8185 X14.728 Y-5.167
N8190 X14.826 Y-5.39
N8195 X14.941 Y-5.604
N8200 X15.073 Y-5.809
N8205 X15.222 Y-6.002
N8210 X15.385 Y-6.183
N8215 X15.563 Y-6.35
N8220 X15.753 Y-6.503
N8225 X15.955 Y-6.639
N8230 X16.167 Y-6.76
N8235 X16.389 Y-6.862
N8240 X16.618 Y-6.947
N8245 X16.853 Y-7.013
N8250 X17.092 Y-7.06
N8255 X17.335 Y-7.087
N8260 X17.579 Y-7.095
N8265 X17.823 Y-7.083
N8270 X18.065 Y-7.052
N8275 X18.304 Y-7.002
N8280 X18.538 Y-6.932
N8285 X18.766 Y-6.844
N8290 X18.986 Y-6.738
N8295 X19.197 Y-6.614
N8300 X19.397 Y-6.474
N8305 X19.586 Y-6.319
N8310 X19.761 Y-6.148
N8315 X19.922 Y-5.965
N8320 X20.068 Y-5.769
N8325 X20.238 Y-5.496
N8330 X20.49 Y-5.01
N8335 X20.656 Y-4.617
N8340 X20.765 Y-4.283
N8345 X20.839 Y-3.978
N8350 X20.885 Y-3.689
N8355 X20.907 Y-3.41
N8360 X20.906 Y-3.139
N8365 X20.884 Y-2.874
N8370 X20.841 Y-2.614
N8375 X20.777 Y-2.36
N8380 X20.693 Y-2.111
N8385 X20.589 Y-1.868
N8390 X20.465 Y-1.634
N8395 X20.322 Y-1.408
N8400 X20.159 Y-1.192
N8405 X19.978 Y-0.988
N8410 X19.778 Y-0.797
N8415 X19.561 Y-0.62
N8420 X19.327 Y-0.459
N8425 X19.077 Y-0.315
N8430 X18.813 Y-0.19
N8435 X18.536 Y-0.085
N8440 X18.248 Y-0.001
N8445 X17.95 Y0.06
N8450 X17.645 Y0.097
N8455 X17.335 Y0.109
N8460 X17.021 Y0.097
N8465 X16.707 Y0.059
N8470 X16.394 Y-0.005
N8475 X16.084 Y-0.094
N8480 X15.781 Y-0.208
N8485 X15.486 Y-0.347
N8490 X15.202 Y-0.511
N8495 X14.929 Y-0.698
N8500 X14.672 Y-0.907
N8505 X14.431 Y-1.138
N8510 X14.208 Y-1.388
N8515 X14.005 Y-1.656
N8520 X13.929 Y-1.775
N8525 X13.86 Y-1.905
N8530 X13.813 Y-2.044
N8535 X13.787 Y-2.189
N8540 X13.768 Y-2.386
N8545 X13.647 Y-2.937
N8550 X13.544 Y-3.304
N8555 X13.446 Y-3.727
N8560 X13.406 Y-3.996
N8565 X13.388 Y-4.274
N8570 X13.392 Y-4.56
N8575 X13.419 Y-4.852
N8580 X13.472 Y-5.149
N8585 X13.55 Y-5.448
N8590 X13.653 Y-5.745
N8595 X13.782 Y-6.038
N8600 X13.936 Y-6.323
N8605 X14.115 Y-6.597
N8610 X14.317 Y-6.859
N8615 X14.54 Y-7.106
N8620 X14.785 Y-7.335
N8625 X15.048 Y-7.545
N8630 X15.329 Y-7.734
N8635 X15.625 Y-7.901
N8640 X15.934 Y-8.044
N8645 X16.255 Y-8.161
N8650 X16.585 Y-8.253
N8655 X16.922 Y-8.318
N8660 X17.264 Y-8.356
N8665 X17.48 Y-8.363
N8670 X17.607 Y-8.358
N8675 X17.733 Y-8.336
N8680 X17.854 Y-8.297
N8685 X17.988 Y-8.244
N8690 X19.457 Y-7.675
N8695 X19.738 Y-7.553
N8700 X19.974 Y-7.428
N8705 X20.219 Y-7.271
N8710 X20.465 Y-7.084
N8715 X20.729 Y-6.847
N8720 X20.995 Y-6.568
N8725 X21.242 Y-6.261
N8730 X21.469 Y-5.928
N8735 X21.671 Y-5.576
N8740 X21.842 Y-5.211
N8745 X21.916 Y-5.014
N8750 X21.967 Y-4.806
N8755 X21.97 Y-4.593
N8760 X21.925 Y-4.384
N8765 G3 X21.239 Y-4.277 I-0.374 J-0.143
N8770 G1 X19.017 Y-7.046
N8775 G3 X19.457 Y-7.675 I0.312 J-0.25
N8780 G1 X19.64 Y-7.606
N8785 X20.191 Y-7.471
N8790 X20.558 Y-7.401
N8795 X20.925 Y-7.332
N8800 X21.135 Y-7.282
N8805 X21.286 Y-7.233
N8810 X21.452 Y-7.164
N8815 X21.628 Y-7.073
N8820 X21.814 Y-6.957
N8825 X22.006 Y-6.815
N8830 X22.193 Y-6.653
N8835 X22.363 Y-6.478
N8840 X22.375 Y-6.464
N8845 X22.496 Y-6.277
N8850 X22.569 Y-6.065
N8855 X22.59 Y-5.843
N8860 X22.557 Y-5.621
N8865 X22.472 Y-5.414
N8870 G3 X21.841 Y-5.344 I-0.343 J-0.206
N8875 G1 X21.805 Y-5.381
N8880 X20.577 Y-6.66
N8885 G3 X20.925 Y-7.332 I0.288 J-0.277
N8890 G1 X22.027 Y-7.127
N8895 X22.21 Y-7.099
N8900 X22.266 Y-7.095
N8905 X22.414 Y-7.075
N8910 X22.604 Y-6.984
N8915 X22.758 Y-6.841
N8920 X22.864 Y-6.66
N8925 X22.913 Y-6.456
N8930 X22.899 Y-6.246
N8935 X22.825 Y-6.05
N8940 G3 X22.131 Y-6.067 I-0.343 J-0.206
N8945 G1 X21.894 Y-6.506
N8950 G3 X22.266 Y-7.095 I0.352 J-0.189
N8955 G1 X22.577 Y-7.069
N8960 X22.761 Y-7.064
N8965 X22.807 Y-7.054
N8970 X22.853 Y-7.037
N8975 X22.898 Y-7.014
N8980 X22.944 Y-6.983
N8985 X22.954 Y-6.975
N8990 X23.001 Y-6.929
N8995 X23.039 Y-6.883
N9000 X23.067 Y-6.837
N9005 X23.087 Y-6.792
N9010 X23.101 Y-6.746
N9015 X23.11 Y-6.7
N9020 X23.113 Y-6.654
N9025 X23.11 Y-6.608
N9030 X23.102 Y-6.562
N9035 X23.089 Y-6.516
N9040 X23.069 Y-6.47
N9045 X22.944 Y-6.263
N9050 X22.115 Y-4.772
N9055 X22.02 Y-4.589
N9060 X21.932 Y-4.405
N9065 X21.843 Y-4.145
N9070 X21.463 Y-2.937
N9075 X21.292 Y-2.377
N9080 X21.264 Y-2.203
N9085 X21.213 Y-1.836
N9090 X21.192 Y-1.652
N9095 X21.174 Y-1.468
N9100 X21.145 Y-1.281
N9105 X21.103 Y-1.104
N9110 X21.042 Y-0.913
N9115 X20.958 Y-0.712
N9120 X20.856 Y-0.512
N9125 X20.727 Y-0.302
N9130 X20.57 Y-0.09
N9135 X20.393 Y0.115
N9140 X20.188 Y0.317
N9145 X19.953 Y0.513
N9150 X19.691 Y0.699
N9155 X19.405 Y0.868
N9160 X19.099 Y1.018
N9165 X18.772 Y1.147
N9170 X18.423 Y1.252
N9175 X18.056 Y1.332
N9180 X17.674 Y1.384
N9185 X17.28 Y1.405
N9190 X16.88 Y1.394
N9195 X16.475 Y1.35
N9200 X16.069 Y1.274
N9205 X15.667 Y1.163
N9210 X15.271 Y1.019
N9215 X14.885 Y0.843
N9220 X14.511 Y0.634
N9225 X14.379 Y0.546
N9230 X14.218 Y0.41
N9235 X14.091 Y0.24
N9240 X14.006 Y0.046
N9245 X13.967 Y-0.162
N9250 X13.939 Y-0.551
N9255 X13.803 Y-2.019
N9260 X13.787 Y-2.189
N9265 G3 X14.23 Y-2.61 I0.399 J-0.023
N9270 G1 X14.32 Y-2.6
N9275 X20.645 Y-1.912
N9280 X20.818 Y-1.893
N9285 G3 X21.174 Y-1.468 I-0.043 J0.398
N9290 G1 X21.081 Y-0.551
N9295 X21.036 Y0.
N9300 X21.038 Y0.031
N9305 X21.043 Y0.18
N9310 X21.014 Y0.328
N9315 X20.972 Y0.475
N9320 X20.912 Y0.636
N9325 X20.833 Y0.803
N9330 X20.73 Y0.983
N9335 X20.608 Y1.162
N9340 X20.453 Y1.353
N9345 X20.277 Y1.538
N9350 X20.068 Y1.725
N9355 X19.821 Y1.912
N9360 X19.553 Y2.084
N9365 X19.249 Y2.245
N9370 X18.907 Y2.393
N9375 X18.532 Y2.521
N9380 X18.139 Y2.62
N9385 X17.721 Y2.69
N9390 X17.277 Y2.729
N9395 X16.812 Y2.732
N9400 X16.334 Y2.697
N9405 X15.847 Y2.621
N9410 X15.357 Y2.504
N9415 X14.945 Y2.37
N9420 X14.603 Y2.227
N9425 X14.333 Y2.088
N9430 X14.316 Y2.078
N9435 X14.118 Y1.913
N9440 X13.973 Y1.7
N9445 X13.891 Y1.456
N9450 X13.88 Y1.199
N9455 X13.939 Y0.551
N9460 X13.979 Y0.
N9465 X13.967 Y-0.162
N9470 G3 X14.383 Y-0.577 I0.4 J-0.015
N9475 G1 X14.509 Y-0.572
N9480 X20.438 Y-0.332
N9485 X20.657 Y-0.323
N9490 G3 X21.038 Y0.031 I-0.016 J0.4
N9495 G1 X21.081 Y0.551
N9500 X21.136 Y1.101
N9505 X21.144 Y1.251
N9510 X21.131 Y1.401
N9515 X21.104 Y1.548
N9520 X21.064 Y1.695
N9525 X21.004 Y1.862
N9530 X20.929 Y2.028
N9535 X20.827 Y2.212
N9540 X20.706 Y2.395
N9545 X20.553 Y2.589
N9550 X20.372 Y2.785
N9555 X20.162 Y2.978
N9560 X19.909 Y3.176
N9565 X19.63 Y3.359
N9570 X19.315 Y3.533
N9575 X18.952 Y3.696
N9580 X18.551 Y3.838
N9585 X18.13 Y3.951
N9590 X17.667 Y4.036
N9595 X17.167 Y4.087
N9600 X16.637 Y4.097
N9605 X16.105 Y4.066
N9610 X15.588 Y3.993
N9615 X15.123 Y3.888
N9620 X14.774 Y3.78
N9625 X14.477 Y3.661
N9630 X14.238 Y3.542
N9635 X14.173 Y3.503
N9640 X13.99 Y3.36
N9645 X13.849 Y3.176
N9650 X13.757 Y2.963
N9655 X13.721 Y2.734
N9660 X13.742 Y2.504
N9665 X13.768 Y2.386
N9670 X13.786 Y2.203
N9675 X13.88 Y1.199
N9680 G3 X14.271 Y0.85 I0.397 J0.051
N9685 G1 X14.484 Y0.846
N9690 X20.529 Y0.759
N9695 X20.734 Y0.756
N9700 G3 X21.136 Y1.101 I0.006 J0.4
N9705 G1 X21.192 Y1.652
N9710 X21.213 Y1.836
N9715 X21.264 Y2.203
N9720 X21.281 Y2.352
N9725 X21.279 Y2.502
N9730 X21.263 Y2.651
N9735 X21.232 Y2.805
N9740 X21.188 Y2.96
N9745 X21.122 Y3.136
N9750 X21.039 Y3.312
N9755 X20.928 Y3.506
N9760 X20.796 Y3.699
N9765 X20.63 Y3.904
N9770 X20.431 Y4.113
N9775 X20.204 Y4.316
N9780 X19.928 Y4.525
N9785 X19.623 Y4.721
N9790 X19.278 Y4.904
N9795 X18.877 Y5.078
N9800 X18.43 Y5.229
N9805 X17.961 Y5.348
N9810 X17.444 Y5.435
N9815 X16.893 Y5.483
N9820 X16.329 Y5.487
N9825 X15.79 Y5.447
N9830 X15.288 Y5.369
N9835 X14.888 Y5.273
N9840 X14.54 Y5.16
N9845 X14.276 Y5.05
N9850 X14.022 Y4.919
N9855 X13.819 Y4.793
N9860 X13.762 Y4.751
N9865 X13.598 Y4.596
N9870 X13.476 Y4.406
N9875 X13.403 Y4.192
N9880 X13.383 Y3.967
N9885 X13.418 Y3.745
N9890 X13.596 Y3.12
N9895 X13.647 Y2.937
N9900 X13.742 Y2.504
N9905 G3 X14.111 Y2.203 I0.388 J0.099
N9910 G1 X14.386 Y2.19
N9915 X20.637 Y1.891
N9920 X20.853 Y1.881
N9925 G3 X21.264 Y2.203 I0.019 J0.4
N9930 G1 X21.292 Y2.377
N9935 X21.476 Y2.977
N9940 X21.521 Y3.12
N9945 X21.559 Y3.266
N9950 X21.576 Y3.415
N9955 X21.578 Y3.565
N9960 X21.566 Y3.714
N9965 X21.539 Y3.878
N9970 X21.497 Y4.045
N9975 X21.434 Y4.235
N9980 X21.352 Y4.425
N9985 X21.243 Y4.633
N9990 X21.108 Y4.846
N9995 X20.944 Y5.063
N10000 X20.739 Y5.296
N10005 X20.509 Y5.516
N10010 X20.228 Y5.745
N10015 X19.901 Y5.971
N10020 X19.547 Y6.176
N10025 X19.133 Y6.372
N10030 X18.661 Y6.552
N10035 X18.15 Y6.701
N10040 X17.613 Y6.811
N10045 X17.039 Y6.882
N10050 X16.448 Y6.906
N10055 X15.878 Y6.884
N10060 X15.359 Y6.823
N10065 X14.885 Y6.727
N10070 X14.459 Y6.605
N10075 X14.122 Y6.478
N10080 X13.842 Y6.346
N10085 X13.6 Y6.208
N10090 X13.39 Y6.063
N10095 X13.346 Y6.028
N10100 X13.188 Y5.865
N10105 X13.075 Y5.668
N10110 X13.012 Y5.449
N10115 X13.004 Y5.222
N10120 X13.051 Y5.
N10125 X13.066 Y4.956
N10130 X13.126 Y4.772
N10135 X13.418 Y3.745
N10140 G3 X13.766 Y3.469 I0.381 J0.123
N10145 G1 X14.08 Y3.443
N10150 X20.852 Y2.877
N10155 X21.111 Y2.855
N10160 G3 X21.521 Y3.12 I0.033 J0.399
N10165 G1 X21.843 Y4.145
N10170 X21.884 Y4.289
N10175 X21.912 Y4.437
N10180 X21.924 Y4.586
N10185 X21.922 Y4.736
N10190 X21.907 Y4.893
N10195 X21.876 Y5.07
N10200 X21.829 Y5.254
N10205 X21.758 Y5.457
N10210 X21.665 Y5.669
N10215 X21.545 Y5.891
N10220 X21.39 Y6.13
N10225 X21.211 Y6.362
N10230 X20.984 Y6.613
N10235 X20.723 Y6.859
N10240 X20.417 Y7.103
N10245 X20.05 Y7.351
N10250 X19.643 Y7.581
N10255 X19.359 Y7.712
N10260 X19.323 Y7.727
N10265 G3 X18.87 Y7.11 I-0.131 J-0.378
N10270 G1 X21.148 Y4.049
N10275 G3 X21.843 Y4.145 I0.321 J0.239
N10280 G1 X21.932 Y4.405
N10285 X22.027 Y4.602
N10290 X22.115 Y4.772
N10295 X22.21 Y4.943
N10300 X22.276 Y5.077
N10305 X22.329 Y5.218
N10310 X22.366 Y5.363
N10315 X22.388 Y5.511
N10320 X22.398 Y5.666
N10325 X22.394 Y5.827
N10330 X22.375 Y6.013
N10335 X22.34 Y6.203
N10340 X22.282 Y6.419
N10345 X22.204 Y6.637
N10350 X22.18 Y6.691
N10355 X22.064 Y6.883
N10360 X21.905 Y7.041
N10365 X21.714 Y7.158
N10370 X21.5 Y7.225
N10375 G3 X21.053 Y6.731 I-0.06 J-0.396
N10380 G1 X21.48 Y5.051
N10385 G3 X22.21 Y4.943 I0.388 J0.099
N10390 G1 X22.761 Y5.933
N10395 X22.827 Y6.068
N10400 X22.871 Y6.292
N10405 X22.848 Y6.519
N10410 X22.76 Y6.73
N10415 X22.615 Y6.906
N10420 X22.425 Y7.033
N10425 X22.207 Y7.1
N10430 G3 X21.797 Y6.536 I-0.045 J-0.397
N10435 G1 X22.054 Y5.973
N10440 G3 X22.761 Y5.933 I0.364 J0.166
N10445 G1 X22.944 Y6.263
N10450 X23.042 Y6.424
N10455 X23.069 Y6.47
N10460 X23.089 Y6.516
N10465 X23.102 Y6.562
N10470 X23.11 Y6.608
N10475 X23.113 Y6.654
N10480 X23.11 Y6.7
N10485 X23.101 Y6.746
N10490 X23.087 Y6.792
N10495 X23.067 Y6.837
N10500 X23.039 Y6.883
N10505 X23.001 Y6.929
N10510 X22.954 Y6.975
N10515 X22.944 Y6.983
N10520 X22.898 Y7.014
N10525 X22.853 Y7.037
N10530 X22.807 Y7.054
N10535 X22.761 Y7.064
N10540 X22.577 Y7.069
N10545 X22.21 Y7.099
N10550 X22.027 Y7.127
N10555 X20.375 Y7.435
N10560 X20.191 Y7.471
N10565 X19.64 Y7.606
N10570 X19.457 Y7.675
N10575 X19.09 Y7.817
N10580 X18.387 Y8.05
N10585 X17.835 Y8.184
N10590 X17.241 Y8.279
N10595 X16.631 Y8.328
N10600 X16.022 Y8.326
N10605 X15.431 Y8.278
N10610 X14.89 Y8.189
N10615 X14.411 Y8.07
N10620 X13.978 Y7.925
N10625 X13.643 Y7.782
N10630 X13.363 Y7.635
N10635 X13.128 Y7.486
N10640 X12.92 Y7.33
N10645 X12.748 Y7.178
N10650 X12.703 Y7.131
N10655 X12.566 Y6.948
N10660 X12.478 Y6.738
N10665 X12.443 Y6.512
N10670 X12.465 Y6.284
N10675 X12.541 Y6.069
N10680 X12.912 Y5.323
N10685 X13.032 Y5.055
N10690 X13.051 Y5.
N10695 G3 X13.579 Y4.774 I0.374 J0.143
N10700 G1 X13.713 Y4.83
N10705 X19.087 Y7.081
N10710 G3 X19.09 Y7.817 I-0.155 J0.369
N10715 G1 X17.947 Y8.26
N10720 X17.805 Y8.317
N10725 X17.254 Y8.562
N10730 X16.62 Y8.952
N10735 X16.465 Y9.037
N10740 X16.272 Y9.125
N10745 X16.061 Y9.2
N10750 X15.81 Y9.268
N10755 X15.536 Y9.319
N10760 X15.218 Y9.351
N10765 X14.89 Y9.359
N10770 X14.54 Y9.338
N10775 X14.18 Y9.288
N10780 X13.821 Y9.209
N10785 X13.471 Y9.1
N10790 X13.14 Y8.969
N10795 X12.868 Y8.834
N10800 X12.618 Y8.684
N10805 X12.42 Y8.543
N10810 X12.227 Y8.38
N10815 X12.143 Y8.296
N10820 X11.994 Y8.104
N10825 X11.9 Y7.88
N10830 X11.866 Y7.64
N10835 X11.896 Y7.399
N10840 X11.987 Y7.174
N10845 X11.996 Y7.159
N10850 X12.115 Y6.924
N10855 X12.541 Y6.069
N10860 G3 X13.116 Y5.928 I0.352 J0.191
N10865 G1 X13.214 Y5.994
N10870 X16.62 Y8.287
N10875 X16.621 Y8.288
N10880 G3 X16.62 Y8.952 I-0.223 J0.332
N10885 G1 X15.602 Y9.582
N10890 X15.419 Y9.698
N10895 X15.235 Y9.821
N10900 X15.201 Y9.848
N10905 X15.079 Y9.936
N10910 X14.937 Y10.01
N10915 X14.785 Y10.073
N10920 X14.6 Y10.134
N10925 X14.405 Y10.181
N10930 X14.178 Y10.216
N10935 X13.937 Y10.234
N10940 X13.683 Y10.233
N10945 X13.41 Y10.209
N10950 X13.129 Y10.162
N10955 X12.845 Y10.091
N10960 X12.576 Y10.
N10965 X12.332 Y9.894
N10970 X12.102 Y9.772
N10975 X11.916 Y9.654
N10980 X11.728 Y9.512
N10985 X11.573 Y9.373
N10990 X11.437 Y9.23
N10995 X11.405 Y9.191
N11000 X11.276 Y8.98
N11005 X11.207 Y8.743
N11010 X11.203 Y8.496
N11015 X11.263 Y8.256
N11020 X11.385 Y8.041
N11025 X11.635 Y7.709
N11030 X11.769 Y7.526
N11035 X11.892 Y7.342
N11040 X11.987 Y7.174
N11045 G3 X12.584 Y7.075 I0.341 J0.209
N11050 G1 X12.661 Y7.139
N11055 X15.125 Y9.18
N11060 X15.195 Y9.237
N11065 G3 X15.201 Y9.848 I-0.255 J0.308
N11070 G1 X15.121 Y9.912
N11075 X15.051 Y9.971
N11080 X14.908 Y10.095
N11085 X14.317 Y10.634
N11090 X14.201 Y10.73
N11095 X14.076 Y10.811
N11100 X13.942 Y10.881
N11105 X13.799 Y10.942
N11110 X13.63 Y10.998
N11115 X13.45 Y11.042
N11120 X13.252 Y11.073
N11125 X13.034 Y11.091
N11130 X12.81 Y11.09
N11135 X12.578 Y11.071
N11140 X12.335 Y11.032
N11145 X12.087 Y10.971
N11150 X11.841 Y10.888
N11155 X11.622 Y10.795
N11160 X11.412 Y10.684
N11165 X11.22 Y10.563
N11170 X11.061 Y10.444
N11175 X10.899 Y10.301
N11180 X10.763 Y10.16
N11185 X10.719 Y10.106
N11190 X10.589 Y9.894
N11195 X10.519 Y9.657
N11200 X10.514 Y9.409
N11205 X10.575 Y9.168
N11210 X10.697 Y8.952
N11215 X11.385 Y8.041
N11220 G3 X11.959 Y7.992 I0.311 J0.252
N11225 G1 X12.066 Y8.085
N11230 X14.206 Y9.964
N11235 X14.301 Y10.048
N11240 G3 X14.317 Y10.634 I-0.264 J0.301
N11245 G1 X13.7 Y11.197
N11250 X13.583 Y11.305
N11255 X13.399 Y11.478
N11260 X13.289 Y11.579
N11265 X13.162 Y11.66
N11270 X13.029 Y11.728
N11275 X12.884 Y11.787
N11280 X12.73 Y11.836
N11285 X12.556 Y11.876
N11290 X12.367 Y11.904
N11295 X12.17 Y11.917
N11300 X11.958 Y11.914
N11305 X11.738 Y11.893
N11310 X11.511 Y11.852
N11315 X11.282 Y11.792
N11320 X11.06 Y11.715
N11325 X10.862 Y11.627
N11330 X10.657 Y11.516
N11335 X10.486 Y11.405
N11340 X10.332 Y11.285
N11345 X10.178 Y11.146
N11350 X10.053 Y11.013
N11355 X9.939 Y10.868
N11360 X9.824 Y10.63
N11365 X9.78 Y10.368
N11370 X9.812 Y10.106
N11375 X9.916 Y9.862
N11380 X10.084 Y9.658
N11385 X10.204 Y9.545
N11390 X10.279 Y9.471
N11395 X10.665 Y8.994
N11400 X10.697 Y8.952
N11405 G3 X11.283 Y8.915 I0.311 J0.252
N11410 G1 X11.374 Y9.001
N11415 X13.264 Y10.804
N11420 X13.382 Y10.916
N11425 G3 X13.399 Y11.478 I-0.276 J0.289
N11430 G1 X13.314 Y11.564
N11435 X13.16 Y11.747
N11440 X13.017 Y11.931
N11445 X12.878 Y12.115
N11450 X12.782 Y12.23
N11455 X12.675 Y12.335
N11460 X12.557 Y12.428
N11465 X12.431 Y12.508
N11470 X12.297 Y12.576
N11475 X12.154 Y12.634
N11480 X11.997 Y12.684
N11485 X11.821 Y12.724
N11490 X11.636 Y12.751
N11495 X11.439 Y12.763
N11500 X11.229 Y12.76
N11505 X11.011 Y12.739
N11510 X10.789 Y12.699
N11515 X10.565 Y12.64
N11520 X10.342 Y12.562
N11525 X10.127 Y12.467
N11530 X9.946 Y12.368
N11535 X9.756 Y12.244
N11540 X9.596 Y12.12
N11545 X9.461 Y11.997
N11550 X9.321 Y11.847
N11555 X9.205 Y11.701
N11560 X9.111 Y11.56
N11565 X9.096 Y11.535
N11570 X9.005 Y11.303
N11575 X8.978 Y11.054
N11580 X9.018 Y10.808
N11585 X9.122 Y10.581
N11590 X9.282 Y10.389
N11595 X10.084 Y9.658
N11600 G3 X10.606 Y9.661 I0.259 J0.305
N11605 G1 X10.769 Y9.803
N11610 X12.663 Y11.453
N11615 X12.813 Y11.583
N11620 G3 X12.878 Y12.115 I-0.263 J0.302
N11625 G1 X12.236 Y12.965
N11630 X12.14 Y13.08
N11635 X12.034 Y13.186
N11640 X11.917 Y13.28
N11645 X11.79 Y13.361
N11650 X11.657 Y13.43
N11655 X11.516 Y13.49
N11660 X11.353 Y13.544
N11665 X11.179 Y13.586
N11670 X10.992 Y13.616
N11675 X10.79 Y13.632
N11680 X10.575
N11685 X10.356 Y13.613
N11690 X10.131 Y13.577
N11695 X9.904 Y13.52
N11700 X9.674 Y13.443
N11705 X9.446 Y13.345
N11710 X9.224 Y13.229
N11715 X9.035 Y13.109
N11720 X8.851 Y12.971
N11725 X8.688 Y12.826
N11730 X8.555 Y12.688
N11735 X8.422 Y12.525
N11740 X8.313 Y12.367
N11745 X8.269 Y12.29
N11750 X8.17 Y12.043
N11755 X8.145 Y11.779
N11760 X8.195 Y11.518
N11765 X8.317 Y11.282
N11770 X8.5 Y11.089
N11775 X8.597 Y11.013
N11780 X9.282 Y10.389
N11785 G3 X9.802 Y10.391 I0.259 J0.305
N11790 G1 X9.968 Y10.534
N11795 X12.02 Y12.304
N11800 X12.17 Y12.432
N11805 G3 X12.236 Y12.965 I-0.261 J0.303
N11810 G1 X11.908 Y13.399
N11815 X11.779 Y13.583
N11820 X11.747 Y13.63
N11825 X11.708 Y13.705
N11830 X11.632 Y13.834
N11835 X11.54 Y13.953
N11840 X11.435 Y14.06
N11845 X11.318 Y14.154
N11850 X11.193 Y14.237
N11855 X11.061 Y14.308
N11860 X10.916 Y14.372
N11865 X10.749 Y14.43
N11870 X10.573 Y14.475
N11875 X10.379 Y14.509
N11880 X10.166 Y14.529
N11885 X9.946 Y14.532
N11890 X9.717 Y14.516
N11895 X9.477 Y14.48
N11900 X9.231 Y14.423
N11905 X8.986 Y14.345
N11910 X8.744 Y14.246
N11915 X8.506 Y14.125
N11920 X8.286 Y13.99
N11925 X8.095 Y13.851
N11930 X7.904 Y13.686
N11935 X7.753 Y13.534
N11940 X7.621 Y13.377
N11945 X7.494 Y13.199
N11950 X7.397 Y13.036
N11955 X7.315 Y12.87
N11960 X7.28 Y12.783
N11965 X7.219 Y12.531
N11970 X7.229 Y12.271
N11975 X7.311 Y12.025
N11980 X7.457 Y11.811
N11985 X7.656 Y11.645
N11990 X8.26 Y11.27
N11995 X8.362 Y11.197
N12000 X8.5 Y11.089
N12005 G3 X8.988 Y11.102 I0.236 J0.323
N12010 G1 X9.19 Y11.266
N12015 X11.405 Y13.063
N12020 X11.6 Y13.221
N12025 G3 X11.708 Y13.705 I-0.252 J0.311
N12030 G1 X11.483 Y14.134
N12035 X11.38 Y14.337
N12040 X11.248 Y14.602
N12045 X11.175 Y14.733
N12050 X11.083 Y14.851
N12055 X10.978 Y14.958
N12060 X10.863 Y15.054
N12065 X10.74 Y15.14
N12070 X10.601 Y15.22
N12075 X10.445 Y15.295
N12080 X10.276 Y15.359
N12085 X10.083 Y15.415
N12090 X9.878 Y15.458
N12095 X9.658 Y15.485
N12100 X9.419 Y15.495
N12105 X9.166 Y15.485
N12110 X8.908 Y15.455
N12115 X8.646 Y15.402
N12120 X8.376 Y15.325
N12125 X8.108 Y15.224
N12130 X7.847 Y15.102
N12135 X7.593 Y14.956
N12140 X7.353 Y14.791
N12145 X7.127 Y14.609
N12150 X6.936 Y14.427
N12155 X6.758 Y14.228
N12160 X6.613 Y14.037
N12165 X6.499 Y13.858
N12170 X6.391 Y13.655
N12175 X6.31 Y13.469
N12180 X6.25 Y13.29
N12185 X6.248 Y13.283
N12190 X6.219 Y13.049
N12195 X6.25 Y12.816
N12200 X6.338 Y12.598
N12205 X6.478 Y12.409
N12210 X6.661 Y12.261
N12215 X7.656 Y11.645
N12220 G3 X8.106 Y11.681 I0.199 J0.347
N12225 G1 X8.344 Y11.873
N12230 X10.935 Y13.963
N12235 X11.136 Y14.125
N12240 G3 X11.248 Y14.602 I-0.251 J0.311
N12245 G1 X10.786 Y15.53
N12250 X10.713 Y15.661
N12255 X10.623 Y15.782
N12260 X10.521 Y15.892
N12265 X10.409 Y15.991
N12270 X10.289 Y16.081
N12275 X10.146 Y16.17
N12280 X9.992 Y16.251
N12285 X9.814 Y16.326
N12290 X9.618 Y16.391
N12295 X9.408 Y16.442
N12300 X9.172 Y16.479
N12305 X8.921 Y16.499
N12310 X8.742 Y16.498
N12315 X8.488 Y16.463
N12320 X8.254 Y16.359
N12325 X8.056 Y16.196
N12330 X7.911 Y15.986
N12335 G3 X8.191 Y15.427 I0.363 J-0.168
N12340 G1 X8.257 Y15.413
N12345 X10.339 Y14.973
N12350 G3 X10.786 Y15.53 I0.083 J0.391
N12355 G1 X10.75 Y15.602
N12360 X10.646 Y15.83
N12365 X10.584 Y15.969
N12370 X10.526 Y16.153
N12375 X10.471 Y16.336
N12380 X10.421 Y16.478
N12385 X10.35 Y16.61
N12390 X10.264 Y16.733
N12395 X10.166 Y16.846
N12400 X10.058 Y16.95
N12405 X9.939 Y17.048
N12410 X9.815 Y17.133
N12415 X9.669 Y17.217
N12420 X9.527 Y17.285
N12425 X9.386 Y17.338
N12430 X9.316 Y17.358
N12435 X9.057 Y17.394
N12440 X8.798 Y17.357
N12445 X8.559 Y17.25
N12450 X8.36 Y17.08
N12455 X8.216 Y16.862
N12460 X8.138 Y16.613
N12465 G3 X8.452 Y16.17 I0.397 J-0.051
N12470 G1 X8.636 Y16.131
N12475 X10.002 Y15.844
N12480 G3 X10.471 Y16.336 I0.082 J0.391
N12485 G1 X10.417 Y16.52
N12490 X10.259 Y17.071
N12495 X10.207 Y17.254
N12500 X10.198 Y17.285
N12505 X10.185 Y17.331
N12510 X10.137 Y17.473
N12515 X10.117 Y17.505
N12520 X10.076 Y17.565
N12525 X10.027 Y17.62
N12530 X9.972 Y17.669
N12535 G3 X9.421 Y17.639 I-0.249 J-0.512
N12540 X10.185 Y17.331 I0.271 J-0.43
N12545 G1 X10.155 Y17.438
N12550 X10.131 Y17.496
N12555 X10.095 Y17.554
N12560 X10.068 Y17.587
N12565 X10.033 Y17.621
N12570 X9.972 Y17.669
N12575 X9.912 Y17.701
N12580 X9.866 Y17.717
N12585 X9.82 Y17.728
N12590 X9.361 Y17.827
N12595 X8.994 Y17.909
N12600 X8.948 Y17.912
N12605 X8.902 Y17.911
N12610 X8.811 Y17.901
N12615 X8.765 Y17.895
N12620 X8.719 Y17.883
N12625 X8.627 Y17.845
N12630 X8.547 Y17.805
N12635 X8.495 Y17.771
N12640 X8.443 Y17.725
N12645 X8.346 Y17.621
N12650 X8.318 Y17.582
N12655 X8.297 Y17.542
N12660 X8.249 Y17.438
N12665 X8.232 Y17.392
N12670 X8.221 Y17.346
N12675 X8.211 Y17.254
N12680 X8.193 Y17.071
N12685 X8.152 Y16.703
N12690 X8.122 Y16.52
N12695 X8.07 Y16.336
N12700 X7.995 Y16.153
N12705 X7.902 Y15.969
N12710 X7.893 Y15.954
N12715 X7.783 Y15.786
N12720 X7.633 Y15.602
N12725 X7.526 Y15.497
N12730 X6.975 Y15.01
N12735 X6.241 Y14.364
N12740 X6.187 Y14.317
N12745 X6.057 Y14.214
N12750 X6.021 Y14.19
N12755 X5.9 Y14.1
N12760 X5.791 Y13.993
N12765 X5.663 Y13.786
N12770 X5.593 Y13.554
N12775 X5.585 Y13.311
N12780 X5.64 Y13.075
N12785 X5.754 Y12.861
N12790 X5.919 Y12.683
N12795 X6.124 Y12.554
N12800 G3 X6.678 Y12.944 I0.154 J0.369
N12805 G1 X6.631 Y13.87
N12810 G3 X6.021 Y14.19 I-0.399 J-0.02
N12815 G1 X5.937 Y14.134
N12820 X5.874 Y14.094
N12825 X5.451 Y13.854
N12830 X5.324 Y13.774
N12835 X5.215 Y13.61
N12840 X5.163 Y13.419
N12845 X5.175 Y13.222
N12850 X5.25 Y13.04
N12855 X5.379 Y12.89
N12860 X5.549 Y12.79
N12865 G3 X6.028 Y12.843 I0.184 J0.529
N12870 X5.451 Y13.854 I-0.307 J0.495
N12875 G1 X5.14 Y13.678
N12880 X5.078 Y13.639
N12885 X5.047 Y13.614
N12890 X5.017 Y13.583
N12895 X4.982 Y13.537
N12900 X4.956 Y13.491
N12905 X4.937 Y13.445
N12910 X4.925 Y13.399
N12915 X4.918 Y13.354
N12920 X4.917 Y13.308
N12925 X4.921 Y13.262
N12930 X4.93 Y13.216
N12935 X4.956 Y13.142
N12940 X4.986 Y13.087
N12945 X5.006 Y13.06
N12950 X5.03 Y13.032
N12955 X5.057 Y13.006
N12960 X5.085 Y12.984
N12965 X5.14 Y12.951
N12970 X5.323 Y12.878
N12975 X5.871 Y12.665
N12980 G3 X6.402 Y13.066 I0.131 J0.378
N12985 G1 X6.398 Y13.144 Z-5.992
N12990 X6.393 Y13.219 Z-5.97
N12995 X6.389 Y13.288 Z-5.933
N13000 X6.386 Y13.349 Z-5.883
N13005 X6.383 Y13.398 Z-5.822
N13010 X6.381 Y13.435 Z-5.753
N13015 X6.379 Y13.458 Z-5.678
N13020 Y13.466 Z-5.6
N13025 G0 Z6.
N13030 G1 X14.254 Y-2.365 F500.
N13035 G0 Z-5.2
N13040 G1 Z-5.6 F300.
N13045 X14.248 Y-2.37 Z-5.678
N13050 X14.231 Y-2.386 Z-5.753
N13055 X14.205 Y-2.411 Z-5.822
N13060 X14.168 Y-2.445 Z-5.883
N13065 X14.124 Y-2.487 Z-5.933
N13070 X14.074 Y-2.535 Z-5.97
N13075 X14.02 Y-2.586 Z-5.992
N13080 X13.963 Y-2.64 Z-6.
N13085 G3 X13.544 Y-3.304 I1.087 J-1.15
N13090 G1 X13.126 Y-4.772
N13095 X13.066 Y-4.956
N13100 X13.032 Y-5.055
N13105 X12.994 Y-5.14
N13110 X12.94 Y-5.279
N13115 X12.903 Y-5.425
N13120 X12.878 Y-5.577
N13125 X12.863 Y-5.755
N13130 X12.862 Y-5.94
N13135 X12.878 Y-6.151
N13140 X12.912 Y-6.367
N13145 X12.969 Y-6.605
N13150 X13.052 Y-6.855
N13155 X13.157 Y-7.107
N13160 X13.295 Y-7.372
N13165 X13.465 Y-7.644
N13170 X13.662 Y-7.91
N13175 X13.888 Y-8.168
N13180 X14.148 Y-8.422
N13185 X14.441 Y-8.663
N13190 X14.762 Y-8.889
N13195 X15.111 Y-9.093
N13200 X15.369 Y-9.218
N13205 X15.59 Y-9.292
N13210 X15.824 Y-9.31
N13215 X16.054 Y-9.268
N13220 X16.266 Y-9.171
N13225 X16.887 Y-8.787
N13230 X17.254 Y-8.562
N13235 X17.805 Y-8.317
N13240 X17.854 Y-8.297
N13245 G3 X17.9 Y-7.588 I-0.161 J0.366
N13250 G1 X13.665 Y-5.037
N13255 X13.56 Y-4.974
N13260 G3 X12.994 Y-5.14 I-0.206 J-0.343
N13265 G1 X12.912 Y-5.323
N13270 X12.482 Y-6.187
N13275 X12.415 Y-6.339
N13280 X12.367 Y-6.48
N13285 X12.332 Y-6.626
N13290 X12.308 Y-6.784
N13295 X12.296 Y-6.952
N13300 X12.298 Y-7.144
N13305 X12.316 Y-7.342
N13310 X12.355 Y-7.568
N13315 X12.414 Y-7.796
N13320 X12.5 Y-8.046
N13325 X12.616 Y-8.31
N13330 X12.757 Y-8.572
N13335 X12.937 Y-8.851
N13340 X13.155 Y-9.136
N13345 X13.4 Y-9.407
N13350 X13.648 Y-9.641
N13355 X13.896 Y-9.84
N13360 X14.039 Y-9.937
N13365 X14.25 Y-10.044
N13370 X14.481 Y-10.094
N13375 X14.718 Y-10.084
N13380 X14.945 Y-10.015
N13385 X15.147 Y-9.892
N13390 X15.235 Y-9.821
N13395 X15.419 Y-9.698
N13400 X15.663 Y-9.545
N13405 X16.266 Y-9.171
N13410 G3 X16.287 Y-8.521 I-0.222 J0.333
N13415 G1 X16.267 Y-8.505
N13420 X13.151 Y-6.118
N13425 X13.077 Y-6.06
N13430 G3 X12.482 Y-6.187 I-0.243 J-0.317
N13435 G1 X12.089 Y-6.975
N13440 X11.996 Y-7.159
N13445 X11.931 Y-7.273
N13450 X11.864 Y-7.407
N13455 X11.809 Y-7.547
N13460 X11.768 Y-7.691
N13465 X11.74 Y-7.838
N13470 X11.722 Y-8.008
N13475 X11.717 Y-8.185
N13480 X11.728 Y-8.39
N13485 X11.756 Y-8.601
N13490 X11.809 Y-8.84
N13495 X11.882 Y-9.081
N13500 X11.983 Y-9.337
N13505 X12.114 Y-9.604
N13510 X12.263 Y-9.856
N13515 X12.423 Y-10.082
N13520 X12.592 Y-10.283
N13525 X12.75 Y-10.445
N13530 X12.932 Y-10.601
N13535 X13.098 Y-10.723
N13540 X13.168 Y-10.767
N13545 X13.387 Y-10.865
N13550 X13.624 Y-10.905
N13555 X13.864 Y-10.883
N13560 X14.09 Y-10.8
N13565 X14.287 Y-10.662
N13570 X14.908 Y-10.095
N13575 X15.09 Y-9.939
N13580 X15.147 Y-9.892
N13585 G3 X15.136 Y-9.277 I-0.261 J0.303
N13590 G1 X15.071 Y-9.224
N13595 X12.605 Y-7.237
N13600 X12.523 Y-7.171
N13605 G3 X11.931 Y-7.273 I-0.251 J-0.311
N13610 G1 X11.892 Y-7.342
N13615 X11.769 Y-7.526
N13620 X11.635 Y-7.709
N13625 X11.358 Y-8.076
N13630 X11.274 Y-8.2
N13635 X11.203 Y-8.333
N13640 X11.146 Y-8.471
N13645 X11.102 Y-8.615
N13650 X11.069 Y-8.771
N13655 X11.046 Y-8.945
N13660 X11.036 Y-9.13
N13665 X11.042 Y-9.336
N13670 X11.066 Y-9.549
N13675 X11.109 Y-9.772
N13680 X11.173 Y-10.004
N13685 X11.259 Y-10.241
N13690 X11.367 Y-10.475
N13695 X11.49 Y-10.694
N13700 X11.621 Y-10.889
N13705 X11.772 Y-11.079
N13710 X11.913 Y-11.229
N13715 X12.073 Y-11.375
N13720 X12.234 Y-11.5
N13725 X12.294 Y-11.539
N13730 X12.518 Y-11.645
N13735 X12.762 Y-11.689
N13740 X13.009 Y-11.667
N13745 X13.242 Y-11.581
N13750 X13.444 Y-11.436
N13755 X13.583 Y-11.305
N13760 X13.767 Y-11.136
N13765 X14.287 Y-10.662
N13770 G3 X14.271 Y-10.075 I-0.28 J0.286
N13775 G1 X14.176 Y-9.992
N13780 X12.039 Y-8.121
N13785 X11.932 Y-8.027
N13790 G3 X11.358 Y-8.076 I-0.263 J-0.301
N13795 G1 X10.665 Y-8.994
N13800 X10.578 Y-9.116
N13805 X10.505 Y-9.247
N13810 X10.446 Y-9.385
N13815 X10.4 Y-9.528
N13820 X10.365 Y-9.677
N13825 X10.34 Y-9.848
N13830 X10.328 Y-10.028
N13835 X10.33 Y-10.219
N13840 X10.349 Y-10.427
N13845 X10.387 Y-10.639
N13850 X10.442 Y-10.854
N13855 X10.519 Y-11.074
N13860 X10.616 Y-11.295
N13865 X10.722 Y-11.491
N13870 X10.847 Y-11.684
N13875 X10.979 Y-11.855
N13880 X11.107 Y-11.997
N13885 X11.26 Y-12.141
N13890 X11.409 Y-12.26
N13895 X11.555 Y-12.359
N13900 X11.642 Y-12.408
N13905 X11.848 Y-12.494
N13910 X12.069 Y-12.528
N13915 X12.291 Y-12.509
N13920 X12.502 Y-12.438
N13925 X12.691 Y-12.318
N13930 X12.846 Y-12.158
N13935 X13.032 Y-11.91
N13940 X13.16 Y-11.747
N13945 X13.314 Y-11.564
N13950 X13.399 Y-11.478
N13955 X13.444 Y-11.436
N13960 G3 X13.421 Y-10.853 I-0.284 J0.281
N13965 G1 X13.323 Y-10.767
N13970 X11.347 Y-9.053
N13975 X11.231 Y-8.952
N13980 G3 X10.665 Y-8.994 I-0.262 J-0.302
N13985 G1 X10.279 Y-9.471
N13990 X10.204 Y-9.545
N13995 X10.095 Y-9.648
N14000 X10.047 Y-9.692
N14005 X9.941 Y-9.799
N14010 X9.851 Y-9.919
N14015 X9.776 Y-10.048
N14020 X9.715 Y-10.185
N14025 X9.666 Y-10.327
N14030 X9.629 Y-10.476
N14035 X9.6 Y-10.643
N14040 X9.585 Y-10.82
N14045 X9.584 Y-11.008
N14050 X9.599 Y-11.209
N14055 X9.631 Y-11.417
N14060 X9.681 Y-11.627
N14065 X9.751 Y-11.84
N14070 X9.84 Y-12.054
N14075 X9.948 Y-12.265
N14080 X10.067 Y-12.455
N14085 X10.204 Y-12.642
N14090 X10.343 Y-12.801
N14095 X10.485 Y-12.94
N14100 X10.644 Y-13.072
N14105 X10.794 Y-13.177
N14110 X10.961 Y-13.276
N14115 X11.031 Y-13.31
N14120 X11.275 Y-13.389
N14125 X11.531 Y-13.4
N14130 X11.78 Y-13.34
N14135 X12.003 Y-13.214
N14140 X12.184 Y-13.033
N14145 X12.846 Y-12.158
N14150 G3 X12.781 Y-11.626 I-0.327 J0.23
N14155 G1 X12.631 Y-11.495
N14160 X10.732 Y-9.838
N14165 X10.569 Y-9.695
N14170 G3 X10.047 Y-9.692 I-0.263 J-0.301
N14175 G1 X9.273 Y-10.397
N14180 X9.168 Y-10.504
N14185 X9.078 Y-10.624
N14190 X9.002 Y-10.753
N14195 X8.939 Y-10.889
N14200 X8.888 Y-11.03
N14205 X8.847 Y-11.183
N14210 X8.815 Y-11.356
N14215 X8.797 Y-11.535
N14220 X8.792 Y-11.729
N14225 X8.804 Y-11.937
N14230 X8.834 Y-12.152
N14235 X8.882 Y-12.369
N14240 X8.95 Y-12.59
N14245 X9.039 Y-12.813
N14250 X9.148 Y-13.033
N14255 X9.277 Y-13.249
N14260 X9.415 Y-13.442
N14265 X9.563 Y-13.618
N14270 X9.726 Y-13.783
N14275 X9.877 Y-13.912
N14280 X10.046 Y-14.036
N14285 X10.219 Y-14.141
N14290 X10.378 Y-14.222
N14295 X10.464 Y-14.257
N14300 X10.685 Y-14.317
N14305 X10.914 Y-14.321
N14310 X11.138 Y-14.27
N14315 X11.342 Y-14.166
N14320 X11.514 Y-14.015
N14325 X11.644 Y-13.826
N14330 X11.747 Y-13.63
N14335 X11.779 Y-13.583
N14340 X11.908 Y-13.399
N14345 X12.184 Y-13.033
N14350 G3 X12.125 Y-12.507 I-0.327 J0.23
N14355 G1 X11.972 Y-12.368
N14360 X9.956 Y-10.546
N14365 X9.801 Y-10.405
N14370 G3 X9.273 Y-10.397 I-0.268 J-0.297
N14375 G1 X8.597 Y-11.013
N14380 X8.551 Y-11.05
N14385 X8.437 Y-11.148
N14390 X8.338 Y-11.261
N14395 X8.253 Y-11.384
N14400 X8.181 Y-11.516
N14405 X8.121 Y-11.653
N14410 X8.069 Y-11.803
N14415 X8.029 Y-11.963
N14420 X7.999 Y-12.143
N14425 X7.982 Y-12.336
N14430 X7.981 Y-12.538
N14435 X7.998 Y-12.756
N14440 X8.033 Y-12.984
N14445 X8.088 Y-13.214
N14450 X8.165 Y-13.448
N14455 X8.262 Y-13.681
N14460 X8.381 Y-13.912
N14465 X8.522 Y-14.138
N14470 X8.68 Y-14.352
N14475 X8.844 Y-14.54
N14480 X9.024 Y-14.715
N14485 X9.198 Y-14.86
N14490 X9.372 Y-14.982
N14495 X9.56 Y-15.092
N14500 X9.731 Y-15.175
N14505 X9.919 Y-15.249
N14510 X10.101 Y-15.303
N14515 X10.114 Y-15.306
N14520 X10.359 Y-15.326
N14525 X10.6 Y-15.28
N14530 X10.822 Y-15.174
N14535 X11.008 Y-15.013
N14540 X11.145 Y-14.81
N14545 X11.39 Y-14.317
N14550 X11.483 Y-14.134
N14555 X11.644 Y-13.826
N14560 G3 X11.554 Y-13.358 I-0.361 J0.173
N14565 G1 X11.351 Y-13.173
N14570 X9.231 Y-11.237
N14575 X9.056 Y-11.077
N14580 G3 X8.551 Y-11.05 I-0.27 J-0.295
N14585 G1 X8.362 Y-11.197
N14590 X8.26 Y-11.27
N14595 X7.834 Y-11.534
N14600 X7.711 Y-11.62
N14605 X7.599 Y-11.72
N14610 X7.5 Y-11.832
N14615 X7.414 Y-11.955
N14620 X7.339 Y-12.085
N14625 X7.274 Y-12.222
N14630 X7.215 Y-12.381
N14635 X7.167 Y-12.549
N14640 X7.13 Y-12.737
N14645 X7.106 Y-12.944
N14650 X7.098 Y-13.157
N14655 X7.108 Y-13.389
N14660 X7.139 Y-13.636
N14665 X7.191 Y-13.887
N14670 X7.266 Y-14.14
N14675 X7.365 Y-14.399
N14680 X7.488 Y-14.656
N14685 X7.633 Y-14.905
N14690 X7.8 Y-15.146
N14695 X7.985 Y-15.372
N14700 X8.188 Y-15.583
N14705 X8.407 Y-15.775
N14710 X8.606 Y-15.924
N14715 X8.825 Y-16.063
N14720 X9.024 Y-16.167
N14725 X9.221 Y-16.25
N14730 X9.43 Y-16.32
N14735 X9.616 Y-16.366
N14740 X9.645 Y-16.37
N14745 X9.889 Y-16.378
N14750 X10.127 Y-16.321
N14755 X10.342 Y-16.205
N14760 X10.519 Y-16.037
N14765 X10.647 Y-15.829
N14770 X10.75 Y-15.602
N14775 X11.145 Y-14.81
N14780 G3 X11.065 Y-14.362 I-0.364 J0.166
N14785 G1 X10.852 Y-14.148
N14790 X8.502 Y-11.785
N14795 X8.317 Y-11.599
N14800 G3 X7.834 Y-11.534 I-0.284 J-0.282
N14805 G1 X6.975 Y-12.066
N14810 X6.852 Y-12.152
N14815 X6.737 Y-12.249
N14820 X6.635 Y-12.358
N14825 X6.544 Y-12.478
N14830 X6.464 Y-12.604
N14835 X6.388 Y-12.75
N14840 X6.322 Y-12.906
N14845 X6.264 Y-13.084
N14850 X6.216 Y-13.281
N14855 X6.183 Y-13.489
N14860 X6.165 Y-13.72
N14865 Y-13.878
N14870 X6.203 Y-14.137
N14875 X6.311 Y-14.376
N14880 X6.482 Y-14.576
N14885 G3 X7.125 Y-14.358 I0.254 J0.309
N14890 G1 X7.563 Y-12.506
N14895 G3 X6.975 Y-12.066 I-0.389 J0.092
N14900 G1 X6.601 Y-12.298
N14905 X6.424 Y-12.406
N14910 X6.282 Y-12.482
N14915 X6.14 Y-12.547
N14920 X6.007 Y-12.616
N14925 X5.885 Y-12.704
N14930 X5.728 Y-12.888
N14935 X5.624 Y-13.106
N14940 X5.58 Y-13.343
N14945 X5.597 Y-13.584
N14950 X5.676 Y-13.812
N14955 X5.811 Y-14.012
N14960 X5.993 Y-14.171
N14965 G3 X6.601 Y-13.871 I0.211 J0.34
N14970 G1 X6.692 Y-12.956
N14975 G3 X6.14 Y-12.547 I-0.398 J0.039
N14980 G1 X6.057 Y-12.585
N14985 X5.871 Y-12.665
N14990 X5.544 Y-12.792
N14995 X5.407 Y-12.853
N15000 X5.269 Y-12.998
N15005 X5.186 Y-13.179
N15010 X5.167 Y-13.378
N15015 X5.212 Y-13.572
N15020 X5.318 Y-13.741
N15025 X5.473 Y-13.867
N15030 G3 X5.958 Y-13.889 I0.267 J0.512
N15035 X5.544 Y-12.792 I-0.221 J0.543
N15040 G1 X5.323 Y-12.878
N15045 X5.14 Y-12.951
N15050 X5.085 Y-12.984
N15055 X5.057 Y-13.006
N15060 X5.03 Y-13.032
N15065 X5.006 Y-13.06
N15070 X4.986 Y-13.087
N15075 X4.956 Y-13.142
N15080 X4.93 Y-13.216
N15085 X4.921 Y-13.262
N15090 X4.917 Y-13.308
N15095 X4.918 Y-13.354
N15100 X4.925 Y-13.399
N15105 X4.937 Y-13.445
N15110 X4.956 Y-13.491
N15115 X4.982 Y-13.537
N15120 X5.017 Y-13.583
N15125 X5.047 Y-13.614
N15130 X5.078 Y-13.639
N15135 X5.14 Y-13.678
N15140 X5.874 Y-14.094
N15145 X5.937 Y-14.134
N15150 X6.057 Y-14.214
N15155 X6.187 Y-14.317
N15160 X6.241 Y-14.364
N15165 X7.159 Y-15.172
N15170 X7.526 Y-15.497
N15175 X7.633 Y-15.602
N15180 X7.783 Y-15.786
N15185 X7.893 Y-15.954
N15190 X7.902 Y-15.969
N15195 X7.995 Y-16.153
N15200 X8.008 Y-16.183
N15205 X8.071 Y-16.319
N15210 X8.149 Y-16.447
N15215 X8.242 Y-16.577
N15220 X8.345 Y-16.696
N15225 X8.452 Y-16.802
N15230 X8.58 Y-16.911
N15235 X8.71 Y-17.004
N15240 X8.839 Y-17.081
N15245 X8.985 Y-17.153
N15250 X9.133 Y-17.212
N15255 X9.277 Y-17.256
N15260 X9.295 Y-17.26
N15265 X9.528 Y-17.281
N15270 X9.758 Y-17.244
N15275 X9.972 Y-17.15
N15280 X10.156 Y-17.007
N15285 X10.299 Y-16.822
N15290 X10.391 Y-16.607
N15295 G3 X10.113 Y-16.125 I-0.388 J0.097
N15300 G1 X9.95 Y-16.079
N15305 X8.493 Y-15.662
N15310 G3 X8.008 Y-16.183 I-0.11 J-0.385
N15315 G1 X8.07 Y-16.336
N15320 X8.122 Y-16.52
N15325 X8.152 Y-16.703
N15330 X8.179 Y-16.943
N15335 X8.203 Y-17.091
N15340 X8.248 Y-17.234
N15345 X8.312 Y-17.369
N15350 X8.392 Y-17.496
N15355 X8.404 Y-17.51
N15360 X8.593 Y-17.687
N15365 X8.823 Y-17.804
N15370 X9.076 Y-17.855
N15375 X9.334 Y-17.833
N15380 G3 X9.485 Y-17.136 I-0.102 J0.387
N15385 G1 X8.831 Y-16.602
N15390 G3 X8.179 Y-16.943 I-0.253 J-0.31
N15395 G1 X8.193 Y-17.071
N15400 X8.211 Y-17.254
N15405 X8.221 Y-17.346
N15410 X8.232 Y-17.392
N15415 X8.249 Y-17.438
N15420 X8.297 Y-17.542
N15425 X8.318 Y-17.582
N15430 X8.346 Y-17.621
N15435 X8.443 Y-17.725
N15440 X8.495 Y-17.771
N15445 X8.547 Y-17.805
N15450 X8.627 Y-17.845
N15455 X8.719 Y-17.883
N15460 X8.765 Y-17.895
N15465 X8.811 Y-17.901
N15470 X8.902 Y-17.911
N15475 X8.948 Y-17.912
N15480 X8.994 Y-17.909
N15485 X9.361 Y-17.827
N15490 X9.82 Y-17.728
N15495 X9.866 Y-17.717
N15500 X9.912 Y-17.701
N15505 X9.972 Y-17.669
N15510 X10.033 Y-17.621
N15515 X10.068 Y-17.587
N15520 X10.095 Y-17.554
N15525 X10.131 Y-17.496
N15530 X10.155 Y-17.438
N15535 X10.364 Y-16.703
N15540 X10.417 Y-16.52
N15545 X10.526 Y-16.153
N15550 X10.584 Y-15.969
N15555 X10.647 Y-15.829
N15560 G3 X10.611 Y-15.46 I-0.371 J0.15
N15565 G1 X10.567 Y-15.418 Z-5.995
N15570 X10.525 Y-15.377 Z-5.981
N15575 X10.484 Y-15.337 Z-5.958
N15580 X10.433 Y-15.32 Z-5.926
N15585 X10.387 Y-15.305 Z-5.885
N15590 X10.348 Y-15.292 Z-5.837
N15595 X10.317 Y-15.281 Z-5.783
N15600 X10.291 Y-15.28 Z-5.719
N15605 X10.276 Y-15.279 Z-5.651
N15610 X10.273 Z-5.6
N15615 G0 Z6.
N15620 G1 X-8.629 Y17.787 F500.
N15625 G0 Z-2.6
N15630 G1 Z-3. F300.
N15635 Z-5.
N15640 G3 X-9.728 Y17.748 I-0.37 J-5.093
N15645 G1 X-9.912 Y17.715
N15650 X-9.955 Y17.701
N15655 X-9.999 Y17.682
N15660 X-10.043 Y17.656
N15665 X-10.086 Y17.621
N15670 X-10.095 Y17.612
N15675 X-10.136 Y17.569
N15680 X-10.167 Y17.525
N15685 X-10.191 Y17.481
N15690 X-10.209 Y17.438
N15695 X-10.463 Y16.548
N15700 X-10.582 Y16.153
N15705 X-10.64 Y15.969
N15710 X-10.719 Y15.786
N15715 X-10.83 Y15.56
N15720 X-11.448 Y14.317
N15725 X-11.542 Y14.134
N15730 X-11.747 Y13.746
N15735 X-11.841 Y13.583
N15740 X-11.931 Y13.455
N15745 X-13.082 Y11.931
N15750 X-13.216 Y11.762
N15755 X-13.384 Y11.564
N15760 X-13.583 Y11.377
N15765 X-13.778 Y11.197
N15770 X-14.986 Y10.095
N15775 X-15.051 Y10.037
N15780 X-15.235 Y9.885
N15785 X-15.465 Y9.728
N15790 X-17.071 Y8.735
N15795 X-17.254 Y8.622
N15800 X-17.648 Y8.443
N15805 X-17.805 Y8.373
N15810 X-17.988 Y8.3
N15815 X-19.513 Y7.709
N15820 X-19.64 Y7.662
N15825 X-20.191 Y7.524
N15830 X-20.558 Y7.454
N15835 X-22.027 Y7.18
N15840 X-22.21 Y7.151
N15845 X-22.394 Y7.131
N15850 X-22.577 Y7.121
N15855 X-22.761
N15860 X-22.807 Y7.115
N15865 X-22.853 Y7.105
N15870 X-22.898 Y7.088
N15875 X-22.944 Y7.064
N15880 X-22.996 Y7.027
N15885 X-23.024 Y7.001
N15890 X-23.048 Y6.975
N15895 X-23.097 Y6.908
N15900 X-23.114 Y6.874
N15905 X-23.128 Y6.84
N15910 X-23.142 Y6.792
N15915 X-23.149 Y6.746
N15920 X-23.151 Y6.7
N15925 X-23.147 Y6.654
N15930 X-23.138 Y6.608
N15935 X-23.128 Y6.574
N15940 X-23.113 Y6.536
N15945 X-23.092 Y6.499
N15950 X-22.944 Y6.257
N15955 G3 X-22.279 Y6.254 I0.334 J0.221
N15960 G1 X-22.235 Y6.318 Z-4.992
N15965 X-22.193 Y6.38 Z-4.97
N15970 X-22.155 Y6.438 Z-4.933
N15975 X-22.121 Y6.488 Z-4.883
N15980 X-22.093 Y6.529 Z-4.822
N15985 X-22.072 Y6.56 Z-4.753
N15990 X-22.06 Y6.579 Z-4.678
N15995 X-22.055 Y6.585 Z-4.6
N16000 G0 Z6.
N16005 G1 X-20.95 Y-4.578 F500.
N16010 G0 Z-4.2
N16015 G1 Z-4.6 F300.
N16020 X-20.957 Y-4.581 Z-4.678
N16025 X-20.977 Y-4.592 Z-4.753
N16030 X-21.01 Y-4.609 Z-4.822
N16035 X-21.054 Y-4.632 Z-4.883
N16040 X-21.107 Y-4.66 Z-4.933
N16045 X-21.168 Y-4.693 Z-4.97
N16050 X-21.235 Y-4.728 Z-4.992
N16055 X-21.304 Y-4.764 Z-5.
N16060 G3 X-22.934 Y-6.241 I2.067 J-3.921
N16065 G1 X-23.092 Y-6.499
N16070 X-23.113 Y-6.536
N16075 X-23.128 Y-6.574
N16080 X-23.138 Y-6.608
N16085 X-23.147 Y-6.654
N16090 X-23.151 Y-6.7
N16095 X-23.149 Y-6.746
N16100 X-23.142 Y-6.792
N16105 X-23.128 Y-6.84
N16110 X-23.114 Y-6.874
N16115 X-23.097 Y-6.908
N16120 X-23.048 Y-6.975
N16125 X-23.024 Y-7.001
N16130 X-22.996 Y-7.027
N16135 X-22.944 Y-7.064
N16140 X-22.898 Y-7.088
N16145 X-22.853 Y-7.105
N16150 X-22.807 Y-7.115
N16155 X-22.761 Y-7.121
N16160 X-22.577
N16165 X-22.394 Y-7.131
N16170 X-22.21 Y-7.151
N16175 X-22.027 Y-7.18
N16180 X-20.375 Y-7.488
N16185 X-20.183 Y-7.526
N16190 X-19.64 Y-7.662
N16195 X-19.513 Y-7.709
N16200 X-17.988 Y-8.3
N16205 X-17.805 Y-8.373
N16210 X-17.438 Y-8.538
N16215 X-17.254 Y-8.622
N16220 X-16.336 Y-9.189
N16225 X-15.465 Y-9.728
N16230 X-15.235 Y-9.885
N16235 X-15.051 Y-10.037
N16240 X-14.986 Y-10.095
N16245 X-13.767 Y-11.207
N16250 X-13.579 Y-11.38
N16255 X-13.384 Y-11.564
N16260 X-13.216 Y-11.762
N16265 X-13.082 Y-11.931
N16270 X-11.931 Y-13.455
N16275 X-11.841 Y-13.583
N16280 X-11.747 Y-13.746
N16285 X-11.542 Y-14.134
N16290 X-11.448 Y-14.317
N16295 X-10.809 Y-15.602
N16300 X-10.719 Y-15.786
N16305 X-10.64 Y-15.969
N16310 X-10.582 Y-16.153
N16315 X-10.463 Y-16.548
N16320 X-10.209 Y-17.438
N16325 X-10.191 Y-17.481
N16330 X-10.167 Y-17.525
N16335 X-10.136 Y-17.569
N16340 X-10.095 Y-17.612
N16345 X-10.086 Y-17.621
N16350 X-10.043 Y-17.656
N16355 X-9.999 Y-17.682
N16360 X-9.955 Y-17.701
N16365 X-9.912 Y-17.715
N16370 X-9.811 Y-17.733
N16375 G3 X-9.411 Y-17.567 I0.071 J0.394
N16380 G1 X-9.224 Y-17.297
N16385 X-6.945 Y-14.006
N16390 G3 X-7.282 Y-14.179 I-0.329 J0.228
N16395 X-5.14 Y-13.678 I0.093 J4.432
N16400 G1 X-5.066 Y-13.636
N16405 X-5.029 Y-13.613
N16410 X-4.992 Y-13.583
N16415 X-4.956 Y-13.545
N16420 X-4.928 Y-13.509
N16425 X-4.907 Y-13.472
N16430 X-4.89 Y-13.436
N16435 X-4.877 Y-13.399
N16440 X-4.867 Y-13.354
N16445 X-4.862 Y-13.308
N16450 Y-13.262
N16455 X-4.867 Y-13.216
N16460 X-4.879 Y-13.17
N16465 X-4.894 Y-13.124
N16470 X-4.916 Y-13.078
N16475 X-4.946 Y-13.032
N16480 X-4.956 Y-13.019
N16485 X-5.002 Y-12.972
N16490 X-5.048 Y-12.937
N16495 X-5.094 Y-12.912
N16500 X-5.14 Y-12.893
N16505 X-5.874 Y-12.608
N16510 X-6.057 Y-12.531
N16515 X-6.241 Y-12.45
N16520 X-6.502 Y-12.298
N16525 X-8.076 Y-11.323
N16530 X-8.276 Y-11.197
N16535 X-8.443 Y-11.067
N16540 X-8.511 Y-11.013
N16545 X-8.627 Y-10.916
N16550 X-10.095 Y-9.577
N16555 X-10.13 Y-9.545
N16560 X-10.279 Y-9.381
N16565 X-10.646 Y-8.931
N16570 X-10.83 Y-8.689
N16575 X-11.57 Y-7.709
N16580 X-11.831 Y-7.342
N16585 X-11.938 Y-7.159
N16590 X-12.031 Y-6.975
N16595 X-12.854 Y-5.323
N16600 X-13.032 Y-4.9
N16605 X-13.072 Y-4.772
N16610 X-13.594 Y-2.937
N16615 X-13.643 Y-2.753
N16620 X-13.716 Y-2.386
N16625 X-13.785 Y-1.652
N16630 X-13.887 Y-0.551
N16635 X-13.926 Y0.
N16640 X-13.887 Y0.551
N16645 X-13.767 Y1.852
N16650 X-13.716 Y2.386
N16655 X-13.643 Y2.753
N16660 X-13.594 Y2.937
N16665 X-13.072 Y4.772
N16670 X-13.032 Y4.9
N16675 X-12.854 Y5.323
N16680 X-12.031 Y6.975
N16685 X-11.931 Y7.171
N16690 X-11.831 Y7.342
N16695 X-11.564 Y7.717
N16700 X-10.738 Y8.811
N16705 X-10.646 Y8.931
N16710 X-10.279 Y9.381
N16715 X-10.13 Y9.545
N16720 X-10.095 Y9.577
N16725 X-8.627 Y10.916
N16730 X-8.511 Y11.013
N16735 X-8.443 Y11.067
N16740 X-8.276 Y11.197
N16745 X-8.076 Y11.323
N16750 X-6.502 Y12.298
N16755 X-6.241 Y12.45
N16760 X-6.057 Y12.531
N16765 X-5.874 Y12.608
N16770 X-5.14 Y12.893
N16775 X-5.094 Y12.912
N16780 X-5.048 Y12.937
N16785 X-5.002 Y12.972
N16790 X-4.956 Y13.019
N16795 X-4.946 Y13.032
N16800 X-4.916 Y13.078
N16805 X-4.894 Y13.124
N16810 X-4.879 Y13.17
N16815 X-4.867 Y13.216
N16820 X-4.862 Y13.262
N16825 Y13.308
N16830 X-4.867 Y13.354
N16835 X-4.877 Y13.399
N16840 X-4.89 Y13.436
N16845 X-4.907 Y13.472
N16850 X-4.928 Y13.509
N16855 X-4.956 Y13.545
N16860 X-4.992 Y13.583
N16865 X-5.029 Y13.613
N16870 X-5.066 Y13.636
N16875 X-5.106 Y13.659
N16880 G3 X-5.477 Y13.658 I-0.185 J-0.355
N16885 G1 X-5.523 Y13.619 Z-4.995
N16890 X-5.568 Y13.581 Z-4.981
N16895 X-5.611 Y13.544 Z-4.958
N16900 X-5.633 Y13.495 Z-4.926
N16905 X-5.653 Y13.451 Z-4.885
N16910 X-5.67 Y13.413 Z-4.837
N16915 X-5.683 Y13.383 Z-4.783
N16920 X-5.687 Y13.359 Z-4.725
N16925 X-5.689 Y13.344 Z-4.663
N16930 X-5.69 Y13.339 Z-4.6
N16935 G0 Z6.
N16940 G1 X8.629 Y-17.787 F500.
N16945 G0 Z-2.6
N16950 G1 Z-3. F300.
N16955 Z-5.
N16960 G3 X9.728 Y-17.748 I0.37 J5.093
N16965 G1 X9.912 Y-17.715
N16970 X9.955 Y-17.701
N16975 X9.999 Y-17.682
N16980 X10.043 Y-17.656
N16985 X10.086 Y-17.621
N16990 X10.095 Y-17.612
N16995 X10.136 Y-17.569
N17000 X10.167 Y-17.525
N17005 X10.191 Y-17.481
N17010 X10.209 Y-17.438
N17015 X10.463 Y-16.548
N17020 X10.582 Y-16.153
N17025 X10.64 Y-15.969
N17030 X10.719 Y-15.786
N17035 X10.83 Y-15.56
N17040 X11.448 Y-14.317
N17045 X11.542 Y-14.134
N17050 X11.747 Y-13.746
N17055 X11.841 Y-13.583
N17060 X11.931 Y-13.455
N17065 X13.082 Y-11.931
N17070 X13.216 Y-11.762
N17075 X13.384 Y-11.564
N17080 X13.583 Y-11.377
N17085 X13.778 Y-11.197
N17090 X14.986 Y-10.095
N17095 X15.051 Y-10.037
N17100 X15.235 Y-9.885
N17105 X15.465 Y-9.728
N17110 X17.071 Y-8.735
N17115 X17.254 Y-8.622
N17120 X17.648 Y-8.443
N17125 X17.805 Y-8.373
N17130 X17.988 Y-8.3
N17135 X19.513 Y-7.709
N17140 X19.64 Y-7.662
N17145 X20.191 Y-7.524
N17150 X20.558 Y-7.454
N17155 X22.027 Y-7.18
N17160 X22.21 Y-7.151
N17165 X22.394 Y-7.131
N17170 X22.577 Y-7.121
N17175 X22.761
N17180 X22.807 Y-7.115
N17185 X22.853 Y-7.105
N17190 X22.898 Y-7.088
N17195 X22.944 Y-7.064
N17200 X22.996 Y-7.027
N17205 X23.024 Y-7.001
N17210 X23.048 Y-6.975
N17215 X23.097 Y-6.908
N17220 X23.114 Y-6.874
N17225 X23.128 Y-6.84
N17230 X23.142 Y-6.792
N17235 X23.149 Y-6.746
N17240 X23.151 Y-6.7
N17245 X23.147 Y-6.654
N17250 X23.138 Y-6.608
N17255 X23.128 Y-6.574
N17260 X23.113 Y-6.536
N17265 X23.092 Y-6.499
N17270 X22.944 Y-6.257
N17275 G3 X22.279 Y-6.254 I-0.334 J-0.221
N17280 G1 X22.235 Y-6.318 Z-4.992
N17285 X22.193 Y-6.38 Z-4.97
N17290 X22.155 Y-6.438 Z-4.933
N17295 X22.121 Y-6.488 Z-4.883
N17300 X22.093 Y-6.529 Z-4.822
N17305 X22.072 Y-6.56 Z-4.753
N17310 X22.06 Y-6.579 Z-4.678
N17315 X22.055 Y-6.585 Z-4.6
N17320 G0 Z6.
N17325 G1 X20.95 Y4.578 F500.
N17330 G0 Z-4.2
N17335 G1 Z-4.6 F300.
N17340 X20.957 Y4.581 Z-4.678
N17345 X20.977 Y4.592 Z-4.753
N17350 X21.01 Y4.609 Z-4.822
N17355 X21.054 Y4.632 Z-4.883
N17360 X21.107 Y4.66 Z-4.933
N17365 X21.168 Y4.693 Z-4.97
N17370 X21.235 Y4.728 Z-4.992
N17375 X21.304 Y4.764 Z-5.
N17380 G3 X22.934 Y6.241 I-2.067 J3.921
N17385 G1 X23.092 Y6.499
N17390 X23.113 Y6.536
N17395 X23.128 Y6.574
N17400 X23.138 Y6.608
N17405 X23.147 Y6.654
N17410 X23.151 Y6.7
N17415 X23.149 Y6.746
N17420 X23.142 Y6.792
N17425 X23.128 Y6.84
N17430 X23.114 Y6.874
N17435 X23.097 Y6.908
N17440 X23.048 Y6.975
N17445 X23.024 Y7.001
N17450 X22.996 Y7.027
N17455 X22.944 Y7.064
N17460 X22.898 Y7.088
N17465 X22.853 Y7.105
N17470 X22.807 Y7.115
N17475 X22.761 Y7.121
N17480 X22.577
N17485 X22.394 Y7.131
N17490 X22.21 Y7.151
N17495 X22.027 Y7.18
N17500 X20.375 Y7.488
N17505 X20.183 Y7.526
N17510 X19.64 Y7.662
N17515 X19.513 Y7.709
N17520 X17.988 Y8.3
N17525 X17.805 Y8.373
N17530 X17.438 Y8.538
N17535 X17.254 Y8.622
N17540 X16.336 Y9.189
N17545 X15.465 Y9.728
N17550 X15.235 Y9.885
N17555 X15.051 Y10.037
N17560 X14.986 Y10.095
N17565 X13.767 Y11.207
N17570 X13.579 Y11.38
N17575 X13.384 Y11.564
N17580 X13.216 Y11.762
N17585 X13.082 Y11.931
N17590 X11.931 Y13.455
N17595 X11.841 Y13.583
N17600 X11.747 Y13.746
N17605 X11.542 Y14.134
N17610 X11.448 Y14.317
N17615 X10.809 Y15.602
N17620 X10.719 Y15.786
N17625 X10.64 Y15.969
N17630 X10.582 Y16.153
N17635 X10.463 Y16.548
N17640 X10.209 Y17.438
N17645 X10.191 Y17.481
N17650 X10.167 Y17.525
N17655 X10.136 Y17.569
N17660 X10.095 Y17.612
N17665 X10.086 Y17.621
N17670 X10.043 Y17.656
N17675 X9.999 Y17.682
N17680 X9.955 Y17.701
N17685 X9.912 Y17.715
N17690 X9.811 Y17.733
N17695 G3 X9.411 Y17.567 I-0.071 J-0.394
N17700 G1 X9.224 Y17.297
N17705 X6.945 Y14.006
N17710 G3 X7.282 Y14.179 I0.329 J-0.228
N17715 X5.14 Y13.678 I-0.093 J-4.432
N17720 G1 X5.066 Y13.636
N17725 X5.029 Y13.613
N17730 X4.992 Y13.583
N17735 X4.956 Y13.545
N17740 X4.928 Y13.509
N17745 X4.907 Y13.472
N17750 X4.89 Y13.436
N17755 X4.877 Y13.399
N17760 X4.867 Y13.354
N17765 X4.862 Y13.308
N17770 Y13.262
N17775 X4.867 Y13.216
N17780 X4.879 Y13.17
N17785 X4.894 Y13.124
N17790 X4.916 Y13.078
N17795 X4.946 Y13.032
N17800 X4.956 Y13.019
N17805 X5.002 Y12.972
N17810 X5.048 Y12.937
N17815 X5.094 Y12.912
N17820 X5.14 Y12.893
N17825 X5.874 Y12.608
N17830 X6.057 Y12.531
N17835 X6.241 Y12.45
N17840 X6.502 Y12.298
N17845 X8.076 Y11.323
N17850 X8.276 Y11.197
N17855 X8.443 Y11.067
N17860 X8.511 Y11.013
N17865 X8.627 Y10.916
N17870 X10.095 Y9.577
N17875 X10.13 Y9.545
N17880 X10.279 Y9.381
N17885 X10.646 Y8.931
N17890 X10.83 Y8.689
N17895 X11.57 Y7.709
N17900 X11.831 Y7.342
N17905 X11.938 Y7.159
N17910 X12.031 Y6.975
N17915 X12.854 Y5.323
N17920 X13.032 Y4.9
N17925 X13.072 Y4.772
N17930 X13.594 Y2.937
N17935 X13.643 Y2.753
N17940 X13.716 Y2.386
N17945 X13.785 Y1.652
N17950 X13.887 Y0.551
N17955 X13.926 Y0.
N17960 X13.887 Y-0.551
N17965 X13.767 Y-1.852
N17970 X13.716 Y-2.386
N17975 X13.643 Y-2.753
N17980 X13.594 Y-2.937
N17985 X13.072 Y-4.772
N17990 X13.032 Y-4.9
N17995 X12.854 Y-5.323
N18000 X12.031 Y-6.975
N18005 X11.931 Y-7.171
N18010 X11.831 Y-7.342
N18015 X11.564 Y-7.717
N18020 X10.738 Y-8.811
N18025 X10.646 Y-8.931
N18030 X10.279 Y-9.381
N18035 X10.13 Y-9.545
N18040 X10.095 Y-9.577
N18045 X8.627 Y-10.916
N18050 X8.511 Y-11.013
N18055 X8.443 Y-11.067
N18060 X8.276 Y-11.197
N18065 X8.076 Y-11.323
N18070 X6.502 Y-12.298
N18075 X6.241 Y-12.45
N18080 X6.057 Y-12.531
N18085 X5.874 Y-12.608
N18090 X5.14 Y-12.893
N18095 X5.094 Y-12.912
N18100 X5.048 Y-12.937
N18105 X5.002 Y-12.972
N18110 X4.956 Y-13.019
N18115 X4.946 Y-13.032
N18120 X4.916 Y-13.078
N18125 X4.894 Y-13.124
N18130 X4.879 Y-13.17
N18135 X4.867 Y-13.216
N18140 X4.862 Y-13.262
N18145 Y-13.308
N18150 X4.867 Y-13.354
N18155 X4.877 Y-13.399
N18160 X4.89 Y-13.436
N18165 X4.907 Y-13.472
N18170 X4.928 Y-13.509
N18175 X4.956 Y-13.545
N18180 X4.992 Y-13.583
N18185 X5.029 Y-13.613
N18190 X5.066 Y-13.636
N18195 X5.106 Y-13.659
N18200 G3 X5.477 Y-13.658 I0.185 J0.355
N18205 G1 X5.523 Y-13.619 Z-4.995
N18210 X5.568 Y-13.581 Z-4.981
N18215 X5.611 Y-13.544 Z-4.958
N18220 X5.633 Y-13.495 Z-4.926
N18225 X5.653 Y-13.451 Z-4.885
N18230 X5.67 Y-13.413 Z-4.837
N18235 X5.683 Y-13.383 Z-4.783
N18240 X5.687 Y-13.359 Z-4.725
N18245 X5.689 Y-13.344 Z-4.663
N18250 X5.69 Y-13.339 Z-4.6
N18255 G0 Z6.
N18260 G1 X-8.628 Y17.758 F500.
N18265 G0 Z-1.6
N18270 G1 Z-2. F300.
N18275 Z-4.
N18280 G3 X-9.728 Y17.748 I-0.505 J-5.081
N18285 G1 X-9.912 Y17.72
N18290 X-9.958 Y17.712
N18295 X-10.004 Y17.698
N18300 X-10.05 Y17.678
N18305 X-10.095 Y17.65
N18310 X-10.133 Y17.621
N18315 X-10.182 Y17.575
N18320 X-10.217 Y17.529
N18325 X-10.244 Y17.484
N18330 X-10.263 Y17.438
N18335 X-10.368 Y17.071
N18340 X-10.472 Y16.703
N18345 X-10.525 Y16.52
N18350 X-10.646 Y16.123
N18355 X-10.695 Y15.969
N18360 X-10.778 Y15.786
N18365 X-10.958 Y15.419
N18370 X-11.564 Y14.203
N18375 X-11.798 Y13.767
N18380 X-11.902 Y13.583
N18385 X-12.04 Y13.399
N18390 X-12.593 Y12.665
N18395 X-13.216 Y11.84
N18400 X-13.399 Y11.626
N18405 X-13.459 Y11.564
N18410 X-13.655 Y11.38
N18415 X-14.134 Y10.943
N18420 X-15.063 Y10.095
N18425 X-15.235 Y9.962
N18430 X-15.419 Y9.825
N18435 X-15.565 Y9.728
N18440 X-17.254 Y8.683
N18445 X-17.438 Y8.597
N18450 X-17.805 Y8.429
N18455 X-17.988 Y8.356
N18460 X-19.659 Y7.709
N18465 X-19.824 Y7.666
N18470 X-20.191 Y7.577
N18475 X-20.558 Y7.507
N18480 X-22.027 Y7.233
N18485 X-22.21 Y7.203
N18490 X-22.394 Y7.184
N18495 X-22.577 Y7.173
N18500 X-22.761
N18505 X-22.82 Y7.17
N18510 X-22.88 Y7.159
N18515 X-22.944 Y7.134
N18520 X-22.989 Y7.11
N18525 X-23.033 Y7.076
N18530 X-23.083 Y7.026
N18535 X-23.123 Y6.975
N18540 X-23.128 Y6.967
N18545 X-23.151 Y6.923
N18550 X-23.168 Y6.879
N18555 X-23.18 Y6.835
N18560 X-23.186 Y6.792
N18565 X-23.187 Y6.746
N18570 X-23.183 Y6.7
N18575 X-23.174 Y6.654
N18580 X-23.159 Y6.608
N18585 X-23.128 Y6.547
N18590 X-23.083 Y6.48
N18595 G0 Z6.
N18600 G1 X-21.005 Y-4.832 F500.
N18605 G0 Z-3.2
N18610 G1 Z-3.6 F300.
N18615 X-21.012 Y-4.836 Z-3.678
N18620 X-21.032 Y-4.846 Z-3.753
N18625 X-21.065 Y-4.862 Z-3.822
N18630 X-21.11 Y-4.883 Z-3.883
N18635 X-21.165 Y-4.91 Z-3.933
N18640 X-21.227 Y-4.94 Z-3.97
N18645 X-21.295 Y-4.972 Z-3.992
N18650 X-21.365 Y-5.006 Z-4.
N18655 G3 X-23.047 Y-6.424 I1.927 J-3.992
N18660 G1 X-23.128 Y-6.547
N18665 X-23.159 Y-6.608
N18670 X-23.174 Y-6.654
N18675 X-23.183 Y-6.7
N18680 X-23.187 Y-6.746
N18685 X-23.186 Y-6.792
N18690 X-23.18 Y-6.835
N18695 X-23.168 Y-6.879
N18700 X-23.151 Y-6.923
N18705 X-23.128 Y-6.967
N18710 X-23.123 Y-6.975
N18715 X-23.083 Y-7.026
N18720 X-23.033 Y-7.076
N18725 X-22.989 Y-7.11
N18730 X-22.944 Y-7.134
N18735 X-22.88 Y-7.159
N18740 X-22.82 Y-7.17
N18745 X-22.761 Y-7.173
N18750 X-22.577
N18755 X-22.394 Y-7.184
N18760 X-22.21 Y-7.203
N18765 X-22.027 Y-7.233
N18770 X-20.375 Y-7.542
N18775 X-20.191 Y-7.577
N18780 X-19.824 Y-7.666
N18785 X-19.659 Y-7.709
N18790 X-17.988 Y-8.356
N18795 X-17.805 Y-8.429
N18800 X-17.373 Y-8.627
N18805 X-17.254 Y-8.683
N18810 X-15.565 Y-9.728
N18815 X-15.419 Y-9.825
N18820 X-15.235 Y-9.962
N18825 X-15.063 Y-10.095
N18830 X-13.767 Y-11.278
N18835 X-13.655 Y-11.38
N18840 X-13.459 Y-11.564
N18845 X-13.399 Y-11.626
N18850 X-13.216 Y-11.84
N18855 X-12.178 Y-13.216
N18860 X-11.931 Y-13.544
N18865 X-11.902 Y-13.583
N18870 X-11.798 Y-13.767
N18875 X-11.564 Y-14.203
N18880 X-10.958 Y-15.419
N18885 X-10.778 Y-15.786
N18890 X-10.695 Y-15.969
N18895 X-10.637 Y-16.153
N18900 X-10.525 Y-16.52
N18905 X-10.463 Y-16.737
N18910 X-10.279 Y-17.382
N18915 X-10.263 Y-17.438
N18920 X-10.244 Y-17.484
N18925 X-10.217 Y-17.529
N18930 X-10.182 Y-17.575
N18935 X-10.133 Y-17.621
N18940 X-10.095 Y-17.65
N18945 X-10.05 Y-17.678
N18950 X-10.004 Y-17.698
N18955 X-9.958 Y-17.712
N18960 X-9.912 Y-17.72
N18965 X-9.811 Y-17.735
N18970 X-9.751 Y-17.74
N18975 G3 X-9.425 Y-17.572 I0. J0.4
N18980 G1 X-9.225 Y-17.292
N18985 X-6.857 Y-13.98
N18990 G3 X-7.187 Y-14.147 I-0.325 J0.233
N18995 X-5.05 Y-13.626 I0.05 J4.433
N19000 G1 X-4.976 Y-13.583
N19005 X-4.956 Y-13.568
N19010 X-4.911 Y-13.526
N19015 X-4.877 Y-13.484
N19020 X-4.852 Y-13.442
N19025 X-4.833 Y-13.399
N19030 X-4.818 Y-13.354
N19035 X-4.809 Y-13.308
N19040 X-4.806 Y-13.262
N19045 X-4.808 Y-13.216
N19050 X-4.815 Y-13.17
N19055 X-4.827 Y-13.124
N19060 X-4.844 Y-13.078
N19065 X-4.868 Y-13.032
N19070 X-4.904 Y-12.981
N19075 X-4.93 Y-12.953
N19080 X-4.956 Y-12.93
N19085 X-4.994 Y-12.902
N19090 X-5.032 Y-12.88
N19095 X-5.14 Y-12.837
N19100 X-5.874 Y-12.552
N19105 X-6.057 Y-12.477
N19110 X-6.241 Y-12.384
N19115 X-6.424 Y-12.28
N19120 X-6.608 Y-12.171
N19125 X-8.076 Y-11.262
N19130 X-8.26 Y-11.143
N19135 X-8.42 Y-11.013
N19140 X-8.811 Y-10.678
N19145 X-10.095 Y-9.506
N19150 X-10.222 Y-9.361
N19155 X-10.527 Y-8.994
N19160 X-10.646 Y-8.846
N19165 X-11.504 Y-7.709
N19170 X-11.633 Y-7.526
N19175 X-11.76 Y-7.342
N19180 X-11.88 Y-7.159
N19185 X-11.972 Y-6.975
N19190 X-12.795 Y-5.323
N19195 X-12.88 Y-5.14
N19200 X-12.955 Y-4.956
N19205 X-13.017 Y-4.772
N19210 X-13.07 Y-4.589
N19215 X-13.54 Y-2.937
N19220 X-13.588 Y-2.753
N19225 X-13.634 Y-2.57
N19230 X-13.664 Y-2.386
N19235 X-13.767 Y-1.285
N19240 X-13.834 Y-0.551
N19245 X-13.874 Y0.
N19250 X-13.834 Y0.551
N19255 X-13.716 Y1.836
N19260 X-13.664 Y2.386
N19265 X-13.634 Y2.57
N19270 X-13.583 Y2.771
N19275 X-13.54 Y2.937
N19280 X-13.032 Y4.72
N19285 X-13.017 Y4.772
N19290 X-12.955 Y4.956
N19295 X-12.88 Y5.14
N19300 X-12.795 Y5.323
N19305 X-11.931 Y7.058
N19310 X-11.88 Y7.159
N19315 X-11.76 Y7.342
N19320 X-11.564 Y7.625
N19325 X-11.504 Y7.709
N19330 X-10.646 Y8.846
N19335 X-10.527 Y8.994
N19340 X-10.222 Y9.361
N19345 X-10.095 Y9.506
N19350 X-8.811 Y10.678
N19355 X-8.42 Y11.013
N19360 X-8.26 Y11.143
N19365 X-8.076 Y11.262
N19370 X-6.608 Y12.171
N19375 X-6.424 Y12.28
N19380 X-6.241 Y12.384
N19385 X-6.057 Y12.477
N19390 X-5.874 Y12.552
N19395 X-5.109 Y12.849
N19400 X-5.032 Y12.88
N19405 X-4.994 Y12.902
N19410 X-4.956 Y12.93
N19415 X-4.93 Y12.953
N19420 X-4.904 Y12.981
N19425 X-4.868 Y13.032
N19430 X-4.844 Y13.078
N19435 X-4.827 Y13.124
N19440 X-4.815 Y13.17
N19445 X-4.808 Y13.216
N19450 X-4.806 Y13.262
N19455 X-4.809 Y13.308
N19460 X-4.818 Y13.354
N19465 X-4.833 Y13.399
N19470 X-4.852 Y13.442
N19475 X-4.877 Y13.484
N19480 X-4.911 Y13.526
N19485 X-4.956 Y13.568
N19490 X-4.976 Y13.583
N19495 X-5.003 Y13.599
N19500 G3 X-5.374 Y13.602 I-0.188 J-0.353
N19505 G1 X-5.421 Y13.563 Z-3.995
N19510 X-5.466 Y13.525 Z-3.981
N19515 X-5.509 Y13.489 Z-3.958
N19520 X-5.532 Y13.44 Z-3.926
N19525 X-5.552 Y13.396 Z-3.885
N19530 X-5.569 Y13.359 Z-3.837
N19535 X-5.583 Y13.329 Z-3.783
N19540 X-5.587 Y13.304 Z-3.725
N19545 X-5.589 Y13.29 Z-3.663
N19550 X-5.59 Y13.285 Z-3.6
N19555 G0 Z6.
N19560 G1 X8.628 Y-17.758 F500.
N19565 G0 Z-1.6
N19570 G1 Z-2. F300.
N19575 Z-4.
N19580 G3 X9.728 Y-17.748 I0.505 J5.081
N19585 G1 X9.912 Y-17.72
N19590 X9.958 Y-17.712
N19595 X10.004 Y-17.698
N19600 X10.05 Y-17.678
N19605 X10.095 Y-17.65
N19610 X10.133 Y-17.621
N19615 X10.182 Y-17.575
N19620 X10.217 Y-17.529
N19625 X10.244 Y-17.484
N19630 X10.263 Y-17.438
N19635 X10.368 Y-17.071
N19640 X10.472 Y-16.703
N19645 X10.525 Y-16.52
N19650 X10.646 Y-16.123
N19655 X10.695 Y-15.969
N19660 X10.778 Y-15.786
N19665 X10.958 Y-15.419
N19670 X11.564 Y-14.203
N19675 X11.798 Y-13.767
N19680 X11.902 Y-13.583
N19685 X12.04 Y-13.399
N19690 X12.593 Y-12.665
N19695 X13.216 Y-11.84
N19700 X13.399 Y-11.626
N19705 X13.459 Y-11.564
N19710 X13.655 Y-11.38
N19715 X14.134 Y-10.943
N19720 X15.063 Y-10.095
N19725 X15.235 Y-9.962
N19730 X15.419 Y-9.825
N19735 X15.565 Y-9.728
N19740 X17.254 Y-8.683
N19745 X17.438 Y-8.597
N19750 X17.805 Y-8.429
N19755 X17.988 Y-8.356
N19760 X19.659 Y-7.709
N19765 X19.824 Y-7.666
N19770 X20.191 Y-7.577
N19775 X20.558 Y-7.507
N19780 X22.027 Y-7.233
N19785 X22.21 Y-7.203
N19790 X22.394 Y-7.184
N19795 X22.577 Y-7.173
N19800 X22.761
N19805 X22.82 Y-7.17
N19810 X22.88 Y-7.159
N19815 X22.944 Y-7.134
N19820 X22.989 Y-7.11
N19825 X23.033 Y-7.076
N19830 X23.083 Y-7.026
N19835 X23.123 Y-6.975
N19840 X23.128 Y-6.967
N19845 X23.151 Y-6.923
N19850 X23.168 Y-6.879
N19855 X23.18 Y-6.835
N19860 X23.186 Y-6.792
N19865 X23.187 Y-6.746
N19870 X23.183 Y-6.7
N19875 X23.174 Y-6.654
N19880 X23.159 Y-6.608
N19885 X23.128 Y-6.547
N19890 X23.083 Y-6.48
N19895 G0 Z6.
N19900 G1 X21.005 Y4.832 F500.
N19905 G0 Z-3.2
N19910 G1 Z-3.6 F300.
N19915 X21.012 Y4.836 Z-3.678
N19920 X21.032 Y4.846 Z-3.753
N19925 X21.065 Y4.862 Z-3.822
N19930 X21.11 Y4.883 Z-3.883
N19935 X21.165 Y4.91 Z-3.933
N19940 X21.227 Y4.94 Z-3.97
N19945 X21.295 Y4.972 Z-3.992
N19950 X21.365 Y5.006 Z-4.
N19955 G3 X23.047 Y6.424 I-1.927 J3.992
N19960 G1 X23.128 Y6.547
N19965 X23.159 Y6.608
N19970 X23.174 Y6.654
N19975 X23.183 Y6.7
N19980 X23.187 Y6.746
N19985 X23.186 Y6.792
N19990 X23.18 Y6.835
N19995 X23.168 Y6.879
N20000 X23.151 Y6.923
N20005 X23.128 Y6.967
N20010 X23.123 Y6.975
N20015 X23.083 Y7.026
N20020 X23.033 Y7.076
N20025 X22.989 Y7.11
N20030 X22.944 Y7.134
N20035 X22.88 Y7.159
N20040 X22.82 Y7.17
N20045 X22.761 Y7.173
N20050 X22.577
N20055 X22.394 Y7.184
N20060 X22.21 Y7.203
N20065 X22.027 Y7.233
N20070 X20.375 Y7.542
N20075 X20.191 Y7.577
N20080 X19.824 Y7.666
N20085 X19.659 Y7.709
N20090 X17.988 Y8.356
N20095 X17.805 Y8.429
N20100 X17.373 Y8.627
N20105 X17.254 Y8.683
N20110 X15.565 Y9.728
N20115 X15.419 Y9.825
N20120 X15.235 Y9.962
N20125 X15.063 Y10.095
N20130 X13.767 Y11.277
N20135 X13.655 Y11.38
N20140 X13.459 Y11.564
N20145 X13.399 Y11.626
N20150 X13.216 Y11.84
N20155 X12.178 Y13.216
N20160 X11.931 Y13.544
N20165 X11.902 Y13.583
N20170 X11.798 Y13.767
N20175 X11.564 Y14.203
N20180 X10.958 Y15.419
N20185 X10.778 Y15.786
N20190 X10.695 Y15.969
N20195 X10.637 Y16.153
N20200 X10.525 Y16.52
N20205 X10.463 Y16.737
N20210 X10.279 Y17.382
N20215 X10.263 Y17.438
N20220 X10.244 Y17.484
N20225 X10.217 Y17.529
N20230 X10.182 Y17.575
N20235 X10.133 Y17.621
N20240 X10.095 Y17.65
N20245 X10.05 Y17.678
N20250 X10.004 Y17.698
N20255 X9.958 Y17.712
N20260 X9.912 Y17.72
N20265 X9.811 Y17.735
N20270 X9.751 Y17.74
N20275 G3 X9.425 Y17.572 I0. J-0.4
N20280 G1 X9.225 Y17.292
N20285 X6.857 Y13.98
N20290 G3 X7.187 Y14.147 I0.325 J-0.233
N20295 X5.05 Y13.626 I-0.05 J-4.433
N20300 G1 X4.976 Y13.583
N20305 X4.956 Y13.568
N20310 X4.911 Y13.526
N20315 X4.877 Y13.484
N20320 X4.852 Y13.442
N20325 X4.833 Y13.399
N20330 X4.818 Y13.354
N20335 X4.809 Y13.308
N20340 X4.806 Y13.262
N20345 X4.808 Y13.216
N20350 X4.815 Y13.17
N20355 X4.827 Y13.124
N20360 X4.844 Y13.078
N20365 X4.868 Y13.032
N20370 X4.904 Y12.981
N20375 X4.93 Y12.953
N20380 X4.956 Y12.93
N20385 X4.994 Y12.902
N20390 X5.032 Y12.88
N20395 X5.14 Y12.837
N20400 X5.874 Y12.552
N20405 X6.057 Y12.477
N20410 X6.241 Y12.384
N20415 X6.424 Y12.28
N20420 X6.608 Y12.171
N20425 X8.076 Y11.262
N20430 X8.26 Y11.143
N20435 X8.42 Y11.013
N20440 X8.811 Y10.678
N20445 X10.095 Y9.506
N20450 X10.222 Y9.361
N20455 X10.527 Y8.994
N20460 X10.646 Y8.846
N20465 X11.504 Y7.709
N20470 X11.633 Y7.526
N20475 X11.76 Y7.342
N20480 X11.88 Y7.159
N20485 X11.972 Y6.975
N20490 X12.795 Y5.323
N20495 X12.88 Y5.14
N20500 X12.955 Y4.956
N20505 X13.017 Y4.772
N20510 X13.07 Y4.589
N20515 X13.54 Y2.937
N20520 X13.588 Y2.753
N20525 X13.634 Y2.57
N20530 X13.664 Y2.386
N20535 X13.767 Y1.285
N20540 X13.834 Y0.551
N20545 X13.874 Y0.
N20550 X13.834 Y-0.551
N20555 X13.716 Y-1.836
N20560 X13.664 Y-2.386
N20565 X13.634 Y-2.57
N20570 X13.583 Y-2.771
N20575 X13.54 Y-2.937
N20580 X13.032 Y-4.72
N20585 X13.017 Y-4.772
N20590 X12.955 Y-4.956
N20595 X12.88 Y-5.14
N20600 X12.795 Y-5.323
N20605 X11.931 Y-7.058
N20610 X11.88 Y-7.159
N20615 X11.76 Y-7.342
N20620 X11.564 Y-7.625
N20625 X11.504 Y-7.709
N20630 X10.646 Y-8.846
N20635 X10.527 Y-8.994
N20640 X10.222 Y-9.361
N20645 X10.095 Y-9.506
N20650 X8.811 Y-10.678
N20655 X8.42 Y-11.013
N20660 X8.26 Y-11.143
N20665 X8.076 Y-11.262
N20670 X6.608 Y-12.171
N20675 X6.424 Y-12.28
N20680 X6.241 Y-12.384
N20685 X6.057 Y-12.477
N20690 X5.874 Y-12.552
N20695 X5.109 Y-12.849
N20700 X5.032 Y-12.88
N20705 X4.994 Y-12.902
N20710 X4.956 Y-12.93
N20715 X4.93 Y-12.953
N20720 X4.904 Y-12.981
N20725 X4.868 Y-13.032
N20730 X4.844 Y-13.078
N20735 X4.827 Y-13.124
N20740 X4.815 Y-13.17
N20745 X4.808 Y-13.216
N20750 X4.806 Y-13.262
N20755 X4.809 Y-13.308
N20760 X4.818 Y-13.354
N20765 X4.833 Y-13.399
N20770 X4.852 Y-13.442
N20775 X4.877 Y-13.484
N20780 X4.911 Y-13.526
N20785 X4.956 Y-13.568
N20790 X4.976 Y-13.583
N20795 X5.003 Y-13.599
N20800 G3 X5.374 Y-13.602 I0.188 J0.353
N20805 G1 X5.421 Y-13.563 Z-3.995
N20810 X5.466 Y-13.525 Z-3.981
N20815 X5.509 Y-13.489 Z-3.958
N20820 X5.532 Y-13.44 Z-3.926
N20825 X5.552 Y-13.396 Z-3.885
N20830 X5.569 Y-13.359 Z-3.837
N20835 X5.583 Y-13.329 Z-3.783
N20840 X5.587 Y-13.304 Z-3.725
N20845 X5.589 Y-13.29 Z-3.663
N20850 X5.59 Y-13.285 Z-3.6
N20855 G0 Z6.
N20860 G1 X-8.705 Y17.743 F500.
N20865 G0 Z-0.6
N20870 G1 Z-1. F300.
N20875 Z-3.
N20880 G3 X-9.805 Y17.736 I-0.521 J-5.079
N20885 G1 X-9.912 Y17.72
N20890 X-10.004 Y17.711
N20895 X-10.05 Y17.699
N20900 X-10.095 Y17.681
N20905 X-10.141 Y17.656
N20910 X-10.187 Y17.621
N20915 X-10.24 Y17.569
N20920 X-10.279 Y17.516
N20925 X-10.301 Y17.477
N20930 X-10.317 Y17.438
N20935 X-10.474 Y16.887
N20940 X-10.526 Y16.703
N20945 X-10.58 Y16.52
N20950 X-10.692 Y16.153
N20955 X-10.754 Y15.969
N20960 X-11.017 Y15.419
N20965 X-11.565 Y14.317
N20970 X-11.66 Y14.134
N20975 X-11.858 Y13.767
N20980 X-11.931 Y13.635
N20985 X-12.381 Y13.032
N20990 X-13.216 Y11.927
N20995 X-13.372 Y11.747
N21000 X-13.583 Y11.529
N21005 X-13.731 Y11.38
N21010 X-14.94 Y10.279
N21015 X-15.143 Y10.095
N21020 X-15.235 Y10.022
N21025 X-15.419 Y9.886
