%
O01005
(Using high feed G1 F500. instead of G0.)
(T1 D=4. CR=0. - ZMIN=-3. - flat end mill)
(T2 D=2. CR=1. - ZMIN=-3.675 - ball end mill)
N10 G90 G94 G17
N15 G21
N20 G53 G0 Z0.

(Adaptive2)
N25 T1 M6
N30 S6000 M3
N35 G54
N40 M11
N45 G0 A0.
N50 M10
N55 M8
N60 G1 X-9.117 Y1.036 F500.
N65 G0 G43 Z16. H1
N70 T2
N75 G0 Z6.
N80 Z3.5
N85 G3 X-9.02 Y1.171 Z3.089 I1.593 J-1.036 F75.
N90 X-8.912 Y1.297 Z2.678 I1.496 J-1.171
N95 X-8.794 Y1.413 Z2.267 I1.389 J-1.297
N100 X-8.666 Y1.518 Z1.856 I1.27 J-1.413
N105 X-8.529 Y1.612 Z1.445 I1.142 J-1.518
N110 X-8.385 Y1.693 Z1.033 I1.006 J-1.612
N115 X-8.234 Y1.762 Z0.622 I0.861 J-1.694
N120 X-8.078 Y1.817 Z0.211 I0.71 J-1.762
N125 X-7.917 Y1.858 Z-0.2 I0.554 J-1.817
N130 X-7.754 Y1.886 Z-0.611 I0.394 J-1.859
N135 X-7.589 Y1.899 Z-1.022 I0.23 J-1.886
N140 X-7.423 Y1.897 Z-1.433 I0.065 J-1.899
N145 X-7.258 Y1.881 Z-1.844 I-0.101 J-1.897
N150 X-7.095 Y1.851 Z-2.255 I-0.266 J-1.881
N155 X-6.935 Y1.806 Z-2.666 I-0.429 J-1.851
N160 X-5.624 Y0. Z-3. I-0.589 J-1.807
N165 X-9.424 I-1.9 J0.
N170 X-5.624 I1.9 J0.
N175 G1 X-5.62 Y0.202 F300.
N180 X-5.457 Y0.873
N185 X-5.433 Y1.021
N190 X-5.431 Y1.171
N195 X-5.447 Y1.32
N200 X-5.479 Y1.466
N205 X-5.526 Y1.609
N210 X-5.586 Y1.746
N215 X-5.658 Y1.878
N220 X-5.741 Y2.005
N225 X-5.839 Y2.131
N230 X-5.952 Y2.253
N235 X-6.078 Y2.37
N240 X-6.218 Y2.48
N245 X-6.371 Y2.582
N250 X-6.537 Y2.674
N255 X-6.714 Y2.754
N260 X-6.902 Y2.822
N265 X-7.098 Y2.876
N270 X-7.303 Y2.914
N275 X-7.514 Y2.936
N280 X-7.729 Y2.941
N285 X-7.947 Y2.929
N290 X-8.166 Y2.899
N295 X-8.385 Y2.851
N300 X-8.602 Y2.784
N305 X-8.814 Y2.7
N310 X-9.021 Y2.598
N315 X-9.22 Y2.48
N320 X-9.41 Y2.344
N325 X-9.59 Y2.193
N330 X-9.758 Y2.027
N335 X-9.912 Y1.848
N340 X-10.053 Y1.656
N345 X-10.178 Y1.452
N350 X-10.286 Y1.239
N355 X-10.377 Y1.017
N360 X-10.451 Y0.788
N365 X-10.506 Y0.553
N370 X-10.541 Y0.314
N375 X-10.558 Y0.073
N380 X-10.555 Y-0.169
N385 X-10.533 Y-0.411
N390 X-10.491 Y-0.65
N395 X-10.43 Y-0.885
N400 X-10.351 Y-1.115
N405 X-10.253 Y-1.337
N410 X-10.138 Y-1.552
N415 X-10.006 Y-1.756
N420 X-9.857 Y-1.949
N425 X-9.694 Y-2.13
N430 X-9.516 Y-2.297
N435 X-9.326 Y-2.45
N440 X-9.124 Y-2.587
N445 X-8.912 Y-2.707
N450 X-8.69 Y-2.809
N455 X-8.461 Y-2.894
N460 X-8.226 Y-2.96
N465 X-7.987 Y-3.007
N470 X-7.744 Y-3.034
N475 X-7.5 Y-3.042
N480 X-7.256 Y-3.031
N485 X-7.014 Y-2.999
N490 X-6.775 Y-2.949
N495 X-6.541 Y-2.879
N500 X-6.313 Y-2.791
N505 X-6.093 Y-2.685
N510 X-5.882 Y-2.561
N515 X-5.682 Y-2.421
N520 X-5.493 Y-2.266
N525 X-5.318 Y-2.096
N530 X-5.157 Y-1.912
N535 X-5.011 Y-1.716
N540 X-4.841 Y-1.443
N545 X-4.589 Y-0.957
N550 X-4.423 Y-0.564
N555 X-4.313 Y-0.231
N560 X-4.24 Y0.075
N565 X-4.194 Y0.364
N570 X-4.172 Y0.643
N575 X-4.173 Y0.914
N580 X-4.195 Y1.179
N585 X-4.238 Y1.439
N590 X-4.302 Y1.693
N595 X-4.386 Y1.942
N600 X-4.49 Y2.184
N605 X-4.614 Y2.419
N610 X-4.757 Y2.645
N615 X-4.92 Y2.861
N620 X-5.101 Y3.065
N625 X-5.301 Y3.256
N630 X-5.518 Y3.433
N635 X-5.752 Y3.594
N640 X-6.002 Y3.738
N645 X-6.266 Y3.863
N650 X-6.543 Y3.968
N655 X-6.831 Y4.052
N660 X-7.129 Y4.112
N665 X-7.434 Y4.15
N670 X-7.744 Y4.162
N675 X-8.058 Y4.15
N680 X-8.372 Y4.112
N685 X-8.685 Y4.048
N690 X-8.995 Y3.959
N695 X-9.298 Y3.845
N700 X-9.593 Y3.705
N705 X-9.877 Y3.542
N710 X-10.15 Y3.355
N715 X-10.407 Y3.146
N720 X-10.648 Y2.915
N725 X-10.871 Y2.665
N730 X-11.074 Y2.397
N735 X-11.255 Y2.112
N740 X-11.413 Y1.813
N745 X-11.548 Y1.501
N750 X-11.657 Y1.179
N755 X-11.74 Y0.848
N760 X-11.796 Y0.511
N765 X-11.825 Y0.17
N770 X-11.827 Y-0.173
N775 X-11.801 Y-0.515
N780 X-11.747 Y-0.855
N785 X-11.667 Y-1.19
N790 X-11.559 Y-1.517
N795 X-11.426 Y-1.835
N800 X-11.267 Y-2.142
N805 X-11.085 Y-2.435
N810 X-10.879 Y-2.712
N815 X-10.651 Y-2.972
N820 X-10.404 Y-3.214
N825 X-10.137 Y-3.434
N830 X-9.854 Y-3.633
N835 X-9.555 Y-3.808
N840 X-9.244 Y-3.959
N845 X-8.921 Y-4.084
N850 X-8.589 Y-4.184
N855 X-8.25 Y-4.256
N860 X-7.907 Y-4.3
N865 X-7.561 Y-4.317
N870 X-7.214 Y-4.306
N875 X-6.87 Y-4.268
N880 X-6.529 Y-4.202
N885 X-6.196 Y-4.108
N890 X-5.87 Y-3.989
N895 X-5.556 Y-3.843
N900 X-5.254 Y-3.673
N905 X-4.966 Y-3.479
N910 X-4.683 Y-3.253
N915 X-4.379 Y-2.967
N920 X-4.092 Y-2.65
N925 X-3.82 Y-2.297
N930 X-3.576 Y-1.92
N935 X-3.367 Y-1.532
N940 X-3.194 Y-1.14
N945 X-3.057 Y-0.746
N950 X-2.955 Y-0.353
N955 X-2.886 Y0.04
N960 X-2.85 Y0.43
N965 X-2.845 Y0.818
N970 X-2.871 Y1.201
N975 X-2.927 Y1.579
N980 X-3.013 Y1.948
N985 X-3.128 Y2.309
N990 X-3.271 Y2.659
N995 X-3.442 Y2.997
N1000 X-3.641 Y3.322
N1005 X-3.866 Y3.63
N1010 X-4.116 Y3.922
N1015 X-4.391 Y4.194
N1020 X-4.689 Y4.445
N1025 X-5.009 Y4.673
N1030 X-5.349 Y4.876
N1035 X-5.707 Y5.053
N1040 X-6.081 Y5.202
N1045 X-6.47 Y5.321
N1050 X-6.869 Y5.41
N1055 X-7.278 Y5.466
N1060 X-7.693 Y5.49
N1065 X-8.111 Y5.481
N1070 X-8.53 Y5.437
N1075 X-8.947 Y5.36
N1080 X-9.359 Y5.248
N1085 X-9.763 Y5.103
N1090 X-10.156 Y4.925
N1095 X-10.536 Y4.715
N1100 X-10.899 Y4.474
N1105 X-11.244 Y4.204
N1110 X-11.567 Y3.905
N1115 X-11.866 Y3.581
N1120 X-12.139 Y3.232
N1125 X-12.383 Y2.861
N1130 X-12.598 Y2.471
N1135 X-12.782 Y2.063
N1140 X-12.932 Y1.641
N1145 X-13.049 Y1.208
N1150 X-13.13 Y0.765
N1155 X-13.176 Y0.317
N1160 X-13.185 Y-0.134
N1165 X-13.158 Y-0.585
N1170 X-13.096 Y-1.033
N1175 X-12.997 Y-1.475
N1180 X-12.863 Y-1.907
N1185 X-12.694 Y-2.328
N1190 X-12.492 Y-2.735
N1195 X-12.259 Y-3.124
N1200 X-11.994 Y-3.494
N1205 X-11.7 Y-3.841
N1210 X-11.38 Y-4.163
N1215 X-11.034 Y-4.459
N1220 X-10.666 Y-4.726
N1225 X-10.277 Y-4.963
N1230 X-9.871 Y-5.168
N1235 X-9.449 Y-5.34
N1240 X-9.015 Y-5.478
N1245 X-8.571 Y-5.58
N1250 X-8.12 Y-5.646
N1255 X-7.665 Y-5.676
N1260 X-7.21 Y-5.669
N1265 X-6.756 Y-5.626
N1270 X-6.307 Y-5.546
N1275 X-5.866 Y-5.431
N1280 X-5.436 Y-5.28
N1285 X-5.015 Y-5.094
N1290 X-4.597 Y-4.867
N1295 X-4.186 Y-4.599
N1300 X-3.785 Y-4.29
N1305 X-3.4 Y-3.94
N1310 X-3.04 Y-3.555
N1315 X-2.709 Y-3.139
N1320 X-2.413 Y-2.699
N1325 X-2.155 Y-2.239
N1330 X-1.936 Y-1.763
N1335 X-1.758 Y-1.276
N1340 X-1.62 Y-0.78
N1345 X-1.524 Y-0.279
N1350 X-1.468 Y0.224
N1355 X-1.454 Y0.726
N1360 X-1.479 Y1.224
N1365 X-1.544 Y1.717
N1370 X-1.648 Y2.201
N1375 X-1.79 Y2.674
N1380 X-1.97 Y3.134
N1385 X-2.186 Y3.579
N1390 X-2.438 Y4.005
N1395 X-2.723 Y4.411
N1400 X-3.042 Y4.794
N1405 X-3.392 Y5.152
N1410 X-3.771 Y5.482
N1415 X-4.178 Y5.782
N1420 X-4.61 Y6.051
N1425 X-5.064 Y6.285
N1430 X-5.539 Y6.483
N1435 X-6.032 Y6.643
N1440 X-6.538 Y6.764
N1445 X-7.056 Y6.844
N1450 X-7.581 Y6.883
N1455 X-8.111 Y6.88
N1460 X-8.642 Y6.833
N1465 X-9.17 Y6.744
N1470 X-9.692 Y6.612
N1475 X-10.203 Y6.438
N1480 X-10.702 Y6.222
N1485 X-11.183 Y5.966
N1490 X-11.645 Y5.671
N1495 X-12.083 Y5.339
N1500 X-12.494 Y4.971
N1505 X-12.875 Y4.57
N1510 X-13.225 Y4.139
N1515 X-13.539 Y3.679
N1520 X-13.816 Y3.195
N1525 X-14.054 Y2.689
N1530 X-14.251 Y2.164
N1535 X-14.405 Y1.624
N1540 X-14.516 Y1.073
N1545 X-14.582 Y0.513
N1550 X-14.603 Y-0.051
N1555 X-14.579 Y-0.615
N1560 X-14.51 Y-1.176
N1565 X-14.396 Y-1.731
N1570 X-14.237 Y-2.274
N1575 X-14.035 Y-2.804
N1580 X-13.791 Y-3.317
N1585 X-13.507 Y-3.808
N1590 X-13.184 Y-4.275
N1595 X-12.824 Y-4.715
N1600 X-12.43 Y-5.125
N1605 X-12.004 Y-5.502
N1610 X-11.549 Y-5.844
N1615 X-11.068 Y-6.148
N1620 X-10.564 Y-6.412
N1625 X-10.04 Y-6.636
N1630 X-9.5 Y-6.817
N1635 X-8.947 Y-6.953
N1640 X-8.385 Y-7.045
N1645 X-7.817 Y-7.092
N1650 X-7.248 Y-7.093
N1655 X-6.68 Y-7.048
N1660 X-6.116 Y-6.958
N1665 X-5.559 Y-6.822
N1670 X-5.009 Y-6.639
N1675 X-4.468 Y-6.411
N1680 X-3.94 Y-6.136
N1685 X-3.426 Y-5.812
N1690 X-2.93 Y-5.442
N1695 X-2.459 Y-5.028
N1700 X-2.019 Y-4.573
N1705 X-1.614 Y-4.081
N1710 X-1.25 Y-3.558
N1715 X-0.929 Y-3.008
N1720 X-0.655 Y-2.436
N1725 X-0.428 Y-1.846
N1730 X-0.25 Y-1.244
N1735 X-0.122 Y-0.632
N1740 X-0.044 Y-0.015
N1745 X-0.015 Y0.604
N1750 X-0.036 Y1.22
N1755 X-0.107 Y1.83
N1760 X-0.226 Y2.431
N1765 X-0.392 Y3.019
N1770 X-0.605 Y3.592
N1775 X-0.863 Y4.146
N1780 X-1.166 Y4.678
N1785 X-1.51 Y5.186
N1790 X-1.895 Y5.665
N1795 X-2.319 Y6.113
N1800 X-2.779 Y6.527
N1805 X-3.273 Y6.904
N1810 X-3.798 Y7.242
N1815 X-4.35 Y7.538
N1820 X-4.928 Y7.79
N1825 X-5.527 Y7.996
N1830 X-6.143 Y8.154
N1835 X-6.772 Y8.262
N1840 X-7.412 Y8.32
N1845 X-8.057 Y8.326
N1850 X-8.703 Y8.281
N1855 X-9.346 Y8.183
N1860 X-9.982 Y8.033
N1865 X-10.607 Y7.832
N1870 X-11.215 Y7.58
N1875 X-11.804 Y7.28
N1880 X-12.368 Y6.932
N1885 X-12.905 Y6.538
N1890 X-13.409 Y6.102
N1895 X-13.879 Y5.625
N1900 X-14.309 Y5.11
N1905 X-14.698 Y4.561
N1910 X-15.042 Y3.982
N1915 X-15.339 Y3.376
N1920 X-15.587 Y2.746
N1925 X-15.784 Y2.098
N1930 X-15.929 Y1.435
N1935 X-16.02 Y0.761
N1940 X-16.057 Y0.082
N1945 X-16.039 Y-0.599
N1950 X-15.966 Y-1.277
N1955 X-15.84 Y-1.948
N1960 X-15.659 Y-2.606
N1965 X-15.426 Y-3.249
N1970 X-15.142 Y-3.871
N1975 X-14.809 Y-4.469
N1980 X-14.429 Y-5.039
N1985 X-14.004 Y-5.576
N1990 X-13.537 Y-6.078
N1995 X-13.032 Y-6.541
N2000 X-12.49 Y-6.961
N2005 X-11.917 Y-7.338
N2010 X-11.315 Y-7.667
N2015 X-10.688 Y-7.946
N2020 X-10.041 Y-8.175
N2025 X-9.377 Y-8.351
N2030 X-8.702 Y-8.473
N2035 X-8.018 Y-8.54
N2040 X-7.332 Y-8.552
N2045 X-6.645 Y-8.509
N2050 X-5.961 Y-8.411
N2055 X-5.283 Y-8.258
N2060 X-4.615 Y-8.048
N2065 X-3.958 Y-7.783
N2070 X-3.317 Y-7.462
N2075 X-2.696 Y-7.086
N2080 X-2.101 Y-6.657
N2085 X-1.537 Y-6.177
N2090 X-1.01 Y-5.651
N2095 X-0.526 Y-5.081
N2100 X-0.087 Y-4.473
N2105 X0.301 Y-3.831
N2110 X0.637 Y-3.161
N2115 X0.916 Y-2.468
N2120 X1.139 Y-1.757
N2125 X1.303 Y-1.033
N2130 X1.408 Y-0.3
N2135 X1.454 Y0.436
N2140 X1.441 Y1.171
N2145 X1.369 Y1.901
N2150 X1.239 Y2.622
N2155 X1.051 Y3.329
N2160 X0.808 Y4.018
N2165 X0.51 Y4.686
N2170 X0.159 Y5.327
N2175 X-0.243 Y5.94
N2180 X-0.693 Y6.519
N2185 X-1.19 Y7.062
N2190 X-1.73 Y7.565
N2195 X-2.31 Y8.024
N2200 X-2.928 Y8.436
N2205 X-3.579 Y8.799
N2210 X-4.26 Y9.109
N2215 X-4.966 Y9.365
N2220 X-5.693 Y9.564
N2225 X-6.437 Y9.705
N2230 X-7.193 Y9.786
N2235 X-7.956 Y9.806
N2240 X-8.72 Y9.764
N2245 X-9.482 Y9.661
N2250 X-10.236 Y9.497
N2255 X-10.976 Y9.272
N2260 X-11.699 Y8.987
N2265 X-12.398 Y8.644
N2270 X-13.07 Y8.245
N2275 X-13.709 Y7.792
N2280 X-14.312 Y7.288
N2285 X-14.873 Y6.736
N2290 X-15.389 Y6.139
N2295 X-15.857 Y5.501
N2300 X-16.273 Y4.826
N2305 X-16.634 Y4.119
N2310 X-16.938 Y3.384
N2315 X-17.182 Y2.626
N2320 X-17.365 Y1.85
N2325 X-17.485 Y1.061
N2330 X-17.541 Y0.263
N2335 X-17.533 Y-0.537
N2340 X-17.461 Y-1.335
N2345 X-17.325 Y-2.125
N2350 X-17.126 Y-2.902
N2355 X-16.865 Y-3.661
N2360 X-16.544 Y-4.398
N2365 X-16.164 Y-5.106
N2370 X-15.729 Y-5.782
N2375 X-15.24 Y-6.421
N2380 X-14.702 Y-7.019
N2385 X-14.117 Y-7.572
N2390 X-13.489 Y-8.077
N2395 X-12.823 Y-8.53
N2400 X-12.123 Y-8.928
N2405 X-11.392 Y-9.268
N2410 X-10.637 Y-9.549
N2415 X-9.861 Y-9.768
N2420 X-9.07 Y-9.924
N2425 X-8.269 Y-10.017
N2430 X-7.461 Y-10.045
N2435 X-6.654 Y-10.007
N2440 X-5.852 Y-9.906
N2445 X-5.061 Y-9.741
N2450 X-4.285 Y-9.514
N2455 X-3.53 Y-9.226
N2460 X-2.799 Y-8.881
N2465 X-2.097 Y-8.48
N2470 X-1.429 Y-8.026
N2475 X-0.797 Y-7.522
N2480 X-0.205 Y-6.971
N2485 X0.343 Y-6.378
N2490 X0.846 Y-5.745
N2495 X1.3 Y-5.077
N2500 X1.704 Y-4.376
N2505 X2.054 Y-3.648
N2510 X2.349 Y-2.895
N2515 X2.587 Y-2.123
N2520 X2.766 Y-1.335
N2525 X2.886 Y-0.535
N2530 X2.946 Y0.271
N2535 X2.944 Y1.079
N2540 X2.881 Y1.885
N2545 X2.756 Y2.683
N2550 X2.57 Y3.47
N2555 X2.324 Y4.24
N2560 X2.02 Y4.989
N2565 X1.66 Y5.712
N2570 X1.246 Y6.406
N2575 X0.781 Y7.067
N2580 X0.267 Y7.691
N2585 X-0.293 Y8.274
N2590 X-0.896 Y8.813
N2595 X-1.537 Y9.305
N2600 X-2.213 Y9.748
N2605 X-2.92 Y10.139
N2610 X-3.655 Y10.476
N2615 X-4.412 Y10.758
N2620 X-5.188 Y10.984
N2625 X-5.979 Y11.15
N2630 X-6.78 Y11.256
N2635 X-7.587 Y11.302
N2640 X-8.395 Y11.289
N2645 X-9.2 Y11.217
N2650 X-9.998 Y11.086
N2655 X-10.784 Y10.898
N2660 X-11.554 Y10.654
N2665 X-12.306 Y10.355
N2670 X-13.033 Y10.004
N2675 X-13.734 Y9.601
N2680 X-14.403 Y9.148
N2685 X-15.037 Y8.647
N2690 X-15.634 Y8.101
N2695 X-16.19 Y7.515
N2700 X-16.703 Y6.89
N2705 X-17.17 Y6.231
N2710 X-17.591 Y5.541
N2715 X-17.962 Y4.823
N2720 X-18.281 Y4.08
N2725 X-18.545 Y3.316
N2730 X-18.754 Y2.535
N2735 X-18.906 Y1.742
N2740 X-19.003 Y0.939
N2745 X-19.043 Y0.132
N2750 X-19.027 Y-0.676
N2755 X-18.955 Y-1.481
N2760 X-18.828 Y-2.279
N2765 X-18.642 Y-3.066
N2770 X-18.401 Y-3.837
N2775 X-18.106 Y-4.59
N2780 X-17.758 Y-5.32
N2785 X-17.361 Y-6.024
N2790 X-16.917 Y-6.699
N2795 X-16.427 Y-7.341
N2800 X-15.893 Y-7.949
N2805 X-15.317 Y-8.515
N2810 X-14.702 Y-9.039
N2815 X-14.051 Y-9.519
N2820 X-13.369 Y-9.952
N2825 X-12.658 Y-10.337
N2830 X-11.923 Y-10.672
N2835 X-11.166 Y-10.955
N2840 X-10.391 Y-11.186
N2845 X-9.602 Y-11.359
N2850 X-8.802 Y-11.475
N2855 X-7.996 Y-11.535
N2860 X-7.187 Y-11.539
N2865 X-6.381 Y-11.488
N2870 X-5.58 Y-11.382
N2875 X-4.787 Y-11.222
N2880 X-4.008 Y-11.006
N2885 X-3.247 Y-10.736
N2890 X-2.505 Y-10.414
N2895 X-1.788 Y-10.042
N2900 X-1.097 Y-9.623
N2905 X-0.435 Y-9.159
N2910 X0.195 Y-8.653
N2915 X0.79 Y-8.106
N2920 X1.348 Y-7.521
N2925 X1.864 Y-6.899
N2930 X2.338 Y-6.245
N2935 X2.769 Y-5.56
N2940 X3.153 Y-4.85
N2945 X3.491 Y-4.116
N2950 X3.782 Y-3.361
N2955 X4.022 Y-2.59
N2960 X4.212 Y-1.804
N2965 X4.348 Y-1.007
N2970 X4.43 Y-0.203
N2975 X4.458 Y0.605
N2980 X4.433 Y1.412
N2985 X4.354 Y2.217
N2990 X4.223 Y3.014
N2995 X4.04 Y3.801
N3000 X3.805 Y4.575
N3005 X3.516 Y5.33
N3010 X3.177 Y6.063
N3015 X2.789 Y6.772
N3020 X2.356 Y7.455
N3025 X1.878 Y8.107
N3030 X1.359 Y8.726
N3035 X0.801 Y9.311
N3040 X0.206 Y9.857
N3045 X-0.426 Y10.362
N3050 X-1.09 Y10.823
N3055 X-1.782 Y11.24
N3060 X-2.501 Y11.61
N3065 X-3.241 Y11.934
N3070 X-4.001 Y12.209
N3075 X-4.777 Y12.434
N3080 X-5.566 Y12.609
N3085 X-6.366 Y12.73
N3090 X-7.171 Y12.797
N3095 X-7.979 Y12.811
N3100 X-8.787 Y12.774
N3105 X-9.59 Y12.685
N3110 X-10.386 Y12.545
N3115 X-11.172 Y12.356
N3120 X-11.944 Y12.119
N3125 X-12.7 Y11.832
N3130 X-13.435 Y11.497
N3135 X-14.147 Y11.114
N3140 X-14.833 Y10.687
N3145 X-15.491 Y10.217
N3150 X-16.118 Y9.707
N3155 X-16.711 Y9.158
N3160 X-17.27 Y8.574
N3165 X-17.791 Y7.956
N3170 X-18.271 Y7.306
N3175 X-18.709 Y6.626
N3180 X-19.104 Y5.921
N3185 X-19.453 Y5.192
N3190 X-19.757 Y4.443
N3195 X-20.013 Y3.677
N3200 X-20.22 Y2.896
N3205 X-20.38 Y2.103
N3210 X-20.489 Y1.302
N3215 X-20.547 Y0.496
N3220 X-20.555 Y-0.312
N3225 X-20.512 Y-1.119
N3230 X-20.42 Y-1.922
N3235 X-20.278 Y-2.718
N3240 X-20.088 Y-3.503
N3245 X-19.849 Y-4.275
N3250 X-19.563 Y-5.031
N3255 X-19.229 Y-5.767
N3260 X-18.849 Y-6.481
N3265 X-18.427 Y-7.17
N3270 X-17.962 Y-7.831
N3275 X-17.459 Y-8.463
N3280 X-16.917 Y-9.063
N3285 X-16.338 Y-9.628
N3290 X-15.727 Y-10.156
N3295 X-15.083 Y-10.645
N3300 X-14.41 Y-11.092
N3305 X-13.71 Y-11.496
N3310 X-12.987 Y-11.857
N3315 X-12.243 Y-12.172
N3320 X-11.481 Y-12.442
N3325 X-10.703 Y-12.664
N3330 X-9.914 Y-12.837
N3335 X-9.115 Y-12.962
N3340 X-8.311 Y-13.036
N3345 X-7.503 Y-13.059
N3350 X-6.695 Y-13.032
N3355 X-5.89 Y-12.956
N3360 X-5.092 Y-12.831
N3365 X-4.302 Y-12.659
N3370 X-3.524 Y-12.438
N3375 X-2.762 Y-12.171
N3380 X-2.016 Y-11.858
N3385 X-1.292 Y-11.5
N3390 X-0.591 Y-11.098
N3395 X0.085 Y-10.654
N3400 X0.733 Y-10.172
N3405 X1.353 Y-9.653
N3410 X1.941 Y-9.098
N3415 X2.495 Y-8.51
N3420 X3.014 Y-7.89
N3425 X3.496 Y-7.241
N3430 X3.938 Y-6.565
N3435 X4.339 Y-5.863
N3440 X4.698 Y-5.139
N3445 X5.016 Y-4.396
N3450 X5.29 Y-3.635
N3455 X5.519 Y-2.86
N3460 X5.703 Y-2.073
N3465 X5.841 Y-1.277
N3470 X5.931 Y-0.474
N3475 X5.973 Y0.333
N3480 X5.966 Y1.142
N3485 X5.911 Y1.948
N3490 X5.809 Y2.75
N3495 X5.661 Y3.544
N3500 X5.466 Y4.328
N3505 X5.224 Y5.1
N3510 X4.938 Y5.856
N3515 X4.607 Y6.593
N3520 X4.232 Y7.309
N3525 X3.814 Y8.001
N3530 X3.356 Y8.667
N3535 X2.86 Y9.305
N3540 X2.328 Y9.913
N3545 X1.761 Y10.49
N3550 X1.162 Y11.032
N3555 X0.532 Y11.538
N3560 X-0.127 Y12.007
N3565 X-0.359 Y12.152
N3570 X-0.484 Y12.217
N3575 X-0.618 Y12.263
N3580 X-0.757 Y12.289
N3585 X-1.285 Y12.344
N3590 X-1.652 Y12.384
N3595 X-1.836 Y12.412
N3600 X-2.386 Y12.531
N3605 X-2.57 Y12.574
N3610 X-2.753 Y12.629
N3615 X-2.937 Y12.686
N3620 X-3.488 Y12.862
N3625 X-3.671 Y12.928
N3630 X-4.038 Y13.065
N3635 X-4.222 Y13.145
N3640 X-4.589 Y13.322
N3645 X-4.74 Y13.399
N3650 X-4.956 Y13.521
N3655 X-5.274 Y13.68
N3660 X-5.655 Y13.834
N3665 X-6.146 Y13.988
N3670 X-6.69 Y14.111
N3675 X-7.365 Y14.208
N3680 X-8.155 Y14.258
N3685 X-8.963 Y14.243
N3690 X-9.768 Y14.171
N3695 X-10.567 Y14.047
N3700 X-11.357 Y13.875
N3705 X-12.134 Y13.654
N3710 X-12.897 Y13.387
N3715 X-13.643 Y13.076
N3720 X-14.37 Y12.722
N3725 X-15.075 Y12.328
N3730 X-15.757 Y11.894
N3735 X-16.414 Y11.423
N3740 X-17.043 Y10.916
N3745 X-17.643 Y10.374
N3750 X-18.212 Y9.8
N3755 X-18.746 Y9.193
N3760 X-19.244 Y8.557
N3765 X-19.706 Y7.894
N3770 X-20.13 Y7.206
N3775 X-20.516 Y6.495
N3780 X-20.861 Y5.764
N3785 X-21.165 Y5.016
N3790 X-21.428 Y4.251
N3795 X-21.547 Y3.829
N3800 X-21.579 Y3.652
N3805 X-21.577 Y3.473
N3810 X-21.54 Y3.297
N3815 X-21.427 Y2.937
N3820 X-21.262 Y2.386
N3825 X-21.231 Y2.203
N3830 X-21.179 Y1.836
N3835 X-21.158 Y1.652
N3840 X-21.064 Y0.734
N3845 X-21.046 Y0.551
N3850 X-21.004 Y0.
N3855 X-21.046 Y-0.551
N3860 X-21.139 Y-1.468
N3865 X-21.158 Y-1.652
N3870 X-21.179 Y-1.836
N3875 X-21.231 Y-2.203
N3880 X-21.262 Y-2.386
N3885 X-21.298 Y-2.594
N3890 X-21.329 Y-2.953
N3895 X-21.333 Y-3.34
N3900 X-21.297 Y-3.836
N3905 X-21.215 Y-4.37
N3910 X-21.063 Y-5.01
N3915 X-20.825 Y-5.744
N3920 X-20.515 Y-6.49
N3925 X-20.152 Y-7.212
N3930 X-19.743 Y-7.909
N3935 X-19.292 Y-8.58
N3940 X-18.802 Y-9.223
N3945 X-18.275 Y-9.835
N3950 X-17.714 Y-10.417
N3955 X-17.121 Y-10.967
N3960 X-16.499 Y-11.483
N3965 X-15.849 Y-11.963
N3970 X-15.173 Y-12.406
N3975 X-14.474 Y-12.812
N3980 X-13.754 Y-13.179
N3985 X-13.014 Y-13.505
N3990 X-12.258 Y-13.789
N3995 X-11.486 Y-14.03
N4000 X-10.702 Y-14.228
N4005 X-9.909 Y-14.382
N4010 X-9.108 Y-14.492
N4015 X-8.303 Y-14.557
N4020 X-7.495 Y-14.578
N4025 X-6.828 Y-14.56
N4030 X-6.632 Y-14.533
N4035 X-6.446 Y-14.466
N4040 X-6.278 Y-14.361
N4045 X-6.222 Y-14.317
N4050 X-5.874 Y-14.051
N4055 X-5.39 Y-13.767
N4060 X-4.74 Y-13.399
N4065 X-4.589 Y-13.322
N4070 X-4.222 Y-13.145
N4075 X-4.038 Y-13.065
N4080 X-3.671 Y-12.928
N4085 X-3.488 Y-12.862
N4090 X-2.87 Y-12.665
N4095 X-2.753 Y-12.629
N4100 X-2.57 Y-12.574
N4105 X-2.386 Y-12.531
N4110 X-1.836 Y-12.412
N4115 X-1.652 Y-12.384
N4120 X-1.101 Y-12.324
N4125 X-0.918 Y-12.305
N4130 X-0.638 Y-12.262
N4135 X-0.304 Y-12.183
N4140 X0.098 Y-12.052
N4145 X0.542 Y-11.868
N4150 X1.058 Y-11.602
N4155 X1.655 Y-11.232
N4160 X2.306 Y-10.753
N4165 X2.916 Y-10.223
N4170 X3.489 Y-9.653
N4175 X4.025 Y-9.048
N4180 X4.524 Y-8.413
N4185 X4.987 Y-7.75
N4190 X5.412 Y-7.062
N4195 X5.8 Y-6.353
N4200 X6.15 Y-5.625
N4205 X6.462 Y-4.879
N4210 X6.735 Y-4.119
N4215 X6.968 Y-3.345
N4220 X7.161 Y-2.56
N4225 X7.311 Y-1.766
N4230 X7.417 Y-0.964
N4235 X7.48 Y-0.159
N4240 X7.499 Y0.649
N4245 X7.476 Y1.457
N4250 X7.41 Y2.263
N4255 X7.301 Y3.064
N4260 X7.152 Y3.858
N4265 X6.96 Y4.643
N4270 X6.728 Y5.417
N4275 X6.453 Y6.178
N4280 X6.137 Y6.922
N4285 X5.781 Y7.647
N4290 X5.387 Y8.353
N4295 X4.956 Y9.036
N4300 X4.489 Y9.696
N4305 X3.989 Y10.331
N4310 X3.456 Y10.939
N4315 X2.892 Y11.518
N4320 X2.299 Y12.067
N4325 X2.191 Y12.157
N4330 X1.98 Y12.289
N4335 X1.742 Y12.361
N4340 X1.493 Y12.367
N4345 X1.101 Y12.324
N4350 X0.734 Y12.286
N4355 X0.551 Y12.27
N4360 X0. Y12.253
N4365 X-0.551 Y12.27
N4370 X-0.757 Y12.289
N4375 G3 X-1.164 Y11.762 I-0.027 J-0.399
N4380 G1 X-1.139 Y11.688 Z-2.992
N4385 X-1.115 Y11.617 Z-2.97
N4390 X-1.093 Y11.551 Z-2.933
N4395 X-1.073 Y11.494 Z-2.883
N4400 X-1.058 Y11.447 Z-2.822
N4405 X-1.046 Y11.412 Z-2.753
N4410 X-1.039 Y11.39 Z-2.678
N4415 X-1.036 Y11.383 Z-2.6
N4420 G0 Z6.
N4425 G1 X-2.053 Y-11.995 F500.
N4430 G0 Z-2.2
N4435 G1 Z-2.6 F300.
N4440 X-2.046 Y-11.998 Z-2.678
N4445 X-2.026 Y-12.007 Z-2.753
N4450 X-1.992 Y-12.023 Z-2.822
N4455 X-1.947 Y-12.044 Z-2.883
N4460 X-1.892 Y-12.069 Z-2.933
N4465 X-1.829 Y-12.098 Z-2.97
N4470 X-1.761 Y-12.13 Z-2.992
N4475 X-1.69 Y-12.163 Z-3.
N4480 G3 X-0.918 Y-12.305 I0.665 J1.436
N4485 G1 X-0.734 Y-12.286
N4490 X-0.551 Y-12.27
N4495 X0. Y-12.253
N4500 X0.551 Y-12.27
N4505 X0.734 Y-12.286
N4510 X0.918 Y-12.305
N4515 X1.116 Y-12.316
N4520 X1.318 Y-12.31
N4525 X1.56 Y-12.284
N4530 X1.805 Y-12.237
N4535 X2.1 Y-12.156
N4540 X2.437 Y-12.034
N4545 X2.804 Y-11.866
N4550 X3.233 Y-11.627
N4555 X3.715 Y-11.304
N4560 X4.232 Y-10.894
N4565 X4.816 Y-10.35
N4570 X5.361 Y-9.753
N4575 X5.864 Y-9.121
N4580 X6.328 Y-8.459
N4585 X6.756 Y-7.774
N4590 X7.148 Y-7.067
N4595 X7.504 Y-6.341
N4600 X7.825 Y-5.599
N4605 X8.109 Y-4.843
N4610 X8.356 Y-4.073
N4615 X8.564 Y-3.292
N4620 X8.735 Y-2.502
N4625 X8.867 Y-1.705
N4630 X8.959 Y-0.902
N4635 X9.013 Y-0.095
N4640 X9.028 Y0.713
N4645 X9.005 Y1.521
N4650 X8.943 Y2.326
N4655 X8.843 Y3.128
N4660 X8.704 Y3.925
N4665 X8.527 Y4.713
N4670 X8.31 Y5.492
N4675 X8.056 Y6.259
N4680 X7.765 Y7.013
N4685 X7.437 Y7.752
N4690 X7.073 Y8.474
N4695 X6.676 Y9.177
N4700 X6.245 Y9.861
N4705 X5.782 Y10.524
N4710 X5.289 Y11.164
N4715 X4.765 Y11.779
N4720 X4.211 Y12.369
N4725 X4.024 Y12.541
N4730 X3.823 Y12.681
N4735 X3.594 Y12.764
N4740 X3.35 Y12.785
N4745 X3.109 Y12.741
N4750 X2.87 Y12.665
N4755 X2.753 Y12.629
N4760 X2.57 Y12.574
N4765 X2.386 Y12.531
N4770 X1.836 Y12.412
N4775 X1.652 Y12.384
N4780 X1.493 Y12.367
N4785 G0 Z6.
N4790 G1 X-0.13 Y-11.769 F500.
N4795 G0 Z-2.2
N4800 G1 Z-2.6 F300.
N4805 X-0.124 Y-11.773 Z-2.678
N4810 X-0.106 Y-11.787 Z-2.753
N4815 X-0.076 Y-11.809 Z-2.822
N4820 X-0.036 Y-11.839 Z-2.883
N4825 X0.013 Y-11.875 Z-2.933
N4830 X0.068 Y-11.916 Z-2.97
N4835 X0.128 Y-11.961 Z-2.992
N4840 X0.191 Y-12.007 Z-3.
N4845 G3 X0.918 Y-12.305 I0.944 J1.27
N4850 G1 X1.285 Y-12.344
N4855 X1.652 Y-12.384
N4860 X1.836 Y-12.412
N4865 X2.386 Y-12.531
N4870 X2.487 Y-12.555
N4875 X2.635 Y-12.582
N4880 X2.806 Y-12.597
N4885 X2.998 Y-12.598
N4890 X3.205 Y-12.582
N4895 X3.456 Y-12.543
N4900 X3.719 Y-12.48
N4905 X4.019 Y-12.383
N4910 X4.371 Y-12.236
N4915 X4.729 Y-12.052
N4920 X5.155 Y-11.787
N4925 X5.609 Y-11.451
N4930 X6.11 Y-11.015
N4935 X6.668 Y-10.444
N4940 X7.184 Y-9.823
N4945 X7.658 Y-9.168
N4950 X8.093 Y-8.487
N4955 X8.491 Y-7.783
N4960 X8.855 Y-7.062
N4965 X9.184 Y-6.324
N4970 X9.479 Y-5.571
N4975 X9.739 Y-4.806
N4980 X9.963 Y-4.029
N4985 X10.151 Y-3.243
N4990 X10.305 Y-2.45
N4995 X10.422 Y-1.65
N5000 X10.505 Y-0.846
N5005 X10.552 Y-0.039
N5010 X10.564 Y0.769
N5015 X10.54 Y1.577
N5020 X10.482 Y2.383
N5025 X10.389 Y3.186
N5030 X10.259 Y3.984
N5035 X10.094 Y4.775
N5040 X9.893 Y5.558
N5045 X9.656 Y6.33
N5050 X9.385 Y7.092
N5055 X9.081 Y7.841
N5060 X8.744 Y8.575
N5065 X8.375 Y9.294
N5070 X7.975 Y9.997
N5075 X7.545 Y10.681
N5080 X7.085 Y11.346
N5085 X6.598 Y11.99
N5090 X6.081 Y12.612
N5095 X5.746 Y12.957
N5100 X5.531 Y13.146
N5105 X5.351 Y13.269
N5110 X5.148 Y13.348
N5115 X4.932 Y13.377
N5120 X4.715 Y13.355
N5125 X4.509 Y13.284
N5130 X4.222 Y13.145
N5135 X4.038 Y13.065
N5140 X3.671 Y12.928
N5145 X3.488 Y12.862
N5150 X3.109 Y12.741
N5155 G0 Z6.
N5160 G1 X1.517 Y-11.888 F500.
N5165 G0 Z-2.2
N5170 G1 Z-2.6 F300.
N5175 X1.523 Y-11.893 Z-2.678
N5180 X1.539 Y-11.909 Z-2.753
N5185 X1.566 Y-11.935 Z-2.822
N5190 X1.601 Y-11.969 Z-2.883
N5195 X1.645 Y-12.011 Z-2.933
N5200 X1.695 Y-12.059 Z-2.97
N5205 X1.749 Y-12.112 Z-2.992
N5210 X1.805 Y-12.166 Z-3.
N5215 G3 X2.487 Y-12.555 I1.1 J1.138
N5220 G1 X2.57 Y-12.574
N5225 X2.753 Y-12.629
N5230 X2.937 Y-12.686
N5235 X3.488 Y-12.862
N5240 X3.671 Y-12.928
N5245 X3.852 Y-12.986
N5250 X3.998 Y-13.019
N5255 X4.161 Y-13.042
N5260 X4.351 Y-13.054
N5265 X4.55 Y-13.05
N5270 X4.79 Y-13.025
N5275 X5.042 Y-12.979
N5280 X5.33 Y-12.902
N5285 X5.65 Y-12.788
N5290 X5.994 Y-12.634
N5295 X6.394 Y-12.414
N5300 X6.809 Y-12.141
N5305 X7.27 Y-11.78
N5310 X7.785 Y-11.307
N5315 X8.334 Y-10.713
N5320 X8.834 Y-10.079
N5325 X9.292 Y-9.413
N5330 X9.711 Y-8.721
N5335 X10.093 Y-8.009
N5340 X10.441 Y-7.28
N5345 X10.755 Y-6.535
N5350 X11.036 Y-5.777
N5355 X11.284 Y-5.008
N5360 X11.5 Y-4.229
N5365 X11.682 Y-3.442
N5370 X11.832 Y-2.647
N5375 X11.95 Y-1.848
N5380 X12.035 Y-1.044
N5385 X12.087 Y-0.237
N5390 X12.107 Y0.571
N5395 X12.094 Y1.379
N5400 X12.048 Y2.186
N5405 X11.969 Y2.99
N5410 X11.857 Y3.79
N5415 X11.711 Y4.585
N5420 X11.533 Y5.374
N5425 X11.323 Y6.154
N5430 X11.081 Y6.925
N5435 X10.807 Y7.686
N5440 X10.503 Y8.434
N5445 X10.168 Y9.17
N5450 X9.805 Y9.892
N5455 X9.412 Y10.599
N5460 X8.991 Y11.289
N5465 X8.542 Y11.961
N5470 X8.066 Y12.614
N5475 X7.606 Y13.182
N5480 X7.277 Y13.527
N5485 X7.003 Y13.772
N5490 X6.77 Y13.949
N5495 X6.74 Y13.968
N5500 X6.507 Y14.075
N5505 X6.255 Y14.115
N5510 X6.001 Y14.085
N5515 X5.765 Y13.987
N5520 X5.39 Y13.767
N5525 X4.74 Y13.399
N5530 X4.589 Y13.322
N5535 X4.509 Y13.284
N5540 G3 X4.441 Y12.622 I0.187 J-0.354
N5545 G1 X4.501 Y12.572 Z-2.992
N5550 X4.559 Y12.525 Z-2.97
N5555 X4.612 Y12.48 Z-2.933
N5560 X4.659 Y12.442 Z-2.883
N5565 X4.697 Y12.41 Z-2.822
N5570 X4.725 Y12.386 Z-2.753
N5575 X4.743 Y12.372 Z-2.678
N5580 X4.749 Y12.367 Z-2.6
N5585 G0 Z6.
N5590 G1 X2.792 Y-12.146 F500.
N5595 G0 Z-2.2
N5600 G1 Z-2.6 F300.
N5605 X2.796 Y-12.152 Z-2.678
N5610 X2.811 Y-12.17 Z-2.753
N5615 X2.834 Y-12.199 Z-2.822
N5620 X2.865 Y-12.237 Z-2.883
N5625 X2.903 Y-12.285 Z-2.933
N5630 X2.946 Y-12.339 Z-2.97
N5635 X2.993 Y-12.397 Z-2.992
N5640 X3.042 Y-12.458 Z-3.
N5645 G3 X3.671 Y-12.928 I1.233 J0.992
N5650 G1 X4.038 Y-13.065
N5655 X4.222 Y-13.145
N5660 X4.589 Y-13.322
N5665 X4.74 Y-13.399
N5670 X4.772 Y-13.418
N5675 X4.907 Y-13.485
N5680 X5.047 Y-13.538
N5685 X5.191 Y-13.579
N5690 X5.354 Y-13.61
N5695 X5.542 Y-13.631
N5700 X5.742 Y-13.636
N5705 X5.983 Y-13.624
N5710 X6.227 Y-13.592
N5715 X6.522 Y-13.528
N5720 X6.822 Y-13.438
N5725 X7.178 Y-13.299
N5730 X7.544 Y-13.121
N5735 X7.978 Y-12.864
N5740 X8.408 Y-12.562
N5745 X8.903 Y-12.149
N5750 X9.439 Y-11.625
N5755 X9.969 Y-11.016
N5760 X10.453 Y-10.368
N5765 X10.895 Y-9.692
N5770 X11.299 Y-8.992
N5775 X11.668 Y-8.272
N5780 X12.003 Y-7.537
N5785 X12.305 Y-6.787
N5790 X12.577 Y-6.026
N5795 X12.818 Y-5.255
N5800 X13.028 Y-4.474
N5805 X13.207 Y-3.686
N5810 X13.356 Y-2.892
N5815 X13.476 Y-2.092
N5820 X13.565 Y-1.289
N5825 X13.624 Y-0.483
N5830 X13.652 Y0.325
N5835 X13.65 Y1.133
N5840 X13.616 Y1.941
N5845 X13.551 Y2.746
N5850 X13.455 Y3.549
N5855 X13.329 Y4.347
N5860 X13.173 Y5.14
N5865 X12.986 Y5.926
N5870 X12.77 Y6.705
N5875 X12.525 Y7.475
N5880 X12.25 Y8.236
N5885 X11.948 Y8.985
N5890 X11.618 Y9.723
N5895 X11.26 Y10.448
N5900 X10.875 Y11.158
N5905 X10.463 Y11.854
N5910 X10.025 Y12.533
N5915 X9.559 Y13.193
N5920 X9.087 Y13.788
N5925 X8.715 Y14.187
N5930 X8.407 Y14.468
N5935 X8.165 Y14.656
N5940 X7.909 Y14.823
N5945 X7.813 Y14.875
N5950 X7.603 Y14.958
N5955 X7.379 Y14.988
N5960 X7.155 Y14.964
N5965 X6.943 Y14.887
N5970 X6.755 Y14.76
N5975 X6.456 Y14.501
N5980 X6.222 Y14.317
N5985 X5.874 Y14.051
N5990 X5.765 Y13.987
N5995 G3 X5.749 Y13.322 I0.214 J-0.338
N6000 G1 X5.813 Y13.277 Z-2.992
N6005 X5.874 Y13.234 Z-2.97
N6010 X5.931 Y13.194 Z-2.933
N6015 X5.98 Y13.159 Z-2.883
N6020 X6.021 Y13.13 Z-2.822
N6025 X6.051 Y13.109 Z-2.753
N6030 X6.07 Y13.096 Z-2.678
N6035 X6.076 Y13.092 Z-2.6
N6040 G0 Z6.
N6045 G1 X4.026 Y-12.507 F500.
N6050 G0 Z-2.2
N6055 G1 Z-2.6 F300.
N6060 X4.03 Y-12.514 Z-2.678
N6065 X4.041 Y-12.534 Z-2.753
N6070 X4.06 Y-12.566 Z-2.822
N6075 X4.084 Y-12.609 Z-2.883
N6080 X4.115 Y-12.662 Z-2.933
N6085 X4.149 Y-12.722 Z-2.97
N6090 X4.186 Y-12.787 Z-2.992
N6095 X4.225 Y-12.854 Z-3.
N6100 G3 X4.772 Y-13.418 I1.373 J0.787
N6105 G1 X5.39 Y-13.767
N6110 X5.874 Y-14.051
N6115 X6.003 Y-14.127
N6120 X6.141 Y-14.185
N6125 X6.285 Y-14.232
N6130 X6.448 Y-14.271
N6135 X6.637 Y-14.3
N6140 X6.839 Y-14.315
N6145 X7.083 Y-14.313
N6150 X7.332 Y-14.291
N6155 X7.629 Y-14.241
N6160 X7.929 Y-14.165
N6165 X8.292 Y-14.041
N6170 X8.652 Y-13.885
N6175 X9.085 Y-13.654
N6180 X9.519 Y-13.376
N6185 X10.007 Y-13.006
N6190 X10.538 Y-12.53
N6195 X11.095 Y-11.944
N6200 X11.603 Y-11.316
N6205 X12.069 Y-10.655
N6210 X12.494 Y-9.967
N6215 X12.883 Y-9.259
N6220 X13.238 Y-8.533
N6225 X13.562 Y-7.792
N6230 X13.855 Y-7.039
N6235 X14.119 Y-6.275
N6240 X14.353 Y-5.502
N6245 X14.558 Y-4.72
N6250 X14.735 Y-3.931
N6255 X14.884 Y-3.137
N6260 X15.005 Y-2.338
N6265 X15.097 Y-1.535
N6270 X15.162 Y-0.729
N6275 X15.197 Y0.078
N6280 X15.204 Y0.887
N6285 X15.181 Y1.694
N6290 X15.129 Y2.501
N6295 X15.048 Y3.305
N6300 X14.939 Y4.106
N6305 X14.801 Y4.902
N6310 X14.636 Y5.693
N6315 X14.442 Y6.478
N6320 X14.221 Y7.256
N6325 X13.973 Y8.025
N6330 X13.698 Y8.785
N6335 X13.397 Y9.535
N6340 X13.07 Y10.274
N6345 X12.718 Y11.002
N6350 X12.34 Y11.716
N6355 X11.936 Y12.416
N6360 X11.507 Y13.101
N6365 X11.049 Y13.767
N6370 X10.554 Y14.406
N6375 X10.108 Y14.897
N6380 X9.749 Y15.234
N6385 X9.432 Y15.486
N6390 X9.175 Y15.66
N6395 X8.918 Y15.804
N6400 X8.779 Y15.868
N6405 X8.53 Y15.943
N6410 X8.27 Y15.946
N6415 X8.019 Y15.877
N6420 X7.797 Y15.742
N6425 X7.621 Y15.551
N6430 X7.605 Y15.528
N6435 X7.087 Y15.051
N6440 X6.975 Y14.951
N6445 X6.755 Y14.76
N6450 G3 X6.862 Y14.104 I0.272 J-0.293
N6455 G1 X6.933 Y14.071 Z-2.992
N6460 X7.001 Y14.04 Z-2.97
N6465 X7.064 Y14.011 Z-2.933
N6470 X7.119 Y13.986 Z-2.883
N6475 X7.164 Y13.965 Z-2.822
N6480 X7.198 Y13.95 Z-2.753
N6485 X7.218 Y13.941 Z-2.678
N6490 X7.225 Y13.937 Z-2.6
N6495 G0 Z6.
N6500 G1 X5.261 Y-13.046 F500.
N6505 G0 Z-2.2
N6510 G1 Z-2.6 F300.
N6515 X5.263 Y-13.053 Z-2.678
N6520 X5.272 Y-13.074 Z-2.753
N6525 X5.286 Y-13.109 Z-2.822
N6530 X5.304 Y-13.155 Z-2.883
N6535 X5.327 Y-13.211 Z-2.933
N6540 X5.353 Y-13.275 Z-2.97
N6545 X5.38 Y-13.345 Z-2.992
N6550 X5.41 Y-13.417 Z-3.
N6555 G3 X5.874 Y-14.051 I1.469 J0.589
N6560 G1 X6.241 Y-14.331
N6565 X6.456 Y-14.501
N6570 X6.668 Y-14.684
N6575 X6.786 Y-14.777
N6580 X6.913 Y-14.856
N6585 X7.048 Y-14.922
N6590 X7.199 Y-14.981
N6595 X7.362 Y-15.03
N6600 X7.554 Y-15.071
N6605 X7.761 Y-15.098
N6610 X8. Y-15.109
N6615 X8.262 Y-15.101
N6620 X8.556 Y-15.068
N6625 X8.869 Y-15.008
N6630 X9.229 Y-14.907
N6635 X9.599 Y-14.771
N6640 X10.038 Y-14.568
N6645 X10.469 Y-14.325
N6650 X10.97 Y-13.987
N6655 X11.507 Y-13.558
N6660 X12.051 Y-13.047
N6665 X12.594 Y-12.448
N6670 X13.091 Y-11.811
N6675 X13.547 Y-11.144
N6680 X13.967 Y-10.453
N6685 X14.352 Y-9.742
N6690 X14.705 Y-9.015
N6695 X15.027 Y-8.274
N6700 X15.321 Y-7.521
N6705 X15.586 Y-6.758
N6710 X15.824 Y-5.985
N6715 X16.034 Y-5.205
N6720 X16.218 Y-4.418
N6725 X16.375 Y-3.625
N6730 X16.505 Y-2.827
N6735 X16.608 Y-2.025
N6740 X16.684 Y-1.221
N6745 X16.733 Y-0.414
N6750 X16.755 Y0.394
N6755 X16.75 Y1.202
N6760 X16.718 Y2.01
N6765 X16.659 Y2.816
N6770 X16.573 Y3.619
N6775 X16.46 Y4.42
N6780 X16.321 Y5.216
N6785 X16.156 Y6.007
N6790 X15.964 Y6.792
N6795 X15.748 Y7.571
N6800 X15.505 Y8.342
N6805 X15.238 Y9.105
N6810 X14.946 Y9.858
N6815 X14.629 Y10.602
N6820 X14.287 Y11.334
N6825 X13.921 Y12.055
N6830 X13.531 Y12.763
N6835 X13.116 Y13.457
N6840 X12.674 Y14.133
N6845 X12.2 Y14.788
N6850 X11.687 Y15.412
N6855 X11.242 Y15.873
N6860 X10.826 Y16.24
N6865 X10.489 Y16.492
N6870 X10.196 Y16.677
N6875 X9.938 Y16.812
N6880 X9.68 Y16.921
N6885 X9.46 Y16.994
N6890 X9.22 Y17.054
N6895 X9.133 Y17.067
N6900 X8.877 Y17.073
N6905 X8.628 Y17.009
N6910 X8.406 Y16.879
N6915 X8.229 Y16.694
N6920 X8.108 Y16.467
N6925 X7.951 Y16.038
N6930 X7.637 Y15.574
N6935 X7.621 Y15.551
N6940 G3 X7.887 Y14.941 I0.337 J-0.216
N6945 G1 X7.964 Y14.927 Z-2.992
N6950 X8.038 Y14.914 Z-2.97
N6955 X8.106 Y14.902 Z-2.933
N6960 X8.166 Y14.891 Z-2.883
N6965 X8.215 Y14.883 Z-2.822
N6970 X8.251 Y14.876 Z-2.753
N6975 X8.274 Y14.872 Z-2.678
N6980 X8.281 Y14.871 Z-2.6
N6985 G0 Z6.
N6990 G1 X6.118 Y-13.644 F500.
N6995 G0 Z-2.2
N7000 G1 Z-2.6 F300.
N7005 X6.12 Y-13.651 Z-2.678
N7010 X6.127 Y-13.673 Z-2.753
N7015 X6.139 Y-13.708 Z-2.822
N7020 X6.155 Y-13.755 Z-2.883
N7025 X6.174 Y-13.812 Z-2.933
N7030 X6.195 Y-13.878 Z-2.97
N7035 X6.219 Y-13.949 Z-2.992
N7040 X6.243 Y-14.023 Z-3.
N7045 G3 X6.668 Y-14.684 I1.502 J0.498
N7050 G1 X6.975 Y-14.951
N7055 X7.087 Y-15.051
N7060 X7.526 Y-15.454
N7065 X7.647 Y-15.556
N7070 X7.77 Y-15.643
N7075 X7.9 Y-15.718
N7080 X8.045 Y-15.785
N7085 X8.207 Y-15.845
N7090 X8.393 Y-15.897
N7095 X8.601 Y-15.938
N7100 X8.835 Y-15.965
N7105 X9.099 Y-15.973
N7110 X9.388 Y-15.959
N7115 X9.704 Y-15.919
N7120 X10.061 Y-15.843
N7125 X10.436 Y-15.732
N7130 X10.877 Y-15.561
N7135 X11.313 Y-15.351
N7140 X11.812 Y-15.059
N7145 X12.355 Y-14.679
N7150 X12.893 Y-14.235
N7155 X13.473 Y-13.672
N7160 X14.007 Y-13.065
N7165 X14.498 Y-12.424
N7170 X14.952 Y-11.755
N7175 X15.371 Y-11.064
N7180 X15.758 Y-10.354
N7185 X16.114 Y-9.628
N7190 X16.441 Y-8.889
N7195 X16.74 Y-8.138
N7200 X17.012 Y-7.377
N7205 X17.257 Y-6.607
N7210 X17.477 Y-5.829
N7215 X17.671 Y-5.045
N7220 X17.839 Y-4.254
N7225 X17.981 Y-3.458
N7230 X18.097 Y-2.659
N7235 X18.189 Y-1.856
N7240 X18.255 Y-1.05
N7245 X18.295 Y-0.243
N7250 X18.31 Y0.565
N7255 X18.3 Y1.373
N7260 X18.264 Y2.181
N7265 X18.203 Y2.987
N7270 X18.117 Y3.79
N7275 X18.006 Y4.591
N7280 X17.871 Y5.388
N7285 X17.711 Y6.18
N7290 X17.526 Y6.967
N7295 X17.317 Y7.748
N7300 X17.084 Y8.522
N7305 X16.827 Y9.288
N7310 X16.546 Y10.046
N7315 X16.241 Y10.794
N7320 X15.914 Y11.533
N7325 X15.563 Y12.261
N7330 X15.189 Y12.978
N7335 X14.792 Y13.682
N7340 X14.37 Y14.371
N7345 X13.92 Y15.042
N7350 X13.438 Y15.692
N7355 X12.917 Y16.309
N7360 X12.407 Y16.828
N7365 X11.964 Y17.212
N7370 X11.536 Y17.527
N7375 X11.136 Y17.774
N7380 X11.08 Y17.802
N7385 X10.839 Y17.886
N7390 X10.585 Y17.902
N7395 X10.335 Y17.848
N7400 X10.279 Y17.828
N7405 X10.268 Y17.825
N7410 X9.912 Y17.783
N7415 X9.728 Y17.763
N7420 X9.545 Y17.771
N7425 X9.361 Y17.793
N7430 X9.285 Y17.805
N7435 X9.178 Y17.824
N7440 X9.147 Y17.831
N7445 X9.101 Y17.842
N7450 X8.953 Y17.87
N7455 X8.818 Y17.861
N7460 X8.687 Y17.829
N7465 X8.562 Y17.777
N7470 G3 X8.807 Y17.032 I0.198 J-0.348
N7475 G1 X9.041 Y17.059
N7480 G3 X9.101 Y17.842 I-0.047 J0.397
N7485 G1 X8.994 Y17.868
N7490 X8.948 Y17.874
N7495 X8.902 Y17.877
N7500 X8.811 Y17.87
N7505 X8.765 Y17.863
N7510 X8.719 Y17.85
N7515 X8.616 Y17.805
N7520 X8.53 Y17.76
N7525 X8.487 Y17.728
N7530 X8.443 Y17.688
N7535 X8.379 Y17.621
N7540 X8.342 Y17.575
N7545 X8.316 Y17.529
N7550 X8.273 Y17.438
N7555 X8.26 Y17.406
N7560 X8.247 Y17.368
N7565 X8.239 Y17.33
N7570 X8.212 Y17.071
N7575 X8.144 Y16.566
N7580 X8.108 Y16.467
N7585 G3 X8.519 Y15.944 I0.38 J-0.124
N7590 G1 X8.596 Y15.95 Z-2.992
N7595 X8.671 Y15.956 Z-2.97
N7600 X8.74 Y15.961 Z-2.933
N7605 X8.801 Y15.966 Z-2.883
N7610 X8.85 Y15.969 Z-2.822
N7615 X8.887 Y15.972 Z-2.753
N7620 X8.91 Y15.974 Z-2.678
N7625 X8.917 Y15.975 Z-2.6
N7630 G0 Z6.
N7635 G1 X7.011 Y-14.396 F500.
N7640 G0 Z-2.2
N7645 G1 Z-2.6 F300.
N7650 X7.013 Y-14.403 Z-2.678
N7655 X7.019 Y-14.425 Z-2.753
N7660 X7.03 Y-14.46 Z-2.822
N7665 X7.044 Y-14.508 Z-2.883
N7670 X7.061 Y-14.566 Z-2.933
N7675 X7.081 Y-14.633 Z-2.97
N7680 X7.102 Y-14.704 Z-2.992
N7685 X7.124 Y-14.779 Z-3.
N7690 G3 X7.526 Y-15.454 I1.518 J0.447
N7695 G1 X7.605 Y-15.528
N7700 X7.709 Y-15.68
N7705 X7.951 Y-16.038
N7710 X7.959 Y-16.061
N7715 X8.018 Y-16.199
N7720 X8.113 Y-16.315
N7725 X8.22 Y-16.42
N7730 X8.337 Y-16.514
N7735 X8.468 Y-16.6
N7740 X8.612 Y-16.68
N7745 X8.785 Y-16.758
N7750 X8.972 Y-16.825
N7755 X9.195 Y-16.885
N7760 X9.428 Y-16.929
N7765 X9.709 Y-16.958
N7770 X9.999 Y-16.964
N7775 X10.337 Y-16.945
N7780 X10.692 Y-16.895
N7785 X11.089 Y-16.807
N7790 X11.535 Y-16.67
N7795 X11.988 Y-16.49
N7800 X12.5 Y-16.237
N7805 X13.055 Y-15.904
N7810 X13.603 Y-15.513
N7815 X14.205 Y-15.005
N7820 X14.779 Y-14.436
N7825 X15.312 Y-13.828
N7830 X15.806 Y-13.189
N7835 X16.264 Y-12.523
N7840 X16.69 Y-11.836
N7845 X17.084 Y-11.13
N7850 X17.449 Y-10.409
N7855 X17.786 Y-9.675
N7860 X18.096 Y-8.928
N7865 X18.379 Y-8.171
N7870 X18.637 Y-7.405
N7875 X18.869 Y-6.631
N7880 X19.077 Y-5.85
N7885 X19.26 Y-5.063
N7890 X19.418 Y-4.27
N7895 X19.553 Y-3.473
N7900 X19.664 Y-2.672
N7905 X19.75 Y-1.869
N7910 X19.813 Y-1.063
N7915 X19.852 Y-0.256
N7920 X19.866 Y0.552
N7925 X19.857 Y1.361
N7930 X19.825 Y2.168
N7935 X19.768 Y2.974
N7940 X19.688 Y3.779
N7945 X19.584 Y4.58
N7950 X19.457 Y5.378
N7955 X19.306 Y6.172
N7960 X19.132 Y6.962
N7965 X18.934 Y7.745
N7970 X18.714 Y8.523
N7975 X18.471 Y9.294
N7980 X18.205 Y10.057
N7985 X17.917 Y10.812
N7990 X17.607 Y11.559
N7995 X17.276 Y12.296
N8000 X16.922 Y13.022
N8005 X16.546 Y13.738
N8010 X16.147 Y14.441
N8015 X15.724 Y15.13
N8020 X15.275 Y15.801
N8025 X14.795 Y16.451
N8030 X14.278 Y17.073
N8035 X13.725 Y17.655
N8040 X13.195 Y18.131
N8045 X12.822 Y18.415
N8050 X12.524 Y18.606
N8055 X12.492 Y18.623
N8060 X12.267 Y18.708
N8065 X12.027 Y18.732
N8070 X11.789 Y18.694
N8075 X11.568 Y18.597
N8080 X11.38 Y18.446
N8085 X11.33 Y18.394
N8090 X11.318 Y18.382
N8095 X10.816 Y18.024
N8100 X10.335 Y17.848
N8105 G3 X10.2 Y17.197 I0.15 J-0.371
N8110 G1 X10.255 Y17.141 Z-2.992
N8115 X10.307 Y17.088 Z-2.97
N8120 X10.356 Y17.039 Z-2.933
N8125 X10.398 Y16.995 Z-2.883
N8130 X10.433 Y16.96 Z-2.822
N8135 X10.459 Y16.934 Z-2.753
N8140 X10.475 Y16.917 Z-2.678
N8145 X10.48 Y16.912 Z-2.6
N8150 G0 Z6.
N8155 G1 X7.981 Y-14.884 F500.
N8160 G0 Z-2.2
N8165 G1 Z-2.6 F300.
N8170 X7.98 Y-14.892 Z-2.678
N8175 X7.976 Y-14.914 Z-2.753
N8180 X7.969 Y-14.95 Z-2.822
N8185 X7.96 Y-14.999 Z-2.883
N8190 X7.949 Y-15.059 Z-2.933
N8195 X7.936 Y-15.127 Z-2.97
N8200 X7.922 Y-15.201 Z-2.992
N8205 X7.908 Y-15.277 Z-3.
N8210 G3 X7.959 Y-16.061 I1.555 J-0.292
N8215 G1 X8.144 Y-16.566
N8220 X8.157 Y-16.662
N8225 X8.184 Y-16.81
N8230 X8.24 Y-16.949
N8235 X8.313 Y-17.08
N8240 X8.4 Y-17.202
N8245 X8.499 Y-17.314
N8250 X8.608 Y-17.418
N8255 X8.738 Y-17.523
N8260 X8.886 Y-17.624
N8265 X8.944 Y-17.658
N8270 X9.126 Y-17.737
N8275 X9.32 Y-17.777
N8280 X9.518 Y-17.774
N8285 G3 X9.714 Y-17.073 I-0.061 J0.395
N8290 G1 X8.812 Y-16.316
N8295 G3 X8.157 Y-16.662 I-0.257 J-0.307
N8300 G1 X8.212 Y-17.071
N8305 X8.239 Y-17.33
N8310 X8.247 Y-17.368
N8315 X8.26 Y-17.406
N8320 X8.273 Y-17.438
N8325 X8.316 Y-17.529
N8330 X8.342 Y-17.575
N8335 X8.379 Y-17.621
N8340 X8.443 Y-17.688
N8345 X8.487 Y-17.728
N8350 X8.53 Y-17.76
N8355 X8.627 Y-17.81
N8360 X8.719 Y-17.85
N8365 X8.765 Y-17.863
N8370 X8.811 Y-17.87
N8375 X8.902 Y-17.877
N8380 X8.948 Y-17.874
N8385 X8.994 Y-17.868
N8390 X9.178 Y-17.824
N8395 X9.285 Y-17.805
N8400 X9.361 Y-17.793
N8405 X9.545 Y-17.771
N8410 X9.728 Y-17.763
N8415 X9.912 Y-17.783
N8420 X10.268 Y-17.825
N8425 X10.279 Y-17.828
N8430 X10.424 Y-17.867
N8435 X10.682 Y-17.9
N8440 X10.975 Y-17.913
N8445 X11.299 Y-17.902
N8450 X11.657 Y-17.861
N8455 X12.065 Y-17.781
N8460 X12.489 Y-17.661
N8465 X12.979 Y-17.48
N8470 X13.486 Y-17.243
N8475 X14.031 Y-16.934
N8480 X14.63 Y-16.527
N8485 X15.261 Y-16.021
N8490 X15.848 Y-15.466
N8495 X16.396 Y-14.872
N8500 X16.907 Y-14.246
N8505 X17.383 Y-13.593
N8510 X17.827 Y-12.917
N8515 X18.239 Y-12.222
N8520 X18.623 Y-11.51
N8525 X18.979 Y-10.785
N8530 X19.309 Y-10.047
N8535 X19.614 Y-9.298
N8540 X19.893 Y-8.54
N8545 X20.148 Y-7.773
N8550 X20.38 Y-6.999
N8555 X20.588 Y-6.218
N8560 X20.772 Y-5.431
N8565 X20.934 Y-4.639
N8570 X21.072 Y-3.843
N8575 X21.188 Y-3.043
N8580 X21.248 Y-2.527
N8585 X21.254 Y-2.439
N8590 X21.252 Y-2.351
N8595 X21.241 Y-2.263
N8600 X21.231 Y-2.203
N8605 X21.179 Y-1.836
N8610 X21.158 Y-1.652
N8615 X21.064 Y-0.734
N8620 X21.046 Y-0.551
N8625 X21.004 Y0.
N8630 X21.046 Y0.551
N8635 X21.139 Y1.468
N8640 X21.158 Y1.652
N8645 X21.209 Y2.459
N8650 X21.214 Y3.267
N8655 X21.169 Y4.074
N8660 X21.085 Y4.878
N8665 X20.969 Y5.677
N8670 X20.825 Y6.473
N8675 X20.656 Y7.263
N8680 X20.464 Y8.048
N8685 X20.249 Y8.827
N8690 X20.011 Y9.6
N8695 X19.752 Y10.366
N8700 X19.472 Y11.124
N8705 X19.17 Y11.873
N8710 X18.847 Y12.614
N8715 X18.503 Y13.346
N8720 X18.138 Y14.066
N8725 X17.75 Y14.776
N8730 X17.341 Y15.473
N8735 X16.906 Y16.154
N8740 X16.445 Y16.818
N8745 X15.953 Y17.459
N8750 X15.429 Y18.074
N8755 X14.867 Y18.656
N8760 X14.44 Y19.033
N8765 X14.1 Y19.287
N8770 X13.835 Y19.454
N8775 X13.564 Y19.595
N8780 X13.337 Y19.692
N8785 X13.091 Y19.774
N8790 X12.968 Y19.804
N8795 X12.738 Y19.831
N8800 X12.508 Y19.8
N8805 X12.293 Y19.714
N8810 X12.106 Y19.577
N8815 X11.958 Y19.398
N8820 X11.859 Y19.189
N8825 G3 X11.876 Y18.896 I0.38 J-0.125
N8830 G1 X12.08 Y18.456
N8835 X20.171 Y1.002
N8840 G3 X20.853 Y0.928 I0.363 J0.168
N8845 X21.158 Y1.652 I-1.26 J0.957
N8850 G1 X21.179 Y1.836
N8855 X21.231 Y2.203
N8860 X21.262 Y2.386
N8865 X21.427 Y2.937
N8870 X21.772 Y4.038
N8875 X21.843 Y4.23
N8880 X21.975 Y4.597
N8885 X22.055 Y4.894
N8890 X22.122 Y5.252
N8895 X22.17 Y5.711
N8900 X22.183 Y6.277
N8905 X22.141 Y7.026
N8910 X22.031 Y7.826
N8915 X21.87 Y8.619
N8920 X21.673 Y9.402
N8925 X21.445 Y10.178
N8930 X21.191 Y10.945
N8935 X20.914 Y11.704
N8940 X20.614 Y12.455
N8945 X20.294 Y13.197
N8950 X19.952 Y13.93
N8955 X19.591 Y14.652
N8960 X19.208 Y15.364
N8965 X18.803 Y16.064
N8970 X18.374 Y16.749
N8975 X17.92 Y17.417
N8980 X17.438 Y18.066
N8985 X16.926 Y18.692
N8990 X16.382 Y19.289
N8995 X15.894 Y19.754
N9000 X15.437 Y20.124
N9005 X15.027 Y20.405
N9010 X14.671 Y20.609
N9015 X14.341 Y20.765
N9020 X14.073 Y20.865
N9025 X13.8 Y20.944
N9030 X13.569 Y20.99
N9035 X13.324 Y21.019
N9040 X13.11 Y21.028
N9045 X12.899 Y21.019
N9050 X12.86 Y21.014
N9055 X12.612 Y20.948
N9060 X12.392 Y20.817
N9065 X12.215 Y20.63
N9070 X12.096 Y20.403
N9075 X12.043 Y20.151
N9080 X12.033 Y20.007
N9085 X11.992 Y19.594
N9090 X11.859 Y19.189
N9095 G3 X11.904 Y18.864 I0.384 J-0.111
N9100 G1 X12.143 Y18.485
N9105 X21.141 Y4.184
N9110 G3 X21.843 Y4.23 I0.339 J0.213
N9115 G1 X22.027 Y4.671
N9120 X22.078 Y4.772
N9125 X22.278 Y5.14
N9130 X22.788 Y6.057
N9135 X22.929 Y6.344
N9140 X23.016 Y6.562
N9145 X23.094 Y6.817
N9150 X23.165 Y7.141
N9155 X23.216 Y7.51
N9160 X23.243 Y7.986
N9165 X23.229 Y8.553
N9170 X23.152 Y9.288
N9175 X23.003 Y10.082
N9180 X22.803 Y10.865
N9185 X22.565 Y11.638
N9190 X22.296 Y12.4
N9195 X22.001 Y13.153
N9200 X21.683 Y13.896
N9205 X21.343 Y14.629
N9210 X20.982 Y15.352
N9215 X20.6 Y16.064
N9220 X20.196 Y16.765
N9225 X19.77 Y17.451
N9230 X19.32 Y18.122
N9235 X18.844 Y18.775
N9240 X18.339 Y19.407
N9245 X17.803 Y20.012
N9250 X17.231 Y20.582
N9255 X16.695 Y21.037
N9260 X16.183 Y21.405
N9265 X15.728 Y21.68
N9270 X15.298 Y21.895
N9275 X14.881 Y22.062
N9280 X14.491 Y22.184
N9285 X14.166 Y22.257
N9290 X13.845 Y22.303
N9295 X13.582 Y22.319
N9300 X13.329 Y22.314
N9305 X13.087 Y22.29
N9310 X12.882 Y22.253
N9315 X12.665 Y22.195
N9320 X12.657 Y22.192
N9325 X12.457 Y22.093
N9330 X12.286 Y21.949
N9335 X12.155 Y21.769
N9340 X12.07 Y21.562
N9345 X12.036 Y21.342
N9350 X12.035 Y21.292
N9355 X12.046 Y20.191
N9360 X12.043 Y20.151
N9365 G3 X12.119 Y19.904 I0.4 J-0.013
N9370 G1 X12.424 Y19.481
N9375 X22.121 Y6.03
N9380 G3 X22.788 Y6.057 I0.324 J0.234
N9385 G1 X22.89 Y6.241
N9390 X22.944 Y6.328
N9395 X23.006 Y6.424
N9400 X23.128 Y6.583
N9405 X23.495 Y7.029
N9410 X23.679 Y7.244
N9415 X23.804 Y7.405
N9420 X23.896 Y7.547
N9425 X23.994 Y7.726
N9430 X24.09 Y7.942
N9435 X24.173 Y8.177
N9440 X24.251 Y8.476
N9445 X24.313 Y8.821
N9450 X24.353 Y9.232
N9455 X24.361 Y9.728
N9460 X24.322 Y10.348
N9465 X24.211 Y11.114
N9470 X24.031 Y11.902
N9475 X23.801 Y12.677
N9480 X23.534 Y13.44
N9485 X23.237 Y14.191
N9490 X22.914 Y14.932
N9495 X22.568 Y15.662
N9500 X22.199 Y16.381
N9505 X21.809 Y17.089
N9510 X21.397 Y17.784
N9515 X20.962 Y18.466
N9520 X20.504 Y19.132
N9525 X20.02 Y19.779
N9530 X19.51 Y20.406
N9535 X18.969 Y21.007
N9540 X18.393 Y21.574
N9545 X17.789 Y22.09
N9550 X17.197 Y22.518
N9555 X16.62 Y22.868
N9560 X16.09 Y23.134
N9565 X15.587 Y23.338
N9570 X15.11 Y23.488
N9575 X14.664 Y23.59
N9580 X14.251 Y23.649
N9585 X13.861 Y23.674
N9590 X13.542 Y23.669
N9595 X13.25 Y23.64
N9600 X12.999 Y23.595
N9605 X12.863 Y23.56
N9610 X12.663 Y23.481
N9615 X12.486 Y23.359
N9620 X12.341 Y23.199
N9625 X12.237 Y23.01
N9630 X12.179 Y22.803
N9635 X12.145 Y22.577
N9640 X12.071 Y22.027
N9645 X12.058 Y21.843
N9650 X12.04 Y21.476
N9655 X12.036 Y21.342
N9660 G3 X12.122 Y21.095 I0.4 J0.001
N9665 G1 X12.445 Y20.688
N9670 X23.012 Y7.34
N9675 X23.071 Y7.266
N9680 G3 X23.679 Y7.244 I0.314 J0.248
N9685 G1 X24.079 Y7.709
N9690 X24.415 Y8.076
N9695 X24.587 Y8.26
N9700 X24.652 Y8.313
N9705 X24.764 Y8.413
N9710 X24.863 Y8.525
N9715 X24.959 Y8.654
N9720 X25.062 Y8.818
N9725 X25.164 Y9.012
N9730 X25.256 Y9.229
N9735 X25.347 Y9.504
N9740 X25.424 Y9.816
N9745 X25.482 Y10.177
N9750 X25.517 Y10.617
N9755 Y11.129
N9760 X25.467 Y11.743
N9765 X25.343 Y12.51
N9770 X25.149 Y13.295
N9775 X24.907 Y14.066
N9780 X24.626 Y14.824
N9785 X24.314 Y15.57
N9790 X23.976 Y16.304
N9795 X23.613 Y17.026
N9800 X23.228 Y17.737
N9805 X22.822 Y18.435
N9810 X22.393 Y19.12
N9815 X21.941 Y19.79
N9820 X21.464 Y20.443
N9825 X20.963 Y21.077
N9830 X20.433 Y21.687
N9835 X19.872 Y22.269
N9840 X19.279 Y22.819
N9845 X18.652 Y23.328
N9850 X17.989 Y23.791
N9855 X17.335 Y24.174
N9860 X16.704 Y24.478
N9865 X16.114 Y24.706
N9870 X15.544 Y24.875
N9875 X15.003 Y24.99
N9880 X14.501 Y25.054
N9885 X14.076 Y25.074
N9890 X13.701 Y25.062
N9895 X13.408 Y25.029
N9900 X13.243 Y24.997
N9905 X13.009 Y24.918
N9910 X12.804 Y24.78
N9915 X12.643 Y24.593
N9920 X12.536 Y24.371
N9925 X12.429 Y24.046
N9930 X12.383 Y23.862
N9935 X12.264 Y23.311
N9940 X12.231 Y23.128
N9945 X12.179 Y22.803
N9950 G3 X12.27 Y22.497 I0.397 J-0.049
N9955 G1 X12.564 Y22.147
N9960 X23.99 Y8.513
N9965 X24.105 Y8.376
N9970 G3 X24.652 Y8.313 I0.307 J0.257
N9975 G1 X24.815 Y8.443
N9980 X25.28 Y8.811
N9985 X25.698 Y9.133
N9990 X25.838 Y9.253
N9995 X25.946 Y9.362
N10000 X26.05 Y9.485
N10005 X26.164 Y9.644
N10010 X26.271 Y9.822
N10015 X26.377 Y10.035
N10020 X26.482 Y10.295
N10025 X26.568 Y10.575
N10030 X26.649 Y10.936
N10035 X26.703 Y11.321
N10040 X26.732 Y11.805
N10045 X26.721 Y12.336
N10050 X26.654 Y12.999
N10055 X26.508 Y13.794
N10060 X26.3 Y14.575
N10065 X26.044 Y15.342
N10070 X25.751 Y16.095
N10075 X25.427 Y16.836
N10080 X25.077 Y17.564
N10085 X24.702 Y18.28
N10090 X24.305 Y18.984
N10095 X23.885 Y19.674
N10100 X23.442 Y20.35
N10105 X22.976 Y21.011
N10110 X22.485 Y21.653
N10115 X21.97 Y22.276
N10120 X21.427 Y22.875
N10125 X20.856 Y23.447
N10130 X20.256 Y23.988
N10135 X19.626 Y24.495
N10140 X18.966 Y24.96
N10145 X18.274 Y25.378
N10150 X17.566 Y25.734
N10155 X16.867 Y26.019
N10160 X16.187 Y26.234
N10165 X15.544 Y26.382
N10170 X14.964 Y26.467
N10175 X14.498 Y26.497
N10180 X14.096 Y26.491
N10185 X13.891 Y26.472
N10190 X13.665 Y26.421
N10195 X13.458 Y26.316
N10200 X13.283 Y26.163
N10205 X13.152 Y25.972
N10210 X13.104 Y25.881
N10215 X13.032 Y25.732
N10220 X12.796 Y25.147
N10225 X12.61 Y24.596
N10230 X12.536 Y24.371
N10235 G0 Z6.
N10240 G1 X24.569 Y8.799 F500.
N10245 G0 Z-2.2
N10250 G1 Z-2.6 F300.
N10255 X24.577 Y8.8 Z-2.678
N10260 X24.599 Y8.803 Z-2.753
N10265 X24.636 Y8.807 Z-2.822
N10270 X24.685 Y8.813 Z-2.883
N10275 X24.745 Y8.821 Z-2.933
N10280 X24.814 Y8.829 Z-2.97
N10285 X24.888 Y8.838 Z-2.992
N10290 X24.966 Y8.848 Z-3.
N10295 G3 X25.698 Y9.133 I-0.192 J1.571
N10300 G1 X26.065 Y9.417
N10305 X26.255 Y9.545
N10310 X26.41 Y9.648
N10315 X26.598 Y9.728
N10320 X26.732 Y9.794
N10325 X26.859 Y9.875
N10330 X26.977 Y9.968
N10335 X27.089 Y10.073
N10340 X27.204 Y10.2
N10345 X27.328 Y10.36
N10350 X27.442 Y10.536
N10355 X27.563 Y10.758
N10360 X27.67 Y11.
N10365 X27.773 Y11.296
N10370 X27.861 Y11.635
N10375 X27.931 Y12.029
N10380 X27.975 Y12.496
N10385 X27.983 Y13.032
N10390 X27.942 Y13.645
N10395 X27.832 Y14.394
N10400 X27.65 Y15.181
N10405 X27.415 Y15.954
N10410 X27.138 Y16.714
N10415 X26.827 Y17.46
N10420 X26.486 Y18.193
N10425 X26.12 Y18.913
N10430 X25.73 Y19.621
N10435 X25.316 Y20.315
N10440 X24.881 Y20.996
N10445 X24.422 Y21.662
N10450 X23.94 Y22.31
N10455 X23.434 Y22.941
N10460 X22.904 Y23.551
N10465 X22.348 Y24.137
N10470 X21.766 Y24.698
N10475 X21.157 Y25.23
N10480 X20.521 Y25.729
N10485 X19.859 Y26.192
N10490 X19.169 Y26.613
N10495 X18.452 Y26.986
N10500 X17.711 Y27.308
N10505 X16.948 Y27.574
N10510 X16.243 Y27.759
N10515 X15.59 Y27.875
N10520 X15.098 Y27.922
N10525 X14.821 Y27.926
N10530 X14.589 Y27.901
N10535 X14.371 Y27.818
N10540 X14.18 Y27.684
N10545 X14.028 Y27.507
N10550 X13.767 Y27.111
N10555 X13.687 Y26.982
N10560 X13.39 Y26.432
N10565 X13.152 Y25.972
N10570 G3 X13.493 Y25.401 I0.361 J-0.172
N10575 G1 X13.571 Y25.397 Z-2.992
N10580 X13.646 Y25.393 Z-2.97
N10585 X13.715 Y25.39 Z-2.933
N10590 X13.775 Y25.387 Z-2.883
N10595 X13.825 Y25.384 Z-2.822
N10600 X13.862 Y25.382 Z-2.753
N10605 X13.885 Y25.381 Z-2.678
N10610 X13.892 Z-2.6
N10615 G0 Z6.
N10620 G1 X25.421 Y9.686 F500.
N10625 G0 Z-2.2
N10630 G1 Z-2.6 F300.
N10635 X25.429 Y9.685 Z-2.678
N10640 X25.451 Y9.682 Z-2.753
N10645 X25.488 Y9.677 Z-2.822
N10650 X25.537 Y9.67 Z-2.883
N10655 X25.598 Y9.663 Z-2.933
N10660 X25.666 Y9.654 Z-2.97
N10665 X25.741 Y9.644 Z-2.992
N10670 X25.818 Y9.634 Z-3.
N10675 G3 X26.598 Y9.728 I0.205 J1.569
N10680 G1 X26.982 Y9.894
N10685 X27.717 Y10.175
N10690 X27.854 Y10.237
N10695 X27.982 Y10.314
N10700 X28.103 Y10.402
N10705 X28.231 Y10.513
N10710 X28.362 Y10.646
N10715 X28.493 Y10.802
N10720 X28.629 Y10.994
N10725 X28.757 Y11.209
N10730 X28.888 Y11.475
N10735 X29.001 Y11.763
N10740 X29.11 Y12.119
N10745 X29.194 Y12.503
N10750 X29.258 Y12.978
N10755 X29.287 Y13.499
N10760 X29.271 Y14.108
N10765 X29.194 Y14.831
N10770 X29.045 Y15.625
N10775 X28.837 Y16.406
N10780 X28.582 Y17.173
N10785 X28.29 Y17.927
N10790 X27.965 Y18.667
N10795 X27.613 Y19.394
N10800 X27.235 Y20.109
N10805 X26.833 Y20.81
N10810 X26.408 Y21.498
N10815 X25.961 Y22.171
N10820 X25.492 Y22.829
N10825 X25.001 Y23.471
N10830 X24.486 Y24.094
N10835 X23.948 Y24.697
N10840 X23.387 Y25.279
N10845 X22.801 Y25.836
N10850 X22.192 Y26.367
N10855 X21.558 Y26.868
N10860 X20.9 Y27.337
N10865 X20.216 Y27.768
N10870 X19.507 Y28.157
N10875 X18.777 Y28.503
N10880 X18.026 Y28.803
N10885 X17.257 Y29.05
N10890 X16.547 Y29.221
N10895 X16.05 Y29.299
N10900 X15.992 Y29.304
N10905 X15.73 Y29.287
N10910 X15.484 Y29.197
N10915 X15.271 Y29.043
N10920 X15.229 Y29.002
N10925 X15.051 Y28.814
N10930 X14.896 Y28.634
N10935 X14.684 Y28.374
N10940 X14.599 Y28.267
N10945 X14.134 Y27.667
N10950 X14.028 Y27.507
N10955 G3 X14.307 Y26.903 I0.341 J-0.208
N10960 G1 X14.384 Y26.891 Z-2.992
N10965 X14.459 Y26.88 Z-2.97
N10970 X14.527 Y26.869 Z-2.933
N10975 X14.587 Y26.86 Z-2.883
N10980 X14.636 Y26.852 Z-2.822
N10985 X14.673 Y26.846 Z-2.753
N10990 X14.695 Y26.843 Z-2.678
N10995 X14.703 Y26.842 Z-2.6
N11000 G0 Z6.
N11005 G1 X26.54 Y10.177 F500.
N11010 G0 Z-2.2
N11015 G1 Z-2.6 F300.
N11020 X26.547 Y10.176 Z-2.678
N11025 X26.57 Y10.172 Z-2.753
N11030 X26.606 Y10.166 Z-2.822
N11035 X26.655 Y10.158 Z-2.883
N11040 X26.715 Y10.148 Z-2.933
N11045 X26.783 Y10.136 Z-2.97
N11050 X26.857 Y10.124 Z-2.992
N11055 X26.934 Y10.111 Z-3.
N11060 G3 X27.717 Y10.175 I0.265 J1.56
N11065 G1 X28.084 Y10.318
N11070 X28.267 Y10.391
N11075 X28.634 Y10.547
N11080 X28.818 Y10.629
N11085 X29.158 Y10.83
N11090 X29.3 Y10.923
N11095 X29.431 Y11.025
N11100 X29.562 Y11.146
N11105 X29.698 Y11.293
N11110 X29.839 Y11.473
N11115 X29.974 Y11.676
N11120 X30.114 Y11.928
N11125 X30.238 Y12.202
N11130 X30.36 Y12.543
N11135 X30.46 Y12.912
N11140 X30.545 Y13.366
N11145 X30.597 Y13.869
N11150 X30.611 Y14.453
N11155 X30.572 Y15.144
N11160 X30.462 Y15.94
N11165 X30.288 Y16.729
N11170 X30.062 Y17.505
N11175 X29.794 Y18.268
N11180 X29.49 Y19.017
N11185 X29.156 Y19.752
N11190 X28.794 Y20.475
N11195 X28.408 Y21.185
N11200 X27.999 Y21.882
N11205 X27.567 Y22.565
N11210 X27.114 Y23.234
N11215 X26.639 Y23.888
N11220 X26.142 Y24.526
N11225 X25.624 Y25.147
N11230 X25.085 Y25.748
N11235 X24.523 Y26.329
N11240 X23.939 Y26.888
N11245 X23.333 Y27.423
N11250 X22.705 Y27.931
N11255 X22.052 Y28.408
N11260 X21.377 Y28.853
N11265 X20.68 Y29.262
N11270 X19.962 Y29.633
N11275 X19.225 Y29.965
N11280 X18.47 Y30.254
N11285 X17.74 Y30.482
N11290 X17.545 Y30.526
N11295 X17.284 Y30.547
N11300 X17.028 Y30.495
N11305 X16.796 Y30.374
N11310 X16.675 Y30.286
N11315 X16.52 Y30.17
N11320 X16.209 Y29.919
N11325 X15.969 Y29.7
N11330 X15.602 Y29.363
N11335 X15.271 Y29.043
N11340 G3 X15.414 Y28.393 I0.288 J-0.277
N11345 G1 X15.487 Y28.365 Z-2.992
N11350 X15.556 Y28.338 Z-2.97
N11355 X15.621 Y28.312 Z-2.933
N11360 X15.677 Y28.29 Z-2.883
N11365 X15.724 Y28.272 Z-2.822
N11370 X15.758 Y28.259 Z-2.753
N11375 X15.779 Y28.25 Z-2.678
N11380 X15.786 Y28.248 Z-2.6
N11385 G0 Z6.
N11390 G1 X27.997 Y10.639 F500.
N11395 G0 Z-2.2
N11400 G1 Z-2.6 F300.
N11405 X28.005 Z-2.678
N11410 X28.027 Z-2.753
N11415 X28.064 Y10.638 Z-2.822
N11420 X28.114 Z-2.883
N11425 X28.175 Z-2.933
N11430 X28.244 Z-2.97
N11435 X28.319 Z-2.992
N11440 X28.397 Y10.637 Z-3.
N11445 G3 X29.158 Y10.83 I0.005 J1.583
N11450 G1 X29.919 Y11.279
N11455 X30.089 Y11.38
N11460 X30.103 Y11.39
N11465 X30.654 Y11.8
N11470 X30.882 Y12.002
N11475 X31.005 Y12.129
N11480 X31.141 Y12.294
N11485 X31.269 Y12.478
N11490 X31.4 Y12.704
N11495 X31.527 Y12.969
N11500 X31.644 Y13.273
N11505 X31.753 Y13.642
N11510 X31.838 Y14.051
N11515 X31.901 Y14.549
N11520 X31.926 Y15.112
N11525 X31.904 Y15.75
N11530 X31.815 Y16.517
N11535 X31.658 Y17.309
N11540 X31.447 Y18.089
N11545 X31.191 Y18.856
N11550 X30.898 Y19.61
N11555 X30.574 Y20.35
N11560 X30.222 Y21.077
N11565 X29.844 Y21.792
N11570 X29.443 Y22.494
N11575 X29.02 Y23.182
N11580 X28.575 Y23.857
N11585 X28.109 Y24.517
N11590 X27.622 Y25.163
N11595 X27.115 Y25.792
N11600 X26.587 Y26.404
N11605 X26.038 Y26.997
N11610 X25.469 Y27.571
N11615 X24.88 Y28.124
N11620 X24.269 Y28.653
N11625 X23.637 Y29.157
N11630 X22.984 Y29.634
N11635 X22.311 Y30.081
N11640 X21.618 Y30.497
N11645 X20.905 Y30.878
N11650 X20.174 Y31.223
N11655 X19.426 Y31.53
N11660 X19.399 Y31.539
N11665 X19.178 Y31.583
N11670 X18.953 Y31.572
N11675 X18.737 Y31.509
N11680 X18.539 Y31.418
N11685 X18.109 Y31.204
N11690 X17.988 Y31.132
N11695 X17.502 Y30.837
N11700 X17.438 Y30.796
N11705 X16.887 Y30.439
N11710 X16.796 Y30.374
N11715 G3 X16.841 Y29.71 I0.244 J-0.317
N11720 G1 X16.909 Y29.671 Z-2.992
N11725 X16.974 Y29.634 Z-2.97
N11730 X17.034 Y29.6 Z-2.933
N11735 X17.086 Y29.569 Z-2.883
N11740 X17.129 Y29.544 Z-2.822
N11745 X17.161 Y29.526 Z-2.753
N11750 X17.181 Y29.515 Z-2.678
N11755 X17.188 Y29.511 Z-2.6
N11760 G0 Z6.
N11765 G1 X29.52 Y11.485 F500.
N11770 G0 Z-2.2
N11775 G1 Z-2.6 F300.
N11780 X29.527 Y11.486 Z-2.678
N11785 X29.55 Y11.488 Z-2.753
N11790 X29.587 Y11.492 Z-2.822
N11795 X29.636 Y11.497 Z-2.883
N11800 X29.696 Y11.504 Z-2.933
N11805 X29.765 Y11.511 Z-2.97
N11810 X29.84 Y11.519 Z-2.992
N11815 X29.917 Y11.527 Z-3.
N11820 G3 X30.654 Y11.8 I-0.166 J1.574
N11825 G1 X30.818 Y11.931
N11830 X31.47 Y12.482
N11835 X31.571 Y12.575
N11840 X31.938 Y12.927
N11845 X32.039 Y13.032
N11850 X32.351 Y13.399
N11855 X32.527 Y13.631
N11860 X32.641 Y13.806
N11865 X32.757 Y14.023
N11870 X32.871 Y14.284
N11875 X32.97 Y14.572
N11880 X33.066 Y14.944
N11885 X33.133 Y15.332
N11890 X33.179 Y15.835
N11895 X33.184 Y16.373
N11900 X33.138 Y17.035
N11905 X33.018 Y17.827
N11910 X32.834 Y18.614
N11915 X32.598 Y19.387
N11920 X32.322 Y20.146
N11925 X32.012 Y20.893
N11930 X31.671 Y21.626
N11935 X31.305 Y22.346
N11940 X30.914 Y23.054
N11945 X30.501 Y23.748
N11950 X30.066 Y24.429
N11955 X29.61 Y25.097
N11960 X29.133 Y25.75
N11965 X28.637 Y26.388
N11970 X28.121 Y27.01
N11975 X27.586 Y27.616
N11980 X27.032 Y28.204
N11985 X26.458 Y28.773
N11990 X25.864 Y29.321
N11995 X25.251 Y29.848
N12000 X24.619 Y30.352
N12005 X23.968 Y30.83
N12010 X23.298 Y31.282
N12015 X22.609 Y31.705
N12020 X21.902 Y32.096
N12025 X21.654 Y32.219
N12030 X21.449 Y32.292
N12035 X21.233 Y32.316
N12040 X21.018 Y32.289
N12045 X20.338 Y32.122
N12050 X20.191 Y32.085
N12055 X20.007 Y32.025
N12060 X19.779 Y31.938
N12065 X19.457 Y31.815
N12070 X19.307 Y31.755
N12075 X18.737 Y31.509
N12080 G3 X18.64 Y30.85 I0.171 J-0.361
N12085 G1 X18.698 Y30.798 Z-2.992
N12090 X18.754 Y30.748 Z-2.97
N12095 X18.805 Y30.701 Z-2.933
N12100 X18.85 Y30.661 Z-2.883
N12105 X18.887 Y30.627 Z-2.822
N12110 X18.914 Y30.603 Z-2.753
N12115 X18.931 Y30.587 Z-2.678
N12120 X18.937 Y30.582 Z-2.6
N12125 G0 Z6.
N12130 G1 X31.316 Y12.838 F500.
N12135 G0 Z-2.2
N12140 G1 Z-2.6 F300.
N12145 X31.324 Y12.84 Z-2.678
N12150 X31.345 Y12.848 Z-2.753
N12155 X31.38 Y12.86 Z-2.822
N12160 X31.427 Y12.876 Z-2.883
N12165 X31.484 Y12.896 Z-2.933
N12170 X31.55 Y12.918 Z-2.97
N12175 X31.621 Y12.942 Z-2.992
N12180 X31.695 Y12.968 Z-3.
N12185 G3 X32.351 Y13.399 I-0.515 J1.497
N12190 G1 X32.673 Y13.78
N12195 X33.096 Y14.317
N12200 X33.223 Y14.502
N12205 X33.59 Y15.117
N12210 X33.878 Y15.602
N12215 X34.024 Y15.92
N12220 X34.114 Y16.168
N12225 X34.196 Y16.464
N12230 X34.258 Y16.787
N12235 X34.304 Y17.203
N12240 X34.317 Y17.65
N12245 X34.288 Y18.216
N12250 X34.197 Y18.897
N12255 X34.027 Y19.688
N12260 X33.796 Y20.462
N12265 X33.518 Y21.221
N12270 X33.204 Y21.966
N12275 X32.858 Y22.696
N12280 X32.486 Y23.413
N12285 X32.089 Y24.118
N12290 X31.669 Y24.809
N12295 X31.229 Y25.486
N12300 X30.769 Y26.151
N12305 X30.289 Y26.801
N12310 X29.79 Y27.437
N12315 X29.273 Y28.058
N12320 X28.737 Y28.663
N12325 X28.182 Y29.251
N12330 X27.61 Y29.821
N12335 X27.019 Y30.373
N12340 X26.41 Y30.904
N12345 X25.782 Y31.414
N12350 X25.137 Y31.9
N12355 X24.473 Y32.361
N12360 X24.334 Y32.45
N12365 X24.196 Y32.523
N12370 X24.047 Y32.572
N12375 X23.893 Y32.595
N12380 X23.862 Y32.597
N12385 X23.679 Y32.598
N12390 X23.311 Y32.586
N12395 X23.128 Y32.579
N12400 X22.577 Y32.539
N12405 X22.394 Y32.522
N12410 X22.027 Y32.487
N12415 X21.843 Y32.464
N12420 X21.292 Y32.354
N12425 X21.049 Y32.296
N12430 X21.018 Y32.289
N12435 G3 X20.812 Y31.656 I0.109 J-0.385
N12440 G1 X20.861 Y31.595 Z-2.992
N12445 X20.907 Y31.536 Z-2.97
N12450 X20.95 Y31.482 Z-2.933
N12455 X20.988 Y31.434 Z-2.883
N12460 X21.019 Y31.395 Z-2.822
N12465 X21.041 Y31.366 Z-2.753
N12470 X21.056 Y31.348 Z-2.678
N12475 X21.06 Y31.342 Z-2.6
N12480 G0 Z6.
N12485 G1 X33.096 Y15.009 F500.
N12490 G0 Z-2.2
N12495 G1 Z-2.6 F300.
N12500 X33.102 Y15.013 Z-2.678
N12505 X33.122 Y15.024 Z-2.753
N12510 X33.155 Y15.041 Z-2.822
N12515 X33.199 Y15.065 Z-2.883
N12520 X33.252 Y15.094 Z-2.933
N12525 X33.313 Y15.127 Z-2.97
N12530 X33.378 Y15.163 Z-2.992
N12535 X33.447 Y15.201 Z-3.
N12540 G3 X33.878 Y15.602 I-0.568 J1.042
N12545 G1 X33.958 Y15.755
N12550 X34.145 Y16.153
N12555 X34.229 Y16.336
N12560 X34.514 Y17.071
N12565 X34.692 Y17.533
N12570 X34.718 Y17.621
N12575 X34.859 Y18.172
N12580 X34.875 Y18.246
N12585 X35.048 Y19.09
N12590 X35.089 Y19.36
N12595 X35.112 Y19.689
N12600 X35.107 Y20.092
N12605 X35.064 Y20.561
N12610 X34.964 Y21.137
N12615 X34.779 Y21.856
N12620 X34.515 Y22.621
N12625 X34.202 Y23.365
N12630 X33.85 Y24.093
N12635 X33.467 Y24.805
N12640 X33.059 Y25.503
N12645 X32.628 Y26.186
N12650 X32.176 Y26.856
N12655 X31.704 Y27.512
N12660 X31.213 Y28.154
N12665 X30.703 Y28.782
N12670 X30.176 Y29.394
N12675 X29.631 Y29.991
N12680 X29.068 Y30.571
N12685 X28.488 Y31.134
N12690 X27.891 Y31.678
N12695 X27.791 Y31.763
N12700 X27.689 Y31.839
N12705 X27.578 Y31.9
N12710 X27.459 Y31.946
N12715 X26.982 Y32.092
N12720 X26.432 Y32.24
N12725 X26.248 Y32.287
N12730 X25.698 Y32.415
N12735 X25.514 Y32.44
N12740 X25.137 Y32.489
N12745 X24.963 Y32.509
N12750 X24.413 Y32.561
N12755 X23.893 Y32.595
N12760 G3 X23.572 Y31.94 I-0.012 J-0.4
N12765 G1 X34.351 Y18.927
N12770 G3 X35.048 Y19.09 I0.308 J0.255
N12775 G1 X35.122 Y19.457
N12780 X35.153 Y19.64
N12785 X35.171 Y20.007
N12790 X35.179 Y20.191
N12795 X35.199 Y20.742
N12800 X35.216 Y21.292
N12805 X35.209 Y21.476
N12810 X35.181 Y21.843
N12815 X35.166 Y22.027
N12820 X35.144 Y22.21
N12825 X35.019 Y23.128
N12830 X34.987 Y23.311
N12835 X34.855 Y23.862
N12840 X34.8 Y24.046
N12845 X34.631 Y24.596
N12850 X34.508 Y24.991
N12855 X34.458 Y25.147
N12860 X34.218 Y25.698
N12865 X34.141 Y25.86
N12870 X33.853 Y26.432
N12875 X33.57 Y26.982
N12880 X33.451 Y27.166
N12885 X33.223 Y27.493
N12890 X33.04 Y27.745
N12895 X32.652 Y28.267
N12900 X32.489 Y28.481
N12905 X32.367 Y28.634
N12910 X32.01 Y29.002
N12915 X31.938 Y29.072
N12920 X31.204 Y29.778
N12925 X31.056 Y29.919
N12930 X31.021 Y29.948
N12935 X30.811 Y30.103
N12940 X30.654 Y30.218
N12945 X30.103 Y30.601
N12950 X29.486 Y31.021
N12955 X29.369 Y31.083
N12960 X28.818 Y31.361
N12965 X28.267 Y31.613
N12970 X28.084 Y31.693
N12975 X27.717 Y31.85
N12980 X27.533 Y31.923
N12985 X27.459 Y31.946
N12990 G3 X26.958 Y31.508 I-0.104 J-0.386
N12995 G1 X26.968 Y31.431 Z-2.992
N13000 X26.978 Y31.356 Z-2.97
N13005 X26.987 Y31.288 Z-2.933
N13010 X26.995 Y31.227 Z-2.883
N13015 X27.001 Y31.178 Z-2.822
N13020 X27.006 Y31.142 Z-2.753
N13025 X27.009 Y31.119 Z-2.678
N13030 X27.01 Y31.111 Z-2.6
N13035 G0 Z6.
N13040 G1 X9.394 Y-17.052 F500.
N13045 G0 Z-2.2
N13050 G1 Z-2.6 F300.
N13055 X9.398 Y-17.058 Z-2.678
N13060 X9.413 Y-17.076 Z-2.753
N13065 X9.436 Y-17.105 Z-2.822
N13070 X9.468 Y-17.143 Z-2.883
N13075 X9.506 Y-17.19 Z-2.933
N13080 X9.55 Y-17.244 Z-2.97
N13085 X9.597 Y-17.302 Z-2.992
N13090 X9.647 Y-17.362 Z-3.
N13095 G3 X10.279 Y-17.828 I1.225 J1.002
N13100 G1 X10.816 Y-18.024
N13105 X11.197 Y-18.296
N13110 X11.323 Y-18.377
N13115 X11.456 Y-18.446
N13120 X11.595 Y-18.503
N13125 X11.764 Y-18.556
N13130 X11.959 Y-18.602
N13135 X12.171 Y-18.633
N13140 X12.43 Y-18.651
N13145 X12.697 Y-18.647
N13150 X13.022 Y-18.617
N13155 X13.359 Y-18.557
N13160 X13.764 Y-18.452
N13165 X14.18 Y-18.308
N13170 X14.686 Y-18.085
N13175 X15.186 Y-17.815
N13180 X15.757 Y-17.444
N13185 X16.382 Y-16.964
N13190 X16.981 Y-16.421
N13195 X17.54 Y-15.838
N13200 X18.063 Y-15.221
N13205 X18.552 Y-14.578
N13210 X19.009 Y-13.911
N13215 X19.436 Y-13.225
N13220 X19.834 Y-12.522
N13225 X20.206 Y-11.804
N13230 X20.551 Y-11.073
N13235 X20.872 Y-10.331
N13240 X21.168 Y-9.579
N13245 X21.441 Y-8.818
N13250 X21.691 Y-8.05
N13255 X21.919 Y-7.274
N13260 X22.124 Y-6.493
N13265 X22.307 Y-5.705
N13270 X22.315 Y-5.666
N13275 X22.334 Y-5.449
N13280 X22.301 Y-5.234
N13285 X22.22 Y-5.032
N13290 X22.078 Y-4.772
N13295 X22.027 Y-4.671
N13300 X21.839 Y-4.222
N13305 X21.772 Y-4.038
N13310 X21.427 Y-2.937
N13315 X21.262 Y-2.386
N13320 X21.241 Y-2.263
N13325 G3 X20.507 Y-2.138 I-0.392 J-0.081
N13330 G1 X11.202 Y-17.599
N13335 X11.098 Y-17.773
N13340 G3 X11.197 Y-18.296 I0.343 J-0.206
N13345 G1 X11.318 Y-18.382
N13350 X11.33 Y-18.394
N13355 X11.47 Y-18.539
N13360 X11.517 Y-18.611
N13365 X11.655 Y-18.823
N13370 X11.742 Y-18.945
N13375 X11.845 Y-19.054
N13380 X11.96 Y-19.15
N13385 X12.084 Y-19.235
N13390 X12.224 Y-19.314
N13395 X12.376 Y-19.385
N13400 X12.563 Y-19.454
N13405 X12.761 Y-19.509
N13410 X13.001 Y-19.556
N13415 X13.25 Y-19.584
N13420 X13.555 Y-19.593
N13425 X13.868 Y-19.578
N13430 X14.242 Y-19.529
N13435 X14.623 Y-19.449
N13440 X15.071 Y-19.315
N13445 X15.55 Y-19.129
N13450 X16.07 Y-18.878
N13455 X16.655 Y-18.534
N13460 X17.282 Y-18.095
N13465 X17.905 Y-17.58
N13470 X18.487 Y-17.019
N13475 X19.032 Y-16.422
N13480 X19.543 Y-15.796
N13485 X20.022 Y-15.145
N13490 X20.471 Y-14.473
N13495 X20.892 Y-13.783
N13500 X21.287 Y-13.078
N13505 X21.656 Y-12.359
N13510 X22.001 Y-11.628
N13515 X22.322 Y-10.886
N13520 X22.62 Y-10.135
N13525 X22.896 Y-9.375
N13530 X23.149 Y-8.608
N13535 X23.382 Y-7.834
N13540 X23.448 Y-7.589
N13545 X23.48 Y-7.37
N13550 X23.459 Y-7.149
N13555 X23.387 Y-6.94
N13560 X23.268 Y-6.753
N13565 X23.128 Y-6.583
N13570 X23.006 Y-6.424
N13575 X22.944 Y-6.328
N13580 X22.89 Y-6.241
N13585 X22.278 Y-5.14
N13590 X22.22 Y-5.032
N13595 G3 X21.554 Y-4.998 I-0.344 J-0.204
N13600 G1 X11.863 Y-18.127
N13605 X11.676 Y-18.38
N13610 G3 X11.655 Y-18.823 I0.322 J-0.238
N13615 G1 X11.817 Y-19.074
N13620 X11.826 Y-19.09
N13625 X11.947 Y-19.457
N13630 X12.001 Y-19.597
N13635 X12.072 Y-19.729
N13640 X12.159 Y-19.851
N13645 X12.259 Y-19.963
N13650 X12.369 Y-20.065
N13655 X12.492 Y-20.162
N13660 X12.637 Y-20.258
N13665 X12.803 Y-20.35
N13670 X12.995 Y-20.437
N13675 X13.212 Y-20.515
N13680 X13.452 Y-20.58
N13685 X13.731 Y-20.632
N13690 X14.028 Y-20.663
N13695 X14.378 Y-20.671
N13700 X14.737 Y-20.651
N13705 X15.154 Y-20.593
N13710 X15.607 Y-20.493
N13715 X16.091 Y-20.344
N13720 X16.651 Y-20.122
N13725 X17.227 Y-19.837
N13730 X17.839 Y-19.471
N13735 X18.497 Y-19.002
N13740 X19.116 Y-18.482
N13745 X19.699 Y-17.922
N13750 X20.247 Y-17.328
N13755 X20.763 Y-16.706
N13760 X21.249 Y-16.06
N13765 X21.706 Y-15.394
N13770 X22.137 Y-14.709
N13775 X22.541 Y-14.01
N13780 X22.921 Y-13.297
N13785 X23.277 Y-12.571
N13790 X23.61 Y-11.834
N13795 X23.92 Y-11.088
N13800 X24.209 Y-10.333
N13805 X24.476 Y-9.57
N13810 X24.654 Y-8.994
N13815 X24.666 Y-8.939
N13820 X24.688 Y-8.715
N13825 X24.656 Y-8.491
N13830 X24.57 Y-8.282
N13835 X24.437 Y-8.1
N13840 X24.079 Y-7.709
N13845 X23.495 Y-7.029
N13850 X23.268 Y-6.753
N13855 G3 X22.665 Y-6.756 I-0.3 J-0.265
N13860 G1 X22.598 Y-6.834
N13865 X12.281 Y-18.79
N13870 X12.028 Y-19.084
N13875 G3 X11.947 Y-19.457 I0.303 J-0.261
N13880 G1 X11.992 Y-19.594
N13885 X12.033 Y-20.007
N13890 X12.04 Y-20.108
N13895 X12.058 Y-20.257
N13900 X12.096 Y-20.403
N13905 X12.152 Y-20.542
N13910 X12.223 Y-20.674
N13915 X12.306 Y-20.798
N13920 X12.405 Y-20.92
N13925 X12.516 Y-21.037
N13930 X12.653 Y-21.159
N13935 X12.807 Y-21.276
N13940 X12.99 Y-21.393
N13945 X13.198 Y-21.503
N13950 X13.428 Y-21.603
N13955 X13.7 Y-21.695
N13960 X13.985 Y-21.767
N13965 X14.32 Y-21.823
N13970 X14.684 Y-21.855
N13975 X15.076 Y-21.858
N13980 X15.533 Y-21.824
N13985 X16.007 Y-21.75
N13990 X16.525 Y-21.626
N13995 X17.106 Y-21.437
N14000 X17.725 Y-21.178
N14005 X18.353 Y-20.855
N14010 X19.039 Y-20.428
N14015 X19.69 Y-19.948
N14020 X20.305 Y-19.424
N14025 X20.888 Y-18.864
N14030 X21.438 Y-18.272
N14035 X21.959 Y-17.654
N14040 X22.452 Y-17.014
N14045 X22.918 Y-16.353
N14050 X23.357 Y-15.675
N14055 X23.772 Y-14.981
N14060 X24.163 Y-14.273
N14065 X24.53 Y-13.553
N14070 X24.875 Y-12.822
N14075 X25.197 Y-12.081
N14080 X25.499 Y-11.332
N14085 X25.775 Y-10.582
N14090 X25.887 Y-10.178
N14095 X25.929 Y-9.961
N14100 X25.943 Y-9.705
N14105 X25.886 Y-9.454
N14110 X25.763 Y-9.228
N14115 X25.584 Y-9.045
N14120 X25.28 Y-8.811
N14125 X24.78 Y-8.416
N14130 X24.587 Y-8.26
N14135 X24.437 Y-8.1
N14140 G3 X23.872 I-0.283 J-0.283
N14145 G1 X23.761 Y-8.211
N14150 X12.481 Y-19.488
N14155 X12.157 Y-19.812
N14160 G3 X12.04 Y-20.108 I0.283 J-0.283
N14165 G1 X12.046 Y-20.191
N14170 X12.038 Y-20.981
N14175 X12.044 Y-21.131
N14180 X12.07 Y-21.278
N14185 X12.114 Y-21.422
N14190 X12.172 Y-21.56
N14195 X12.243 Y-21.693
N14200 X12.331 Y-21.831
N14205 X12.436 Y-21.969
N14210 X12.563 Y-22.11
N14215 X12.716 Y-22.255
N14220 X12.888 Y-22.393
N14225 X13.096 Y-22.536
N14230 X13.322 Y-22.664
N14235 X13.586 Y-22.788
N14240 X13.885 Y-22.899
N14245 X14.21 Y-22.992
N14250 X14.587 Y-23.067
N14255 X14.992 Y-23.114
N14260 X15.431 Y-23.13
N14265 X15.935 Y-23.107
N14270 X16.476 Y-23.039
N14275 X17.04 Y-22.922
N14280 X17.663 Y-22.739
N14285 X18.347 Y-22.477
N14290 X19.058 Y-22.137
N14295 X19.757 Y-21.731
N14300 X20.422 Y-21.273
N14305 X21.056 Y-20.771
N14310 X21.658 Y-20.232
N14315 X22.231 Y-19.662
N14320 X22.775 Y-19.064
N14325 X23.292 Y-18.443
N14330 X23.782 Y-17.8
N14335 X24.247 Y-17.139
N14340 X24.688 Y-16.462
N14345 X25.105 Y-15.77
N14350 X25.5 Y-15.064
N14355 X25.872 Y-14.347
N14360 X26.223 Y-13.618
N14365 X26.552 Y-12.881
N14370 X26.861 Y-12.133
N14375 X27.066 Y-11.541
N14380 X27.168 Y-11.144
N14385 X27.227 Y-10.805
N14390 X27.236 Y-10.705
N14395 X27.228 Y-10.471
N14400 X27.163 Y-10.247
N14405 X27.043 Y-10.046
N14410 X26.877 Y-9.881
N14415 X26.676 Y-9.762
N14420 X26.41 Y-9.648
N14425 X26.248 Y-9.54
N14430 X26.065 Y-9.417
N14435 X25.584 Y-9.045
N14440 G3 X25.083 Y-9.073 I-0.233 J-0.325
N14445 G1 X24.902 Y-9.235
N14450 X12.518 Y-20.388
N14455 X12.17 Y-20.702
N14460 G3 X12.038 Y-20.981 I0.268 J-0.297
N14465 G1 X12.035 Y-21.292
N14470 X12.04 Y-21.476
N14475 X12.058 Y-21.843
N14480 X12.071 Y-22.027
N14485 X12.095 Y-22.21
N14490 X12.123 Y-22.358
N14495 X12.162 Y-22.502
N14500 X12.215 Y-22.643
N14505 X12.281 Y-22.781
N14510 X12.366 Y-22.926
N14515 X12.47 Y-23.075
N14520 X12.599 Y-23.232
N14525 X12.747 Y-23.386
N14530 X12.932 Y-23.548
N14535 X13.134 Y-23.699
N14540 X13.38 Y-23.853
N14545 X13.652 Y-23.995
N14550 X13.959 Y-24.125
N14555 X14.322 Y-24.245
N14560 X14.703 Y-24.338
N14565 X15.14 Y-24.408
N14570 X15.636 Y-24.447
N14575 X16.154 Y-24.446
N14580 X16.719 Y-24.399
N14585 X17.357 Y-24.295
N14590 X18.057 Y-24.122
N14595 X18.762 Y-23.885
N14600 X19.505 Y-23.568
N14605 X20.22 Y-23.192
N14610 X20.907 Y-22.766
N14615 X21.565 Y-22.297
N14620 X22.194 Y-21.789
N14625 X22.796 Y-21.249
N14630 X23.37 Y-20.681
N14635 X23.918 Y-20.086
N14640 X24.44 Y-19.47
N14645 X24.938 Y-18.833
N14650 X25.411 Y-18.178
N14655 X25.862 Y-17.507
N14660 X26.289 Y-16.821
N14665 X26.694 Y-16.121
N14670 X27.078 Y-15.41
N14675 X27.44 Y-14.688
N14680 X27.783 Y-13.956
N14685 X28.099 Y-13.212
N14690 X28.339 Y-12.54
N14695 X28.463 Y-12.081
N14700 X28.526 Y-11.74
N14705 X28.56 Y-11.415
N14710 X28.566 Y-11.154
N14715 X28.562 Y-11.088
N14720 X28.525 Y-10.877
N14725 X28.442 Y-10.681
N14730 X28.316 Y-10.508
N14735 X28.154 Y-10.369
N14740 X27.965 Y-10.27
N14745 X26.982 Y-9.894
N14750 X26.676 Y-9.762
N14755 G3 X26.27 Y-9.831 I-0.145 J-0.373
N14760 G1 X26.002 Y-10.061
N14765 X12.538 Y-21.606
N14770 X12.233 Y-21.867
N14775 G3 X12.095 Y-22.21 I0.26 J-0.304
N14780 G1 X12.145 Y-22.577
N14785 X12.202 Y-22.944
N14790 X12.231 Y-23.128
N14795 X12.264 Y-23.311
N14800 X12.325 Y-23.596
N14805 X12.366 Y-23.747
N14810 X12.416 Y-23.888
N14815 X12.479 Y-24.024
N14820 X12.562 Y-24.172
N14825 X12.661 Y-24.32
N14830 X12.79 Y-24.482
N14835 X12.939 Y-24.64
N14840 X13.12 Y-24.805
N14845 X13.33 Y-24.967
N14850 X13.574 Y-25.126
N14855 X13.865 Y-25.284
N14860 X14.18 Y-25.423
N14865 X14.556 Y-25.554
N14870 X14.968 Y-25.662
N14875 X15.42 Y-25.742
N14880 X15.948 Y-25.792
N14885 X16.525 Y-25.8
N14890 X17.136 Y-25.76
N14895 X17.818 Y-25.659
N14900 X18.563 Y-25.488
N14905 X19.333 Y-25.244
N14910 X20.082 Y-24.939
N14915 X20.807 Y-24.581
N14920 X21.506 Y-24.175
N14925 X22.178 Y-23.727
N14930 X22.824 Y-23.241
N14935 X23.445 Y-22.723
N14940 X24.04 Y-22.176
N14945 X24.61 Y-21.603
N14950 X25.156 Y-21.008
N14955 X25.678 Y-20.391
N14960 X26.177 Y-19.755
N14965 X26.654 Y-19.102
N14970 X27.109 Y-18.434
N14975 X27.542 Y-17.752
N14980 X27.953 Y-17.056
N14985 X28.345 Y-16.349
N14990 X28.716 Y-15.631
N14995 X29.064 Y-14.902
N15000 X29.384 Y-14.159
N15005 X29.64 Y-13.452
N15010 X29.802 Y-12.86
N15015 X29.885 Y-12.423
N15020 X29.924 Y-12.067
N15025 X29.93 Y-11.843
N15030 X29.903 Y-11.597
N15035 X29.813 Y-11.366
N15040 X29.666 Y-11.167
N15045 X29.471 Y-11.014
N15050 X28.818 Y-10.629
N15055 X28.634 Y-10.547
N15060 X28.267 Y-10.39
N15065 X28.084 Y-10.316
N15070 X27.965 Y-10.27
N15075 G3 X27.435 Y-10.673 I-0.13 J-0.378
N15080 G1 X27.44 Y-10.751 Z-2.992
N15085 X27.444 Y-10.826 Z-2.97
N15090 X27.449 Y-10.895 Z-2.933
N15095 X27.452 Y-10.955 Z-2.883
N15100 X27.455 Y-11.005 Z-2.822
N15105 X27.458 Y-11.042 Z-2.753
N15110 X27.459 Y-11.064 Z-2.678
N15115 Y-11.072 Z-2.6
N15120 G0 Z6.
N15125 G1 X12.51 Y-22.433 F500.
N15130 G0 Z-2.2
N15135 G1 Z-2.6 F300.
N15140 X12.508 Y-22.441 Z-2.678
N15145 X12.5 Y-22.462 Z-2.753
N15150 X12.489 Y-22.497 Z-2.822
N15155 X12.473 Y-22.545 Z-2.883
N15160 X12.454 Y-22.602 Z-2.933
N15165 X12.432 Y-22.668 Z-2.97
N15170 X12.408 Y-22.739 Z-2.992
N15175 X12.383 Y-22.813 Z-3.
N15180 G3 X12.325 Y-23.596 I1.5 J-0.504
N15185 G1 X12.383 Y-23.862
N15190 X12.429 Y-24.046
N15195 X12.549 Y-24.413
N15200 X12.672 Y-24.78
N15205 X12.796 Y-25.147
N15210 X12.919 Y-25.413
N15215 X12.995 Y-25.547
N15220 X13.097 Y-25.697
N15225 X13.214 Y-25.844
N15230 X13.367 Y-26.006
N15235 X13.536 Y-26.16
N15240 X13.752 Y-26.326
N15245 X13.987 Y-26.478
N15250 X14.281 Y-26.637
N15255 X14.601 Y-26.778
N15260 X14.981 Y-26.909
N15265 X15.42 Y-27.023
N15270 X15.884 Y-27.104
N15275 X16.436 Y-27.156
N15280 X17.06 Y-27.163
N15285 X17.701 Y-27.12
N15290 X18.432 Y-27.011
N15295 X19.219 Y-26.828
N15300 X19.99 Y-26.582
N15305 X20.74 Y-26.282
N15310 X21.469 Y-25.933
N15315 X22.175 Y-25.539
N15320 X22.857 Y-25.106
N15325 X23.515 Y-24.637
N15330 X24.149 Y-24.135
N15335 X24.759 Y-23.605
N15340 X25.346 Y-23.049
N15345 X25.91 Y-22.47
N15350 X26.451 Y-21.87
N15355 X26.971 Y-21.251
N15360 X27.469 Y-20.615
N15365 X27.946 Y-19.962
N15370 X28.402 Y-19.295
N15375 X28.837 Y-18.614
N15380 X29.253 Y-17.921
N15385 X29.648 Y-17.216
N15390 X30.024 Y-16.5
N15395 X30.376 Y-15.772
N15400 X30.697 Y-15.031
N15405 X30.975 Y-14.272
N15410 X31.159 Y-13.614
N15415 X31.252 Y-13.138
N15420 X31.283 Y-12.868
N15425 X31.281 Y-12.639
N15430 X31.223 Y-12.417
N15435 X31.113 Y-12.217
N15440 X30.958 Y-12.049
N15445 X30.818 Y-11.931
N15450 X30.654 Y-11.8
N15455 X30.103 Y-11.39
N15460 X30.089 Y-11.38
N15465 X29.471 Y-11.014
N15470 G3 X28.882 Y-11.323 I-0.191 J-0.351
N15475 G1 X28.874 Y-11.401 Z-2.992
N15480 X28.866 Y-11.475 Z-2.97
N15485 X28.859 Y-11.544 Z-2.933
N15490 X28.852 Y-11.604 Z-2.883
N15495 X28.847 Y-11.654 Z-2.822
N15500 X28.843 Y-11.691 Z-2.753
N15505 X28.841 Y-11.713 Z-2.678
N15510 X28.84 Y-11.721 Z-2.6
N15515 G0 Z6.
N15520 G1 X12.846 Y-23.971 F500.
N15525 G0 Z-2.2
N15530 G1 Z-2.6 F300.
N15535 X12.844 Y-23.978 Z-2.678
N15540 X12.839 Y-24.001 Z-2.753
N15545 X12.832 Y-24.037 Z-2.822
N15550 X12.821 Y-24.086 Z-2.883
N15555 X12.809 Y-24.145 Z-2.933
N15560 X12.795 Y-24.212 Z-2.97
N15565 X12.779 Y-24.286 Z-2.992
N15570 X12.763 Y-24.362 Z-3.
N15575 G3 X12.796 Y-25.147 I1.548 J-0.328
N15580 G1 X13.032 Y-25.732
N15585 X13.104 Y-25.881
N15590 X13.399 Y-26.449
N15595 X13.642 Y-26.9
N15600 X13.729 Y-27.042
N15605 X13.826 Y-27.177
N15610 X13.951 Y-27.323
N15615 X14.093 Y-27.465
N15620 X14.276 Y-27.62
N15625 X14.476 Y-27.764
N15630 X14.734 Y-27.919
N15635 X15.01 Y-28.057
N15640 X15.362 Y-28.198
N15645 X15.733 Y-28.314
N15650 X16.185 Y-28.416
N15655 X16.687 Y-28.487
N15660 X17.247 Y-28.521
N15665 X17.909 Y-28.508
N15670 X18.628 Y-28.436
N15675 X19.387 Y-28.297
N15680 X20.168 Y-28.089
N15685 X20.931 Y-27.824
N15690 X21.676 Y-27.509
N15695 X22.4 Y-27.15
N15700 X23.103 Y-26.752
N15705 X23.785 Y-26.317
N15710 X24.444 Y-25.85
N15715 X25.082 Y-25.353
N15720 X25.697 Y-24.83
N15725 X26.291 Y-24.282
N15730 X26.864 Y-23.711
N15735 X27.415 Y-23.12
N15740 X27.945 Y-22.509
N15745 X28.454 Y-21.882
N15750 X28.943 Y-21.238
N15755 X29.411 Y-20.58
N15760 X29.861 Y-19.908
N15765 X30.291 Y-19.224
N15770 X30.702 Y-18.528
N15775 X31.093 Y-17.82
N15780 X31.462 Y-17.101
N15785 X31.805 Y-16.369
N15790 X32.116 Y-15.623
N15795 X32.383 Y-14.86
N15800 X32.529 Y-14.311
N15805 X32.555 Y-14.167
N15810 X32.569 Y-13.962
N15815 X32.538 Y-13.759
N15820 X32.463 Y-13.567
N15825 X32.349 Y-13.397
N15830 X32.039 Y-13.032
N15835 X31.938 Y-12.927
N15840 X31.571 Y-12.575
N15845 X31.47 Y-12.482
N15850 X30.958 Y-12.049
N15855 G3 X30.325 Y-12.256 I-0.247 J-0.315
N15860 G1 X30.304 Y-12.331 Z-2.992
N15865 X30.284 Y-12.403 Z-2.97
N15870 X30.265 Y-12.47 Z-2.933
N15875 X30.249 Y-12.528 Z-2.883
N15880 X30.236 Y-12.576 Z-2.822
N15885 X30.226 Y-12.612 Z-2.753
N15890 X30.219 Y-12.633 Z-2.678
N15895 X30.217 Y-12.641 Z-2.6
N15900 G0 Z6.
N15905 G1 X13.494 Y-25.732 F500.
N15910 G0 Z-2.2
N15915 G1 Z-2.6 F300.
N15920 Y-25.74 Z-2.678
N15925 X13.493 Y-25.763 Z-2.753
N15930 X13.492 Y-25.799 Z-2.822
N15935 X13.49 Y-25.849 Z-2.883
N15940 X13.487 Y-25.91 Z-2.933
N15945 X13.484 Y-25.979 Z-2.97
N15950 X13.481 Y-26.054 Z-2.992
N15955 X13.478 Y-26.132 Z-3.
N15960 G3 X13.642 Y-26.9 I1.581 J-0.064
N15965 G1 X13.687 Y-26.982
N15970 X13.767 Y-27.111
N15975 X14.134 Y-27.667
N15980 X14.599 Y-28.267
N15985 X14.747 Y-28.451
N15990 X14.896 Y-28.634
N15995 X15.107 Y-28.854
N16000 X15.256 Y-28.987
N16005 X15.428 Y-29.115
N16010 X15.647 Y-29.254
N16015 X15.882 Y-29.378
N16020 X16.182 Y-29.506
N16025 X16.513 Y-29.617
N16030 X16.918 Y-29.718
N16035 X17.36 Y-29.79
N16040 X17.907 Y-29.835
N16045 X18.472 Y-29.836
N16050 X19.139 Y-29.784
N16055 X19.897 Y-29.663
N16060 X20.682 Y-29.471
N16065 X21.451 Y-29.223
N16070 X22.202 Y-28.924
N16075 X22.935 Y-28.582
N16080 X23.647 Y-28.201
N16085 X24.339 Y-27.783
N16090 X25.011 Y-27.333
N16095 X25.662 Y-26.854
N16100 X26.293 Y-26.349
N16105 X26.903 Y-25.82
N16110 X27.494 Y-25.267
N16115 X28.064 Y-24.695
N16120 X28.614 Y-24.103
N16125 X29.144 Y-23.493
N16130 X29.655 Y-22.867
N16135 X30.147 Y-22.225
N16140 X30.62 Y-21.57
N16145 X31.075 Y-20.901
N16150 X31.51 Y-20.221
N16155 X31.928 Y-19.529
N16160 X32.325 Y-18.825
N16165 X32.701 Y-18.109
N16170 X33.051 Y-17.381
N16175 X33.371 Y-16.638
N16180 X33.642 Y-15.912
N16185 X33.668 Y-15.819
N16190 X33.704 Y-15.57
N16195 X33.671 Y-15.32
N16200 X33.573 Y-15.088
N16205 X33.222 Y-14.501
N16210 X33.096 Y-14.317
N16215 X32.662 Y-13.767
N16220 X32.349 Y-13.397
N16225 G3 X31.691 Y-13.496 I-0.296 J-0.269
N16230 G1 X31.657 Y-13.566 Z-2.992
N16235 X31.626 Y-13.634 Z-2.97
N16240 X31.596 Y-13.697 Z-2.933
N16245 X31.57 Y-13.752 Z-2.883
N16250 X31.549 Y-13.797 Z-2.822
N16255 X31.533 Y-13.83 Z-2.753
N16260 X31.524 Y-13.851 Z-2.678
N16265 X31.52 Y-13.858 Z-2.6
N16270 G0 Z6.
N16275 G1 X14.535 Y-27.514 F500.
N16280 G0 Z-2.2
N16285 G1 Z-2.6 F300.
N16290 X14.536 Y-27.522 Z-2.678
N16295 X14.539 Y-27.544 Z-2.753
N16300 X14.545 Y-27.581 Z-2.822
N16305 X14.552 Y-27.63 Z-2.883
N16310 X14.561 Y-27.69 Z-2.933
N16315 X14.571 Y-27.758 Z-2.97
N16320 X14.581 Y-27.833 Z-2.992
N16325 X14.593 Y-27.91 Z-3.
N16330 G3 X14.896 Y-28.634 I1.566 J0.23
N16335 G1 X15.055 Y-28.818
N16340 X15.235 Y-29.008
N16345 X15.602 Y-29.363
N16350 X16.153 Y-29.869
N16355 X16.209 Y-29.919
N16360 X16.52 Y-30.17
N16365 X16.703 Y-30.307
N16370 X16.887 Y-30.439
N16375 X17.187 Y-30.613
N16380 X17.412 Y-30.72
N16385 X17.686 Y-30.825
N16390 X17.982 Y-30.911
N16395 X18.364 Y-30.991
N16400 X18.762 Y-31.04
N16405 X19.274 Y-31.062
N16410 X19.81 Y-31.043
N16415 X20.46 Y-30.966
N16420 X21.211 Y-30.816
N16425 X21.989 Y-30.594
N16430 X22.748 Y-30.317
N16435 X23.489 Y-29.994
N16440 X24.21 Y-29.629
N16445 X24.912 Y-29.228
N16450 X25.594 Y-28.795
N16455 X26.257 Y-28.332
N16460 X26.9 Y-27.843
N16465 X27.524 Y-27.33
N16470 X28.13 Y-26.794
N16475 X28.716 Y-26.238
N16480 X29.284 Y-25.662
N16485 X29.832 Y-25.069
N16490 X30.363 Y-24.459
N16495 X30.874 Y-23.833
N16500 X31.368 Y-23.194
N16505 X31.844 Y-22.54
N16510 X32.302 Y-21.874
N16515 X32.742 Y-21.197
N16520 X33.164 Y-20.507
N16525 X33.567 Y-19.806
N16530 X33.948 Y-19.094
N16535 X34.305 Y-18.369
N16540 X34.527 Y-17.869
N16545 X34.597 Y-17.635
N16550 X34.603 Y-17.391
N16555 X34.546 Y-17.154
N16560 X34.3 Y-16.52
N16565 X34.229 Y-16.336
N16570 X34.141 Y-16.144
N16575 X33.958 Y-15.755
N16580 X33.878 Y-15.602
N16585 X33.573 Y-15.088
N16590 G0 Z6.
N16595 G1 X16.243 Y-29.454 F500.
N16600 G0 Z-2.2
N16605 G1 Z-2.6 F300.
N16610 X16.246 Y-29.461 Z-2.678
N16615 X16.255 Y-29.482 Z-2.753
N16620 X16.27 Y-29.516 Z-2.822
N16625 X16.29 Y-29.561 Z-2.883
N16630 X16.314 Y-29.617 Z-2.933
N16635 X16.342 Y-29.68 Z-2.97
N16640 X16.372 Y-29.749 Z-2.992
N16645 X16.403 Y-29.82 Z-3.
N16650 G3 X16.887 Y-30.439 I1.449 J0.635
N16655 G1 X17.438 Y-30.796
N16660 X17.502 Y-30.837
N16665 X17.988 Y-31.132
N16670 X18.109 Y-31.204
N16675 X18.539 Y-31.418
N16680 X18.723 Y-31.502
N16685 X19.307 Y-31.755
N16690 X19.457 Y-31.815
N16695 X19.804 Y-31.928
N16700 X20.063 Y-31.991
N16705 X20.377 Y-32.04
N16710 X20.756 Y-32.068
N16715 X21.173 Y-32.066
N16720 X21.683 Y-32.022
N16725 X22.28 Y-31.921
N16730 X22.956 Y-31.751
N16735 X23.722 Y-31.492
N16740 X24.465 Y-31.175
N16745 X25.188 Y-30.813
N16750 X25.89 Y-30.413
N16755 X26.573 Y-29.98
N16760 X27.236 Y-29.519
N16765 X27.882 Y-29.032
N16770 X28.508 Y-28.522
N16775 X29.117 Y-27.99
N16780 X29.708 Y-27.438
N16785 X30.28 Y-26.868
N16790 X30.835 Y-26.28
N16795 X31.372 Y-25.677
N16800 X31.892 Y-25.057
N16805 X32.394 Y-24.424
N16810 X32.879 Y-23.777
N16815 X33.346 Y-23.118
N16820 X33.797 Y-22.447
N16825 X34.23 Y-21.764
N16830 X34.644 Y-21.071
N16835 X35.039 Y-20.365
N16840 X35.059 Y-20.326
N16845 X35.122 Y-20.174
N16850 X35.157 Y-20.014
N16855 X35.163 Y-19.85
N16860 X35.153 Y-19.64
N16865 X35.122 Y-19.457
N16870 X34.973 Y-18.723
N16875 X34.875 Y-18.246
N16880 X34.859 Y-18.172
N16885 X34.718 Y-17.621
N16890 X34.692 Y-17.533
N16895 X34.546 Y-17.154
N16900 G3 X33.892 Y-17.03 I-0.368 J-0.157
N16905 G1 X33.838 Y-17.086 Z-2.992
N16910 X33.785 Y-17.14 Z-2.97
N16915 X33.737 Y-17.189 Z-2.933
N16920 X33.694 Y-17.232 Z-2.883
N16925 X33.659 Y-17.268 Z-2.822
N16930 X33.633 Y-17.294 Z-2.753
N16935 X33.618 Y-17.31 Z-2.678
N16940 X33.612 Y-17.316 Z-2.6
N16945 G0 Z6.
N16950 G1 X18.596 Y-31.012 F500.
N16955 G0 Z-2.2
N16960 G1 Z-2.6 F300.
N16965 X18.601 Y-31.018 Z-2.678
N16970 X18.615 Y-31.036 Z-2.753
N16975 X18.637 Y-31.065 Z-2.822
N16980 X18.668 Y-31.105 Z-2.883
N16985 X18.704 Y-31.153 Z-2.933
N16990 X18.746 Y-31.208 Z-2.97
N16995 X18.792 Y-31.267 Z-2.992
N17000 X18.839 Y-31.329 Z-3.
N17005 G3 X19.457 Y-31.815 I1.257 J0.962
N17010 G1 X19.824 Y-31.955
N17015 X20.007 Y-32.025
N17020 X20.191 Y-32.085
N17025 X20.375 Y-32.131
N17030 X21.109 Y-32.311
N17035 X21.292 Y-32.354
N17040 X21.843 Y-32.464
N17045 X22.027 Y-32.487
N17050 X22.394 Y-32.522
N17055 X22.577 Y-32.539
N17060 X23.128 Y-32.579
N17065 X23.719 Y-32.572
N17070 X24.097 Y-32.537
N17075 X24.512 Y-32.465
N17080 X25.033 Y-32.33
N17085 X25.644 Y-32.118
N17090 X26.38 Y-31.796
N17095 X27.092 Y-31.413
N17100 X27.778 Y-30.986
N17105 X28.443 Y-30.526
N17110 X29.086 Y-30.037
N17115 X29.711 Y-29.524
N17120 X30.318 Y-28.99
N17125 X30.907 Y-28.437
N17130 X31.478 Y-27.865
N17135 X32.032 Y-27.277
N17140 X32.57 Y-26.673
N17145 X33.09 Y-26.055
N17150 X33.594 Y-25.423
N17155 X34.082 Y-24.778
N17160 X34.553 Y-24.121
N17165 X34.828 Y-23.717
N17170 X34.885 Y-23.62
N17175 X34.931 Y-23.518
N17180 X34.963 Y-23.41
N17185 X34.987 Y-23.311
N17190 X35.019 Y-23.128
N17195 X35.144 Y-22.21
N17200 X35.166 Y-22.027
N17205 X35.181 Y-21.843
N17210 X35.209 Y-21.476
N17215 X35.216 Y-21.292
N17220 X35.192 Y-20.558
N17225 X35.179 Y-20.191
N17230 X35.165 Y-19.882
N17235 X35.163 Y-19.85
N17240 G3 X34.474 Y-19.609 I-0.399 J-0.034
N17245 G1 X22.88 Y-31.907
N17250 G3 X23.128 Y-32.579 I0.291 J-0.274
N17255 G1 X23.495 Y-32.592
N17260 X23.679 Y-32.598
N17265 X23.862 Y-32.597
N17270 X24.413 Y-32.561
N17275 X24.963 Y-32.509
N17280 X25.147 Y-32.488
N17285 X25.514 Y-32.44
N17290 X25.698 Y-32.415
N17295 X26.248 Y-32.287
N17300 X26.432 Y-32.24
N17305 X26.982 Y-32.092
N17310 X27.533 Y-31.923
N17315 X27.717 Y-31.85
N17320 X28.084 Y-31.693
N17325 X28.267 Y-31.613
N17330 X28.818 Y-31.361
N17335 X29.369 Y-31.083
N17340 X29.486 Y-31.021
N17345 X30.103 Y-30.601
N17350 X30.654 Y-30.218
N17355 X30.837 Y-30.083
N17360 X31.021 Y-29.948
N17365 X31.056 Y-29.919
N17370 X31.821 Y-29.185
N17375 X31.938 Y-29.072
N17380 X32.01 Y-29.002
N17385 X32.367 Y-28.634
N17390 X32.512 Y-28.451
N17395 X32.673 Y-28.24
N17400 X33.061 Y-27.717
N17405 X33.223 Y-27.493
N17410 X33.451 Y-27.166
N17415 X33.57 Y-26.982
N17420 X33.853 Y-26.432
N17425 X34.141 Y-25.86
N17430 X34.218 Y-25.698
N17435 X34.458 Y-25.147
N17440 X34.517 Y-24.963
N17445 X34.692 Y-24.401
N17450 X34.8 Y-24.046
N17455 X34.855 Y-23.862
N17460 X34.963 Y-23.41
N17465 G0 Z6.
N17470 G1 X-4.21 Y12.611 F500.
N17475 G0 Z-2.2
N17480 G1 Z-2.6 F300.
N17485 X-4.214 Y12.618 Z-2.678
N17490 X-4.225 Y12.637 Z-2.753
N17495 X-4.243 Y12.669 Z-2.822
N17500 X-4.268 Y12.713 Z-2.883
N17505 X-4.298 Y12.765 Z-2.933
N17510 X-4.332 Y12.825 Z-2.97
N17515 X-4.37 Y12.89 Z-2.992
N17520 X-4.409 Y12.958 Z-3.
N17525 G3 X-4.956 Y13.521 I-1.373 J-0.787
N17530 G1 X-5.39 Y13.767
N17535 X-5.874 Y14.051
N17540 X-6.241 Y14.331
N17545 X-6.456 Y14.501
N17550 X-6.668 Y14.684
N17555 X-6.868 Y14.841
N17560 X-7.039 Y14.954
N17565 X-7.258 Y15.075
N17570 X-7.517 Y15.192
N17575 X-7.816 Y15.298
N17580 X-8.2 Y15.402
N17585 X-8.621 Y15.479
N17590 X-9.156 Y15.534
N17595 X-9.788 Y15.548
N17600 X-10.499 Y15.506
N17605 X-11.299 Y15.394
N17610 X-12.089 Y15.221
N17615 X-12.865 Y14.996
N17620 X-13.627 Y14.725
N17625 X-14.371 Y14.411
N17630 X-15.098 Y14.057
N17635 X-15.806 Y13.666
N17640 X-16.492 Y13.239
N17645 X-17.155 Y12.777
N17650 X-17.793 Y12.281
N17655 X-18.405 Y11.753
N17660 X-18.988 Y11.194
N17665 X-19.542 Y10.605
N17670 X-20.065 Y9.989
N17675 X-20.556 Y9.347
N17680 X-21.014 Y8.681
N17685 X-21.439 Y7.993
N17690 X-21.828 Y7.285
N17695 X-22.182 Y6.558
N17700 X-22.387 Y6.076
N17705 X-22.447 Y5.873
N17710 X-22.46 Y5.662
N17715 X-22.425 Y5.454
N17720 X-22.344 Y5.259
N17725 X-22.178 Y4.956
N17730 X-22.078 Y4.772
N17735 X-22.027 Y4.671
N17740 X-21.839 Y4.222
N17745 X-21.772 Y4.038
N17750 X-21.54 Y3.297
N17755 G3 X-20.918 Y3.113 I0.377 J0.133
N17760 G1 X-20.895 Y3.131
N17765 X-6.768 Y14.019
N17770 X-6.696 Y14.075
N17775 G3 X-6.668 Y14.684 I-0.244 J0.317
N17780 G1 X-6.975 Y14.951
N17785 X-7.087 Y15.051
N17790 X-7.605 Y15.528
N17795 X-7.709 Y15.68
N17800 X-7.799 Y15.8
N17805 X-7.901 Y15.91
N17810 X-8.015 Y16.015
N17815 X-8.161 Y16.13
N17820 X-8.344 Y16.25
N17825 X-8.542 Y16.36
N17830 X-8.795 Y16.473
N17835 X-9.088 Y16.578
N17840 X-9.423 Y16.668
N17845 X-9.842 Y16.745
N17850 X-10.297 Y16.792
N17855 X-10.853 Y16.804
N17860 X-11.515 Y16.765
N17865 X-12.253 Y16.661
N17870 X-13.042 Y16.485
N17875 X-13.816 Y16.252
N17880 X-14.573 Y15.97
N17885 X-15.314 Y15.646
N17890 X-16.036 Y15.284
N17895 X-16.74 Y14.887
N17900 X-17.424 Y14.455
N17905 X-18.086 Y13.992
N17910 X-18.725 Y13.497
N17915 X-19.34 Y12.973
N17920 X-19.93 Y12.421
N17925 X-20.493 Y11.841
N17930 X-21.027 Y11.234
N17935 X-21.533 Y10.604
N17940 X-22.009 Y9.95
N17945 X-22.454 Y9.276
N17950 X-22.869 Y8.582
N17955 X-23.251 Y7.87
N17960 X-23.345 Y7.659
N17965 X-23.416 Y7.411
N17970 X-23.417 Y7.154
N17975 X-23.348 Y6.906
N17980 X-23.213 Y6.687
N17985 X-23.128 Y6.583
N17990 X-23.006 Y6.424
N17995 X-22.944 Y6.328
N18000 X-22.89 Y6.241
N18005 X-22.344 Y5.259
N18010 G3 X-21.768 Y5.139 I0.343 J0.206
N18015 G1 X-21.667 Y5.212
N18020 X-7.963 Y15.037
N18025 X-7.815 Y15.143
N18030 G3 X-7.709 Y15.68 I-0.233 J0.325
N18035 G1 X-7.951 Y16.038
N18040 X-8.127 Y16.52
N18045 X-8.186 Y16.658
N18050 X-8.258 Y16.789
N18055 X-8.343 Y16.913
N18060 X-8.447 Y17.038
N18065 X-8.565 Y17.159
N18070 X-8.715 Y17.29
N18075 X-8.888 Y17.418
N18080 X-9.093 Y17.545
N18085 X-9.341 Y17.673
N18090 X-9.427 Y17.71
N18095 X-9.524 Y17.742
N18100 X-9.626 Y17.76
N18105 X-9.728 Y17.763
N18110 G3 X-9.975 Y17.05 I0.003 J-0.4
N18115 G1 X-8.756 Y16.082
N18120 G3 X-8.127 Y16.52 I0.249 J0.313
N18125 G1 X-8.144 Y16.566
N18130 X-8.212 Y17.071
N18135 X-8.239 Y17.33
N18140 X-8.247 Y17.368
N18145 X-8.26 Y17.406
N18150 X-8.273 Y17.438
N18155 X-8.316 Y17.529
N18160 X-8.342 Y17.575
N18165 X-8.379 Y17.621
N18170 X-8.443 Y17.688
N18175 X-8.487 Y17.728
N18180 X-8.53 Y17.76
N18185 X-8.627 Y17.81
N18190 X-8.719 Y17.85
N18195 X-8.765 Y17.863
N18200 X-8.811 Y17.87
N18205 X-8.902 Y17.877
N18210 X-8.948 Y17.874
N18215 X-8.994 Y17.868
N18220 X-9.178 Y17.824
N18225 X-9.285 Y17.805
N18230 X-9.361 Y17.793
N18235 X-9.545 Y17.771
N18240 X-9.728 Y17.763
N18245 X-9.912 Y17.783
N18250 X-10.268 Y17.825
N18255 X-10.279 Y17.828
N18260 X-10.567 Y17.906
N18265 X-10.945 Y17.976
N18270 X-11.39 Y18.022
N18275 X-11.899 Y18.034
N18280 X-12.516 Y17.999
N18285 X-13.198 Y17.905
N18290 X-13.987 Y17.73
N18295 X-14.76 Y17.493
N18300 X-15.516 Y17.206
N18305 X-16.254 Y16.877
N18310 X-16.973 Y16.509
N18315 X-17.675 Y16.108
N18320 X-18.357 Y15.674
N18325 X-19.018 Y15.21
N18330 X-19.659 Y14.717
N18335 X-20.277 Y14.196
N18340 X-20.873 Y13.65
N18345 X-21.443 Y13.077
N18350 X-21.987 Y12.48
N18355 X-22.505 Y11.859
N18360 X-22.996 Y11.217
N18365 X-23.459 Y10.555
N18370 X-23.894 Y9.873
N18375 X-24.193 Y9.351
N18380 X-24.354 Y9.008
N18385 X-24.419 Y8.835
N18390 X-24.475 Y8.586
N18395 X-24.461 Y8.33
N18400 X-24.378 Y8.088
N18405 X-24.233 Y7.877
N18410 X-24.079 Y7.709
N18415 X-23.495 Y7.029
N18420 X-23.213 Y6.687
N18425 G3 X-22.656 Y6.645 I0.3 J0.265
N18430 G1 X-22.528 Y6.753
N18435 X-10.171 Y17.151
N18440 G3 X-10.279 Y17.828 I-0.258 J0.306
N18445 G1 X-10.816 Y18.024
N18450 X-11.318 Y18.382
N18455 X-11.33 Y18.394
N18460 X-11.44 Y18.496
N18465 X-11.561 Y18.585
N18470 X-11.704 Y18.673
N18475 X-11.884 Y18.763
N18480 X-12.075 Y18.841
N18485 X-12.311 Y18.916
N18490 X-12.608 Y18.985
N18495 X-12.917 Y19.03
N18500 X-13.307 Y19.056
N18505 X-13.745 Y19.05
N18510 X-14.289 Y18.998
N18515 X-14.89 Y18.892
N18520 X-15.621 Y18.701
N18525 X-16.384 Y18.435
N18530 X-17.127 Y18.116
N18535 X-17.85 Y17.755
N18540 X-18.553 Y17.357
N18545 X-19.237 Y16.926
N18550 X-19.901 Y16.466
N18555 X-20.545 Y15.978
N18560 X-21.169 Y15.463
N18565 X-21.771 Y14.924
N18570 X-22.349 Y14.359
N18575 X-22.904 Y13.771
N18580 X-23.434 Y13.161
N18585 X-23.939 Y12.53
N18590 X-24.419 Y11.88
N18595 X-24.873 Y11.211
N18600 X-25.186 Y10.684
N18605 X-25.383 Y10.283
N18610 X-25.504 Y9.976
N18615 X-25.561 Y9.789
N18620 X-25.6 Y9.569
N18625 X-25.586 Y9.346
N18630 X-25.519 Y9.132
N18635 X-25.403 Y8.941
N18640 X-25.245 Y8.783
N18645 X-24.78 Y8.416
N18650 X-24.587 Y8.26
N18655 X-24.413 Y8.074
N18660 X-24.233 Y7.877
N18665 G3 X-23.696 Y7.847 I0.285 J0.28
N18670 G1 X-23.544 Y7.97
N18675 X-11.483 Y17.73
N18680 X-11.376 Y17.816
N18685 G3 X-11.33 Y18.394 I-0.252 J0.311
N18690 G1 X-11.47 Y18.539
N18695 X-11.517 Y18.611
N18700 X-11.817 Y19.074
N18705 X-11.826 Y19.09
N18710 X-11.836 Y19.12
N18715 X-11.89 Y19.26
N18720 X-11.985 Y19.376
N18725 X-12.091 Y19.482
N18730 X-12.21 Y19.583
N18735 X-12.361 Y19.692
N18740 X-12.526 Y19.792
N18745 X-12.73 Y19.894
N18750 X-12.965 Y19.988
N18755 X-13.233 Y20.072
N18760 X-13.552 Y20.144
N18765 X-13.9 Y20.194
N18770 X-14.332 Y20.22
N18775 X-14.789 Y20.211
N18780 X-15.343 Y20.156
N18785 X-15.99 Y20.039
N18790 X-16.708 Y19.848
N18795 X-17.47 Y19.578
N18800 X-18.211 Y19.255
N18805 X-18.931 Y18.888
N18810 X-19.631 Y18.485
N18815 X-20.312 Y18.049
N18820 X-20.974 Y17.585
N18825 X-21.615 Y17.093
N18830 X-22.237 Y16.577
N18835 X-22.838 Y16.037
N18840 X-23.418 Y15.473
N18845 X-23.975 Y14.888
N18850 X-24.511 Y14.283
N18855 X-25.023 Y13.658
N18860 X-25.511 Y13.014
N18865 X-25.969 Y12.348
N18870 X-26.311 Y11.765
N18875 X-26.517 Y11.338
N18880 X-26.641 Y11.018
N18885 X-26.732 Y10.712
N18890 X-26.759 Y10.587
N18895 X-26.779 Y10.366
N18900 X-26.746 Y10.146
N18905 X-26.662 Y9.94
N18910 X-26.532 Y9.76
N18915 X-26.362 Y9.616
N18920 X-26.248 Y9.54
N18925 X-26.065 Y9.417
N18930 X-25.245 Y8.783
N18935 G3 X-24.764 Y8.79 I0.236 J0.323
N18940 G1 X-24.551 Y8.955
N18945 X-12.219 Y18.504
N18950 X-11.976 Y18.693
N18955 G3 X-11.821 Y19.008 I-0.245 J0.316
N18960 G1 Y19.009
N18965 X-11.825 Y19.065
N18970 X-11.836 Y19.12
N18975 X-11.992 Y19.594
N18980 X-12.007 Y19.741
N18985 X-12.029 Y19.89
N18990 X-12.078 Y20.031
N18995 X-12.145 Y20.166
N19000 X-12.225 Y20.293
N19005 X-12.316 Y20.412
N19010 X-12.427 Y20.534
N19015 X-12.558 Y20.657
N19020 X-12.714 Y20.782
N19025 X-12.899 Y20.908
N19030 X-13.111 Y21.027
N19035 X-13.359 Y21.142
N19040 X-13.641 Y21.246
N19045 X-13.966 Y21.336
N19050 X-14.34 Y21.409
N19055 X-14.759 Y21.456
N19060 X-15.261 Y21.472
N19065 X-15.781 Y21.447
N19070 X-16.412 Y21.365
N19075 X-17.126 Y21.214
N19080 X-17.901 Y20.983
N19085 X-18.655 Y20.693
N19090 X-19.389 Y20.354
N19095 X-20.102 Y19.974
N19100 X-20.797 Y19.56
N19105 X-21.472 Y19.116
N19110 X-22.128 Y18.644
N19115 X-22.765 Y18.147
N19120 X-23.383 Y17.626
N19125 X-23.981 Y17.083
N19130 X-24.559 Y16.518
N19135 X-25.117 Y15.933
N19140 X-25.654 Y15.329
N19145 X-26.169 Y14.705
N19150 X-26.659 Y14.063
N19155 X-27.115 Y13.396
N19160 X-27.471 Y12.782
N19165 X-27.69 Y12.323
N19170 X-27.835 Y11.941
N19175 X-27.926 Y11.633
N19180 X-27.984 Y11.351
N19185 X-28.016 Y11.095
N19190 X-28.021 Y10.975
N19195 X-28.002 Y10.743
N19200 X-27.927 Y10.523
N19205 X-27.799 Y10.329
N19210 X-27.628 Y10.172
N19215 X-27.422 Y10.062
N19220 X-26.982 Y9.894
N19225 X-26.41 Y9.648
N19230 X-26.362 Y9.616
N19235 G3 X-25.921 Y9.631 I0.21 J0.341
N19240 G1 X-25.662 Y9.815
N19245 X-12.483 Y19.17
N19250 X-12.174 Y19.389
N19255 G3 X-12.007 Y19.741 I-0.232 J0.326
N19260 G1 X-12.033 Y20.007
N19265 X-12.046 Y20.191
N19270 X-12.042 Y20.558
N19275 X-12.048 Y20.708
N19280 X-12.076 Y20.855
N19285 X-12.121 Y20.999
N19290 X-12.18 Y21.137
N19295 X-12.252 Y21.271
N19300 X-12.339 Y21.406
N19305 X-12.452 Y21.552
N19310 X-12.58 Y21.694
N19315 X-12.743 Y21.847
N19320 X-12.922 Y21.991
N19325 X-13.145 Y22.142
N19330 X-13.387 Y22.278
N19335 X-13.683 Y22.415
N19340 X-14.008 Y22.535
N19345 X-14.376 Y22.639
N19350 X-14.816 Y22.724
N19355 X-15.273 Y22.776
N19360 X-15.827 Y22.794
N19365 X-16.444 Y22.764
N19370 X-17.101 Y22.679
N19375 X-17.86 Y22.518
N19380 X-18.635 Y22.287
N19385 X-19.391 Y22.002
N19390 X-20.128 Y21.671
N19395 X-20.847 Y21.3
N19400 X-21.546 Y20.895
N19405 X-22.228 Y20.461
N19410 X-22.891 Y19.998
N19415 X-23.535 Y19.511
N19420 X-24.161 Y19.
N19425 X-24.769 Y18.466
N19430 X-25.357 Y17.912
N19435 X-25.926 Y17.338
N19440 X-26.475 Y16.745
N19445 X-27.004 Y16.134
N19450 X-27.509 Y15.503
N19455 X-27.985 Y14.85
N19460 X-28.423 Y14.17
N19465 X-28.742 Y13.583
N19470 X-28.976 Y13.056
N19475 X-29.131 Y12.613
N19480 X-29.23 Y12.233
N19485 X-29.284 Y11.935
N19490 X-29.312 Y11.638
N19495 X-29.315 Y11.47
N19500 X-29.286 Y11.226
N19505 X-29.196 Y10.999
N19510 X-29.049 Y10.802
N19515 X-28.856 Y10.651
N19520 X-28.818 Y10.629
N19525 X-28.634 Y10.547
N19530 X-28.267 Y10.39
N19535 X-28.084 Y10.316
N19540 X-27.422 Y10.062
N19545 G3 X-27.067 Y10.11 I0.13 J0.378
N19550 G1 X-26.725 Y10.343
N19555 X-12.559 Y20.012
N19560 X-12.216 Y20.246
N19565 G3 X-12.042 Y20.558 I-0.225 J0.33
N19570 G1 X-12.035 Y21.292
N19575 X-12.04 Y21.476
N19580 X-12.049 Y21.659
N19585 X-12.064 Y21.809
N19590 X-12.092 Y21.956
N19595 X-12.136 Y22.1
N19600 X-12.192 Y22.239
N19605 X-12.267 Y22.39
N19610 X-12.358 Y22.539
N19615 X-12.476 Y22.703
N19620 X-12.612 Y22.863
N19625 X-12.782 Y23.032
N19630 X-12.978 Y23.198
N19635 X-13.21 Y23.366
N19640 X-13.483 Y23.531
N19645 X-13.78 Y23.679
N19650 X-14.146 Y23.827
N19655 X-14.535 Y23.948
N19660 X-14.993 Y24.052
N19665 X-15.524 Y24.127
N19670 X-16.073 Y24.161
N19675 X-16.715 Y24.149
N19680 X-17.442 Y24.077
N19685 X-18.237 Y23.933
N19690 X-19.018 Y23.725
N19695 X-19.783 Y23.464
N19700 X-20.53 Y23.156
N19705 X-21.259 Y22.807
N19710 X-21.971 Y22.423
N19715 X-22.664 Y22.009
N19720 X-23.341 Y21.567
N19725 X-24. Y21.099
N19730 X-24.641 Y20.607
N19735 X-25.265 Y20.093
N19740 X-25.871 Y19.558
N19745 X-26.459 Y19.004
N19750 X-27.029 Y18.43
N19755 X-27.58 Y17.839
N19760 X-28.11 Y17.229
N19765 X-28.617 Y16.6
N19770 X-29.096 Y15.949
N19775 X-29.539 Y15.273
N19780 X-29.918 Y14.598
N19785 X-30.206 Y13.973
N19790 X-30.403 Y13.435
N19795 X-30.526 Y12.989
N19800 X-30.602 Y12.599
N19805 X-30.634 Y12.303
N19810 X-30.635 Y12.283
N19815 X-30.615 Y12.06
N19820 X-30.542 Y11.848
N19825 X-30.422 Y11.66
N19830 X-30.26 Y11.506
N19835 X-30.103 Y11.39
N19840 X-30.089 Y11.38
N19845 X-29.47 Y11.013
N19850 X-28.856 Y10.651
N19855 G3 X-28.267 Y10.96 I0.191 J0.351
N19860 G1 X-28.259 Y11.038 Z-2.992
N19865 X-28.251 Y11.113 Z-2.97
N19870 X-28.244 Y11.181 Z-2.933
N19875 X-28.237 Y11.242 Z-2.883
N19880 X-28.232 Y11.291 Z-2.822
N19885 X-28.228 Y11.328 Z-2.753
N19890 X-28.226 Y11.351 Z-2.678
N19895 X-28.225 Y11.358 Z-2.6
N19900 G0 Z6.
N19905 G1 X-12.42 Y20.542 F500.
N19910 G0 Z-2.2
N19915 G1 Z-2.6 F300.
N19920 X-12.417 Y20.549 Z-2.678
N19925 X-12.406 Y20.569 Z-2.753
N19930 X-12.389 Y20.602 Z-2.822
N19935 X-12.366 Y20.646 Z-2.883
N19940 X-12.337 Y20.699 Z-2.933
N19945 X-12.305 Y20.761 Z-2.97
N19950 X-12.27 Y20.827 Z-2.992
N19955 X-12.233 Y20.896 Z-3.
N19960 G3 X-12.049 Y21.659 I-1.399 J0.741
N19965 G1 X-12.058 Y21.843
N19970 X-12.071 Y22.027
N19975 X-12.145 Y22.577
N19980 X-12.202 Y22.944
N19985 X-12.231 Y23.128
N19990 X-12.265 Y23.274
N19995 X-12.311 Y23.417
N20000 X-12.372 Y23.563
N20005 X-12.449 Y23.71
N20010 X-12.551 Y23.873
N20015 X-12.673 Y24.036
N20020 X-12.828 Y24.212
N20025 X-13.003 Y24.382
N20030 X-13.225 Y24.565
N20035 X-13.467 Y24.734
N20040 X-13.772 Y24.912
N20045 X-14.101 Y25.07
N20050 X-14.489 Y25.219
N20055 X-14.945 Y25.354
N20060 X-15.425 Y25.455
N20065 X-16.004 Y25.528
N20070 X-16.666 Y25.559
N20075 X-17.345 Y25.536
N20080 X-18.129 Y25.446
N20085 X-18.922 Y25.29
N20090 X-19.701 Y25.077
N20095 X-20.466 Y24.815
N20100 X-21.215 Y24.51
N20105 X-21.947 Y24.168
N20110 X-22.663 Y23.792
N20115 X-23.362 Y23.387
N20120 X-24.044 Y22.954
N20125 X-24.71 Y22.496
N20130 X-25.359 Y22.014
N20135 X-25.991 Y21.51
N20140 X-26.606 Y20.986
N20145 X-27.204 Y20.442
N20150 X-27.785 Y19.88
N20155 X-28.347 Y19.3
N20160 X-28.891 Y18.702
N20165 X-29.414 Y18.085
N20170 X-29.912 Y17.449
N20175 X-30.382 Y16.791
N20180 X-30.816 Y16.109
N20185 X-31.206 Y15.401
N20190 X-31.517 Y14.718
N20195 X-31.732 Y14.121
N20200 X-31.848 Y13.699
N20205 X-31.891 Y13.468
N20210 X-31.906 Y13.237
N20215 X-31.863 Y13.01
N20220 X-31.766 Y12.801
N20225 X-31.62 Y12.622
N20230 X-31.571 Y12.575
N20235 X-31.47 Y12.482
N20240 X-30.818 Y11.931
N20245 X-30.654 Y11.8
N20250 X-30.26 Y11.506
N20255 G3 X-29.641 Y11.751 I0.228 J0.329
N20260 G1 X-29.625 Y11.827 Z-2.992
N20265 X-29.609 Y11.901 Z-2.97
N20270 X-29.594 Y11.968 Z-2.933
N20275 X-29.581 Y12.027 Z-2.883
N20280 X-29.571 Y12.076 Z-2.822
N20285 X-29.563 Y12.112 Z-2.753
N20290 X-29.558 Y12.134 Z-2.678
N20295 X-29.557 Y12.142 Z-2.6
N20300 G0 Z6.
N20305 G1 X-12.48 Y21.977 F500.
N20310 G0 Z-2.2
N20315 G1 Z-2.6 F300.
N20320 X-12.477 Y21.984 Z-2.678
N20325 X-12.468 Y22.006 Z-2.753
N20330 X-12.455 Y22.04 Z-2.822
N20335 X-12.436 Y22.086 Z-2.883
N20340 X-12.414 Y22.142 Z-2.933
N20345 X-12.388 Y22.207 Z-2.97
N20350 X-12.36 Y22.276 Z-2.992
N20355 X-12.331 Y22.349 Z-3.
N20360 G3 X-12.231 Y23.128 I-1.47 J0.586
N20365 G1 X-12.264 Y23.311
N20370 X-12.383 Y23.862
N20375 X-12.429 Y24.046
N20380 X-12.549 Y24.413
N20385 X-12.665 Y24.76
N20390 X-12.735 Y24.938
N20395 X-12.803 Y25.076
N20400 X-12.892 Y25.227
N20405 X-13.005 Y25.387
N20410 X-13.142 Y25.55
N20415 X-13.314 Y25.726
N20420 X-13.511 Y25.896
N20425 X-13.753 Y26.074
N20430 X-14.028 Y26.243
N20435 X-14.357 Y26.412
N20440 X-14.739 Y26.57
N20445 X-15.172 Y26.71
N20450 X-15.691 Y26.832
N20455 X-16.241 Y26.916
N20460 X-16.879 Y26.962
N20465 X-17.61 Y26.955
N20470 X-18.415 Y26.883
N20475 X-19.211 Y26.747
N20480 X-19.997 Y26.555
N20485 X-20.768 Y26.315
N20490 X-21.525 Y26.032
N20495 X-22.267 Y25.711
N20500 X-22.993 Y25.356
N20505 X-23.704 Y24.972
N20510 X-24.399 Y24.559
N20515 X-25.079 Y24.121
N20520 X-25.742 Y23.66
N20525 X-26.39 Y23.176
N20530 X-27.021 Y22.672
N20535 X-27.637 Y22.148
N20540 X-28.236 Y21.606
N20545 X-28.819 Y21.046
N20550 X-29.384 Y20.468
N20555 X-29.931 Y19.873
N20560 X-30.458 Y19.261
N20565 X-30.962 Y18.628
N20570 X-31.439 Y17.976
N20575 X-31.883 Y17.301
N20580 X-32.291 Y16.603
N20585 X-32.655 Y15.881
N20590 X-32.904 Y15.281
N20595 X-33.05 Y14.832
N20600 X-33.076 Y14.623
N20605 X-33.054 Y14.415
N20610 X-32.986 Y14.216
N20615 X-32.876 Y14.038
N20620 X-32.662 Y13.767
N20625 X-32.039 Y13.032
N20630 X-31.938 Y12.927
N20635 X-31.62 Y12.622
N20640 G3 X-30.976 Y12.788 I0.267 J0.298
N20645 G1 X-30.95 Y12.861 Z-2.992
N20650 X-30.925 Y12.932 Z-2.97
N20655 X-30.902 Y12.997 Z-2.933
N20660 X-30.882 Y13.055 Z-2.883
N20665 X-30.866 Y13.102 Z-2.822
N20670 X-30.854 Y13.136 Z-2.753
N20675 X-30.846 Y13.158 Z-2.678
N20680 X-30.844 Y13.165 Z-2.6
N20685 G0 Z6.
N20690 G1 X-12.719 Y23.584 F500.
N20695 G0 Z-2.2
N20700 G1 Z-2.6 F300.
N20705 X-12.717 Y23.592 Z-2.678
N20710 X-12.712 Y23.614 Z-2.753
N20715 X-12.704 Y23.65 Z-2.822
N20720 X-12.694 Y23.699 Z-2.883
N20725 X-12.681 Y23.758 Z-2.933
N20730 X-12.667 Y23.826 Z-2.97
N20735 X-12.651 Y23.899 Z-2.992
N20740 X-12.635 Y23.975 Z-3.
N20745 G3 X-12.665 Y24.76 I-1.547 J0.332
N20750 G1 X-12.796 Y25.147
N20755 X-13.032 Y25.732
N20760 X-13.104 Y25.881
N20765 X-13.399 Y26.449
N20770 X-13.489 Y26.615
N20775 X-13.566 Y26.744
N20780 X-13.678 Y26.896
N20785 X-13.804 Y27.043
N20790 X-13.971 Y27.208
N20795 X-14.162 Y27.369
N20800 X-14.398 Y27.536
N20805 X-14.668 Y27.697
N20810 X-14.994 Y27.858
N20815 X-15.362 Y28.004
N20820 X-15.817 Y28.143
N20825 X-16.298 Y28.249
N20830 X-16.899 Y28.331
N20835 X-17.564 Y28.369
N20840 X-18.293 Y28.351
N20845 X-19.097 Y28.266
N20850 X-19.892 Y28.121
N20855 X-20.676 Y27.924
N20860 X-21.447 Y27.682
N20865 X-22.204 Y27.4
N20870 X-22.947 Y27.082
N20875 X-23.676 Y26.732
N20880 X-24.39 Y26.354
N20885 X-25.089 Y25.949
N20890 X-25.774 Y25.519
N20895 X-26.443 Y25.066
N20900 X-27.098 Y24.591
N20905 X-27.736 Y24.096
N20910 X-28.36 Y23.582
N20915 X-28.968 Y23.049
N20920 X-29.56 Y22.499
N20925 X-30.136 Y21.932
N20930 X-30.694 Y21.348
N20935 X-31.234 Y20.746
N20940 X-31.754 Y20.127
N20945 X-32.25 Y19.489
N20950 X-32.721 Y18.832
N20955 X-33.162 Y18.155
N20960 X-33.569 Y17.457
N20965 X-33.922 Y16.759
N20970 X-34.003 Y16.56
N20975 X-34.066 Y16.311
N20980 X-34.06 Y16.054
N20985 X-33.983 Y15.809
N20990 X-33.958 Y15.755
N20995 X-33.878 Y15.602
N21000 X-33.442 Y14.868
N21005 X-33.222 Y14.501
N21010 X-33.096 Y14.317
N21015 X-32.876 Y14.038
N21020 G3 X-32.215 Y14.113 I0.305 J0.258
N21025 G1 X-32.179 Y14.182 Z-2.992
N21030 X-32.145 Y14.249 Z-2.97
N21035 X-32.113 Y14.31 Z-2.933
N21040 X-32.085 Y14.364 Z-2.883
N21045 X-32.062 Y14.408 Z-2.822
N21050 X-32.045 Y14.441 Z-2.753
N21055 X-32.035 Y14.462 Z-2.678
N21060 X-32.031 Y14.468 Z-2.6
N21065 G0 Z6.
N21070 G1 X-13.345 Y25.447 F500.
N21075 G0 Z-2.2
N21080 G1 Z-2.6 F300.
N21085 Y25.455 Z-2.678
N21090 X-13.344 Y25.478 Z-2.753
N21095 X-13.342 Y25.514 Z-2.822
N21100 X-13.34 Y25.564 Z-2.883
N21105 X-13.338 Y25.625 Z-2.933
N21110 X-13.334 Y25.694 Z-2.97
N21115 X-13.331 Y25.769 Z-2.992
